; GCode generated by CraftWare

G21 ;metric values
G90 ;absolute positioning
M82 ;set extruder to absolute mode
M107 ;start with the fan off
G28
G29
G92 E0 ;zero the extruded length
G1 F9000
M117 Printing (Craftware)...
M104 S220 ;set head temp (no wait)
M190 S75 ;set bed temp (wait)
M109 S220 ;set head temp (wait)
; ------------------------------------
; Layer #0
; ------------------------------------
M106 S0 ;turn off fan
G21 ; mm
G90 ; abs
G92 E0 ;reset extr
G0 F1200 Z0.300
;segType:Skirt
G0 F3600 E-3.0000
G0 F1200 Z0.300
G0 X113.057 Y107.910 F4500
G0 F3600 E0.0000
G1 X113.929 Y108.160 E0.0452 F900
G1 X115.300 Y108.160 E0.1136
G1 X115.673 Y108.284 E0.1333
G1 X117.168 Y108.284 E0.2079
G1 X117.542 Y108.409 E0.2275
G1 X118.539 Y108.409 E0.2772
G1 X119.411 Y108.533 E0.3212
G1 X120.407 Y108.533 E0.3709
G1 X120.781 Y108.658 E0.3906
G1 X122.276 Y108.658 E0.4651
G1 X122.650 Y108.783 E0.4848
G1 X124.145 Y108.783 E0.5594
G1 X124.519 Y108.907 E0.5790
G1 X125.515 Y108.907 E0.6287
G1 X125.889 Y109.032 E0.6484
G1 X126.886 Y109.032 E0.6981
G1 X127.758 Y109.156 E0.7421
G1 X132.242 Y109.156 E0.9658
G1 X133.862 Y108.783 E1.0487
G1 X134.609 Y108.533 E1.0881
G1 X135.232 Y108.160 E1.1243
G1 X135.917 Y107.848 E1.1618
G1 X136.540 Y107.475 E1.1981
G1 X137.101 Y107.038 E1.2335
G1 X137.599 Y106.540 E1.2687
G1 X138.160 Y106.104 E1.3041
G1 X140.651 Y103.613 E1.4799
G1 X141.087 Y103.052 E1.5153
G1 X141.586 Y102.554 E1.5505
G1 X142.022 Y101.993 E1.5859
G1 X142.333 Y101.308 E1.6235
G1 X142.395 Y100.374 E1.6702
G1 X142.395 Y98.879 E1.7448
G1 X141.648 Y97.633 E1.8172
G1 X141.150 Y97.135 E1.8524
G1 X140.714 Y96.574 E1.8878
G1 X137.724 Y93.584 E2.0988
G1 X136.042 Y92.276 E2.2051
G1 X135.419 Y91.902 E2.2413
G1 X134.734 Y91.591 E2.2789
G1 X132.865 Y90.968 E2.3771
G1 X132.367 Y90.968 E2.4020
G1 X131.993 Y90.844 E2.4216
G1 X126.512 Y90.844 E2.6951
G1 X126.138 Y90.968 E2.7148
G1 X125.141 Y90.968 E2.7645
G1 X123.273 Y91.093 E2.8579
G1 X121.778 Y91.093 E2.9325
G1 X121.404 Y91.217 E2.9522
G1 X120.407 Y91.217 E3.0019
G1 X118.539 Y91.342 E3.0953
G1 X116.546 Y91.342 E3.1948
G1 X116.172 Y91.467 E3.2144
G1 X114.179 Y91.467 E3.3139
G1 X113.805 Y91.591 E3.3335
G1 X113.307 Y91.591 E3.3584
G1 X109.818 Y95.079 E3.6045
G1 X109.632 Y95.889 E3.6459
G1 X109.632 Y104.360 E4.0686
G1 X110.067 Y104.921 E4.1040
G1 X113.057 Y107.910 E4.3149
G0 F3600 E4.3149
G0 X113.057 Y108.284 F4500
G1 X113.929 Y108.533 E4.3602 F900
G1 X115.300 Y108.533 E4.4286
G1 X115.673 Y108.658 E4.4482
G1 X117.168 Y108.658 E4.5228
G1 X117.542 Y108.783 E4.5424
G1 X118.539 Y108.783 E4.5922
G1 X119.411 Y108.907 E4.6361
G1 X120.407 Y108.907 E4.6858
G1 X120.781 Y109.032 E4.7055
G1 X122.276 Y109.032 E4.7801
G1 X122.650 Y109.156 E4.7997
G1 X124.145 Y109.156 E4.8743
G1 X124.519 Y109.281 E4.8940
G1 X125.515 Y109.281 E4.9437
G1 X125.889 Y109.405 E4.9633
G1 X126.886 Y109.405 E5.0131
G1 X127.758 Y109.530 E5.0570
G1 X132.242 Y109.530 E5.2808
G1 X133.862 Y109.156 E5.3637
G1 X134.609 Y108.907 E5.4030
G1 X135.232 Y108.533 E5.4392
G1 X135.917 Y108.222 E5.4768
G1 X136.540 Y107.848 E5.5130
G1 X137.101 Y107.412 E5.5485
G1 X137.599 Y106.914 E5.5836
G1 X138.160 Y106.478 E5.6190
G1 X141.150 Y103.488 E5.8300
G1 X142.458 Y101.806 E5.9363
G1 X142.769 Y101.121 E5.9738
G1 X142.769 Y99.128 E6.0733
G1 X142.520 Y98.380 E6.1126
G1 X141.212 Y96.699 E6.2189
G1 X137.724 Y93.211 E6.4650
G1 X136.042 Y91.902 E6.5713
G1 X135.419 Y91.529 E6.6075
G1 X134.734 Y91.217 E6.6451
G1 X132.865 Y90.595 E6.7433
G1 X132.367 Y90.595 E6.7682
G1 X131.993 Y90.470 E6.7878
G1 X126.512 Y90.470 E7.0613
G1 X126.138 Y90.595 E7.0810
G1 X125.141 Y90.595 E7.1307
G1 X123.273 Y90.719 E7.2241
G1 X121.778 Y90.719 E7.2987
G1 X121.404 Y90.844 E7.3184
G1 X120.407 Y90.844 E7.3681
G1 X118.539 Y90.968 E7.4615
G1 X116.546 Y90.968 E7.5610
G1 X116.172 Y91.093 E7.5806
G1 X114.179 Y91.093 E7.6801
G1 X113.805 Y91.217 E7.6997
G1 X113.307 Y91.217 E7.7246
G1 X109.818 Y94.706 E7.9707
G1 X109.383 Y95.266 E8.0061
G1 X109.258 Y95.640 E8.0258
G1 X109.258 Y104.111 E8.4484
G1 X109.569 Y104.796 E8.4859
G1 X113.057 Y108.284 E8.7320
G0 F3600 E8.7320
G0 X113.057 Y108.658 F4500
G1 X113.929 Y108.907 E8.7773 F900
G1 X115.300 Y108.907 E8.8457
G1 X115.673 Y109.032 E8.8653
G1 X117.168 Y109.032 E8.9399
G1 X117.542 Y109.156 E8.9596
G1 X118.539 Y109.156 E9.0093
G1 X119.411 Y109.281 E9.0532
G1 X120.407 Y109.281 E9.1029
G1 X120.781 Y109.405 E9.1226
G1 X122.276 Y109.405 E9.1972
G1 X122.650 Y109.530 E9.2168
G1 X124.145 Y109.530 E9.2914
G1 X124.519 Y109.655 E9.3111
G1 X125.515 Y109.655 E9.3608
G1 X125.889 Y109.779 E9.3804
G1 X126.886 Y109.779 E9.4302
G1 X127.758 Y109.904 E9.4741
G1 X132.242 Y109.904 E9.6979
G1 X133.862 Y109.530 E9.7808
G1 X134.609 Y109.281 E9.8201
G1 X135.232 Y108.907 E9.8563
G1 X135.917 Y108.596 E9.8939
G1 X136.540 Y108.222 E9.9301
G1 X137.101 Y107.786 E9.9656
G1 X137.599 Y107.288 E10.0007
G1 X138.160 Y106.852 E10.0361
G1 X141.648 Y103.364 E10.2822
G1 X142.520 Y102.242 E10.3531
G1 X142.769 Y101.993 E10.3707
G1 X143.081 Y101.308 E10.4083
G1 X143.143 Y100.374 E10.4550
G1 X143.143 Y98.879 E10.5295
G1 X142.395 Y97.633 E10.6020
G1 X141.897 Y97.135 E10.6372
G1 X141.461 Y96.574 E10.6726
G1 X137.475 Y92.588 E10.9539
G1 X136.353 Y91.716 E11.0247
G1 X135.108 Y90.968 E11.0972
G1 X132.865 Y90.221 E11.2151
G1 X132.367 Y90.221 E11.2400
G1 X131.993 Y90.096 E11.2597
G1 X126.512 Y90.096 E11.5331
G1 X126.138 Y90.221 E11.5528
G1 X125.141 Y90.221 E11.6025
G1 X123.273 Y90.345 E11.6959
G1 X121.778 Y90.345 E11.7705
G1 X121.404 Y90.470 E11.7902
G1 X120.407 Y90.470 E11.8399
G1 X118.539 Y90.595 E11.9333
G1 X116.546 Y90.595 E12.0328
G1 X116.172 Y90.719 E12.0524
G1 X114.179 Y90.719 E12.1519
G1 X113.805 Y90.844 E12.1715
G1 X113.307 Y90.844 E12.1964
G1 X109.071 Y95.079 E12.4952
G1 X108.884 Y95.889 E12.5367
G1 X108.884 Y104.360 E12.9593
G1 X109.320 Y104.921 E12.9947
G1 X113.057 Y108.658 E13.2584
;segType:HShell
G0 F3600 E10.2584
G0 X136.326 Y101.192 F4500
G0 F3600 E13.2584
G1 X133.595 Y96.768 E13.5178 F450
G0 X134.296 Y97.142 F4500
G1 X136.599 Y100.873 E13.7366 F450
G0 X136.860 Y100.534 F4500
G1 X135.103 Y97.687 E13.9035 F450
G0 F3600 E13.9035
G0 X136.190 Y98.688 F4500
G1 X137.109 Y100.176 E13.9908 F450
;segType:Perimeter
G0 F3600 E13.9908
G0 X137.904 Y99.385 F4500
G1 X138.251 Y100.106 E14.0307 F450
G1 X138.238 Y100.204 E14.0356
G1 X138.180 Y100.353 E14.0436
G1 X137.854 Y100.869 E14.0740
G1 X137.508 Y101.343 E14.1033
G1 X137.163 Y101.761 E14.1304
G1 X136.822 Y102.130 E14.1554
G1 X136.444 Y102.496 E14.1817
G1 X136.116 Y102.783 E14.2034
G1 X135.786 Y103.045 E14.2244
G1 X135.405 Y103.320 E14.2479
G1 X135.036 Y103.559 E14.2698
G1 X134.625 Y103.798 E14.2935
G1 X134.224 Y104.005 E14.3160
G1 X133.830 Y104.187 E14.3377
G1 X133.373 Y104.370 E14.3623
G1 X132.944 Y104.517 E14.3849
G1 X132.483 Y104.649 E14.4088
G1 X131.988 Y104.764 E14.4341
G1 X131.519 Y104.848 E14.4579
G1 X131.039 Y104.908 E14.4820
G1 X130.551 Y104.944 E14.5065
G1 X130.019 Y104.953 E14.5330
G1 X129.476 Y104.931 E14.5601
G1 X114.672 Y103.831 E15.3007
G1 X114.407 Y103.772 E15.3143
G1 X114.180 Y103.646 E15.3272
G1 X114.014 Y103.475 E15.3391
G1 X113.904 Y103.270 E15.3507
G1 X113.848 Y103.042 E15.3624
G1 X113.839 Y102.760 E15.3765
G1 X113.915 Y96.617 E15.6830
G1 X113.966 Y96.320 E15.6980
G1 X114.060 Y96.116 E15.7092
G1 X114.223 Y95.925 E15.7218
G1 X114.417 Y95.799 E15.7333
G1 X114.735 Y95.713 E15.7497
G1 X129.571 Y94.971 E16.4908
G1 X130.209 Y94.963 E16.5226
G1 X130.806 Y94.994 E16.5525
G1 X131.312 Y95.051 E16.5779
G1 X131.874 Y95.148 E16.6063
G1 X132.432 Y95.279 E16.6349
G1 X132.954 Y95.435 E16.6621
G1 X133.470 Y95.622 E16.6895
G1 X133.952 Y95.829 E16.7157
G1 X134.386 Y96.044 E16.7398
G1 X134.845 Y96.303 E16.7661
G1 X135.250 Y96.561 E16.7901
G1 X135.690 Y96.876 E16.8171
G1 X136.090 Y97.199 E16.8427
G1 X136.462 Y97.533 E16.8677
G1 X136.874 Y97.951 E16.8970
G1 X137.260 Y98.392 E16.9262
G1 X137.644 Y98.895 E16.9578
G1 X138.046 Y99.510 E16.9944
G1 X138.216 Y99.826 E17.0124
G1 X138.247 Y99.988 E17.0206
G0 X138.024 Y100.535 F4500
;segType:Loop
G0 F3600 E17.0206
G0 X137.464 Y100.725 F4500
G1 X137.192 Y101.098 E17.0436 F900
G1 X136.861 Y101.498 E17.0695
G1 X136.535 Y101.850 E17.0934
G1 X136.173 Y102.202 E17.1186
G1 X135.860 Y102.475 E17.1394
G1 X135.544 Y102.726 E17.1595
G1 X135.179 Y102.990 E17.1820
G1 X134.827 Y103.218 E17.2029
G1 X134.433 Y103.447 E17.2256
G1 X134.048 Y103.646 E17.2472
G1 X133.672 Y103.819 E17.2679
G1 X133.234 Y103.995 E17.2915
G1 X132.824 Y104.135 E17.3131
G1 X132.383 Y104.262 E17.3360
G1 X131.908 Y104.372 E17.3603
G1 X131.459 Y104.452 E17.3830
G1 X131.000 Y104.510 E17.4061
G1 X130.533 Y104.544 E17.4295
G1 X130.023 Y104.553 E17.4549
G1 X129.499 Y104.532 E17.4811
G1 X114.730 Y103.434 E18.2199
G1 X114.551 Y103.394 E18.2291
G1 X114.426 Y103.325 E18.2362
G1 X114.340 Y103.236 E18.2424
G1 X114.281 Y103.125 E18.2487
G1 X114.246 Y102.987 E18.2558
G1 X114.239 Y102.756 E18.2673
G1 X114.315 Y96.654 E18.5718
G1 X114.352 Y96.439 E18.5826
G1 X114.400 Y96.333 E18.5884
G1 X114.489 Y96.229 E18.5953
G1 X114.582 Y96.169 E18.6008
G1 X114.798 Y96.111 E18.6119
G1 X129.583 Y95.371 E19.3505
G1 X130.201 Y95.363 E19.3813
G1 X130.773 Y95.393 E19.4099
G1 X131.255 Y95.448 E19.4341
G1 X131.794 Y95.540 E19.4614
G1 X132.329 Y95.666 E19.4888
G1 X132.829 Y95.815 E19.5148
G1 X133.323 Y95.994 E19.5411
G1 X133.784 Y96.192 E19.5661
G1 X134.198 Y96.397 E19.5892
G1 X134.639 Y96.646 E19.6144
G1 X135.026 Y96.892 E19.6373
G1 X135.448 Y97.195 E19.6632
G1 X135.831 Y97.504 E19.6877
G1 X136.185 Y97.823 E19.7115
G1 X136.581 Y98.223 E19.7396
G1 X136.950 Y98.645 E19.7676
G1 X137.317 Y99.126 E19.7978
G1 X137.702 Y99.715 E19.8329
G1 X137.803 Y99.902 E19.8435
G1 X137.808 Y100.193 E19.8580
G1 X137.576 Y100.559 E19.8796
G0 F3600 E19.8796
G0 X136.492 Y101.308 F4500
G1 X136.249 Y101.570 E19.8975 F900
G1 X135.905 Y101.904 E19.9214
G1 X135.299 Y102.410 E19.9608
G1 X134.953 Y102.660 E19.9821
G1 X134.617 Y102.877 E20.0020
G1 X134.240 Y103.096 E20.0238
G1 X133.873 Y103.286 E20.0444
G1 X133.513 Y103.452 E20.0642
G1 X133.094 Y103.620 E20.0867
G1 X132.704 Y103.753 E20.1073
G1 X132.282 Y103.875 E20.1292
G1 X131.827 Y103.980 E20.1525
G1 X131.399 Y104.056 E20.1741
G1 X130.960 Y104.111 E20.1962
G1 X130.515 Y104.144 E20.2185
G1 X130.028 Y104.153 E20.2428
G1 X129.523 Y104.132 E20.2680
G1 X114.814 Y103.039 E21.0039
G1 X114.661 Y102.931 E21.0132
G1 X114.639 Y102.736 E21.0230
G1 X114.714 Y96.708 E21.3237
G1 X114.867 Y96.508 E21.3363
G1 X129.596 Y95.771 E22.0720
G1 X130.193 Y95.763 E22.1018
G1 X130.740 Y95.791 E22.1292
G1 X131.199 Y95.844 E22.1522
G1 X131.715 Y95.932 E22.1783
G1 X132.226 Y96.053 E22.2045
G1 X132.703 Y96.195 E22.2294
G1 X133.176 Y96.366 E22.2545
G1 X133.617 Y96.556 E22.2784
G1 X134.011 Y96.751 E22.3003
G1 X134.433 Y96.989 E22.3245
G1 X134.802 Y97.224 E22.3463
G1 X135.206 Y97.513 E22.3711
G1 X135.571 Y97.808 E22.3945
G1 X135.909 Y98.112 E22.4172
G1 X136.288 Y98.496 E22.4441
G1 X136.640 Y98.898 E22.4708
G1 X136.990 Y99.357 E22.4996
G1 X137.335 Y99.885 E22.5310
G1 X137.365 Y100.144 E22.5441
G1 X137.192 Y100.419 E22.5603
G1 X136.876 Y100.852 E22.5870
G1 X136.624 Y101.157 E22.6068
;segType:HShell
G0 F3600 E22.6068
G0 X114.846 Y102.187 F4500
G1 X115.269 Y102.872 E22.6469 F450
G0 X115.762 Y102.909 F4500
G1 X114.856 Y101.441 E22.7330 F450
G0 X114.865 Y100.694 F4500
G1 X116.255 Y102.945 E22.8650 F450
G0 X116.747 Y102.982 F4500
G1 X114.874 Y99.948 E23.0429 F450
G0 X114.883 Y99.201 F4500
G1 X117.240 Y103.019 E23.2667 F450
G0 X117.733 Y103.055 F4500
G1 X114.893 Y98.455 E23.5364 F450
G0 X114.902 Y97.709 F4500
G1 X118.225 Y103.092 E23.8520 F450
G0 X118.718 Y103.128 F4500
G1 X114.911 Y96.962 E24.2136 F450
G0 X115.214 Y96.691 F4500
G1 X119.211 Y103.165 E24.5932 F450
G0 X119.704 Y103.202 F4500
G1 X115.670 Y96.668 E24.9763 F450
G0 X116.126 Y96.645 F4500
G1 X120.196 Y103.238 E25.3629 F450
G0 X120.689 Y103.275 F4500
G1 X116.582 Y96.622 E25.7530 F450
G0 X117.038 Y96.599 F4500
G1 X121.182 Y103.312 E26.1465 F450
G0 X121.674 Y103.348 F4500
G1 X117.494 Y96.577 E26.5435 F450
G0 X117.950 Y96.554 F4500
G1 X122.167 Y103.385 E26.9441 F450
G0 X122.660 Y103.422 F4500
G1 X118.406 Y96.531 E27.3481 F450
G0 X118.862 Y96.508 F4500
G1 X123.152 Y103.458 E27.7556 F450
G0 X123.645 Y103.495 F4500
G1 X119.318 Y96.485 E28.1666 F450
G0 X119.774 Y96.462 F4500
G1 X124.138 Y103.531 E28.5810 F450
G0 X124.631 Y103.568 F4500
G1 X120.230 Y96.440 E28.9990 F450
G0 X120.686 Y96.417 F4500
G1 X125.123 Y103.605 E29.4204 F450
G0 X125.616 Y103.641 F4500
G1 X121.142 Y96.394 E29.8453 F450
G0 X121.598 Y96.371 F4500
G1 X126.109 Y103.678 E30.2737 F450
G0 X126.601 Y103.715 F4500
G1 X122.054 Y96.348 E30.7056 F450
G0 X122.510 Y96.326 F4500
G1 X127.094 Y103.751 E31.1410 F450
G0 X127.587 Y103.788 F4500
G1 X122.966 Y96.303 E31.5799 F450
G0 X123.422 Y96.280 F4500
G1 X128.079 Y103.824 E32.0222 F450
G0 X128.572 Y103.861 F4500
G1 X123.878 Y96.257 E32.4681 F450
G0 X124.334 Y96.234 F4500
G1 X129.065 Y103.898 E32.9174 F450
G0 X129.557 Y103.934 F4500
G1 X124.790 Y96.211 E33.3702 F450
G0 X125.246 Y96.189 F4500
G1 X130.039 Y103.952 E33.8254 F450
G0 X130.504 Y103.944 F4500
G1 X125.702 Y96.166 E34.2814 F450
G0 X126.158 Y96.143 F4500
G1 X130.953 Y103.911 E34.7369 F450
G0 X131.389 Y103.855 F4500
G1 X126.614 Y96.120 E35.1904 F450
G0 X127.070 Y96.097 F4500
G1 X131.812 Y103.779 E35.6407 F450
G0 X132.223 Y103.683 F4500
G1 X127.526 Y96.074 E36.0868 F450
G0 X127.982 Y96.052 F4500
G1 X132.622 Y103.568 E36.5276 F450
G0 X133.011 Y103.437 F4500
G1 X128.438 Y96.029 E36.9619 F450
G0 X128.894 Y96.006 F4500
G1 X133.388 Y103.286 E37.3888 F450
G0 X133.751 Y103.113 F4500
G1 X129.350 Y95.983 E37.8068 F450
G0 X129.810 Y95.968 F4500
G1 X134.112 Y102.936 E38.2154 F450
G0 X134.460 Y102.738 F4500
G1 X130.280 Y95.968 E38.6123 F450
G0 X130.768 Y95.996 F4500
G1 X134.792 Y102.515 E38.9945 F450
G0 X135.123 Y102.289 F4500
G1 X131.278 Y96.060 E39.3597 F450
G0 X131.809 Y96.160 F4500
G1 X135.436 Y102.035 E39.7041 F450
G0 X135.746 Y101.776 F4500
G1 X132.368 Y96.304 E40.0250 F450
G0 X132.960 Y96.501 F4500
G1 X136.042 Y101.493 E40.3177 F450
; ------------------------------------
; Layer #1
; ------------------------------------
M106 S0 ;turn off fan
G21 ; mm
G90 ; abs
G92 E0 ;reset extr
;segType:HShell
G0 F3600 E-3.0000
G0 F1200 Z0.500
G0 X118.125 Y99.464 F6000
G0 F3600 E0.0000
G1 X123.502 Y96.144 E0.2102 F1800
G0 X122.670 Y96.187 F6000
G1 X118.130 Y98.990 E0.3876 F1800
;segType:Perimeter
G0 F3600 E0.3876
G0 X117.064 Y99.462 F6000
G1 X114.679 Y99.413 E0.4670 F1800
G1 X113.785 Y99.377 E0.4967
G1 X113.822 Y96.493 E0.5927
G1 X113.860 Y96.255 E0.6007
G1 X113.974 Y95.999 E0.6100
G1 X114.137 Y95.812 E0.6183
G1 X114.330 Y95.690 E0.6259
G1 X114.697 Y95.602 E0.6384
G1 X129.382 Y94.835 E1.1275
G1 X130.051 Y94.816 E1.1497
G1 X130.626 Y94.836 E1.1689
G1 X131.276 Y94.901 E1.1906
G1 X131.817 Y94.988 E1.2089
G1 X132.355 Y95.107 E1.2272
G1 X132.933 Y95.272 E1.2472
G1 X133.429 Y95.444 E1.2646
G1 X133.909 Y95.640 E1.2819
G1 X134.374 Y95.861 E1.2990
G1 X134.874 Y96.132 E1.3179
G1 X135.293 Y96.391 E1.3343
G1 X135.749 Y96.708 E1.3527
G1 X136.144 Y97.016 E1.3694
G1 X136.567 Y97.385 E1.3881
G1 X136.972 Y97.782 E1.4069
G1 X137.377 Y98.232 E1.4271
G1 X137.773 Y98.732 E1.4483
G1 X138.157 Y99.292 E1.4709
G1 X138.447 Y99.790 E1.4901
G1 X138.503 Y100.048 E1.4988
G1 X138.457 Y100.287 E1.5069
G1 X138.223 Y100.688 E1.5224
G1 X137.859 Y101.213 E1.5436
G1 X137.494 Y101.673 E1.5632
G1 X137.121 Y102.089 E1.5817
G1 X136.762 Y102.449 E1.5987
G1 X136.406 Y102.770 E1.6146
G1 X136.082 Y103.036 E1.6286
G1 X135.692 Y103.326 E1.6447
G1 X135.294 Y103.592 E1.6606
G1 X134.874 Y103.844 E1.6769
G1 X134.496 Y104.047 E1.6912
G1 X134.054 Y104.258 E1.7075
G1 X133.647 Y104.429 E1.7222
G1 X133.174 Y104.600 E1.7389
G1 X132.680 Y104.750 E1.7561
G1 X132.236 Y104.861 E1.7713
G1 X131.722 Y104.962 E1.7887
G1 X131.189 Y105.037 E1.8066
G1 X130.716 Y105.079 E1.8224
G1 X130.154 Y105.098 E1.8411
G1 X129.660 Y105.088 E1.8575
G1 X128.353 Y104.990 E1.9011
G1 X115.553 Y104.010 E2.3281
G1 X114.512 Y103.927 E2.3628
G1 X114.234 Y103.843 E2.3725
G1 X114.027 Y103.702 E2.3808
G1 X113.879 Y103.519 E2.3886
G1 X113.788 Y103.312 E2.3962
G1 X113.742 Y102.945 E2.4085
G1 X113.776 Y100.141 E2.5017
G1 X117.116 Y100.152 E2.6128
G1 X117.124 Y99.523 E2.6338
G0 X117.134 Y98.723 F6000
;segType:Loop
G0 F3600 E2.6338
G0 X116.033 Y99.041 F6000
G1 X114.691 Y99.013 E2.6784 F3600
G1 X114.190 Y98.993 E2.6951
G1 X114.222 Y96.527 E2.7771
G1 X114.246 Y96.369 E2.7824
G1 X114.315 Y96.217 E2.7879
G1 X114.400 Y96.119 E2.7923
G1 X114.488 Y96.064 E2.7957
G1 X114.754 Y96.000 E2.8048
G1 X129.398 Y95.235 E3.2925
G1 X130.050 Y95.216 E3.3142
G1 X130.600 Y95.235 E3.3325
G1 X131.224 Y95.297 E3.3534
G1 X131.742 Y95.381 E3.3709
G1 X132.257 Y95.495 E3.3884
G1 X132.813 Y95.653 E3.4076
G1 X133.287 Y95.818 E3.4243
G1 X133.747 Y96.007 E3.4408
G1 X134.193 Y96.218 E3.4573
G1 X134.673 Y96.479 E3.4754
G1 X135.074 Y96.726 E3.4911
G1 X135.511 Y97.030 E3.5088
G1 X135.889 Y97.325 E3.5248
G1 X136.295 Y97.679 E3.5427
G1 X136.683 Y98.059 E3.5607
G1 X137.071 Y98.490 E3.5800
G1 X137.451 Y98.969 E3.6004
G1 X137.819 Y99.506 E3.6220
G1 X138.070 Y99.937 E3.6386
G1 X138.095 Y100.053 E3.6426
G1 X138.077 Y100.144 E3.6456
G1 X137.886 Y100.473 E3.6583
G1 X137.537 Y100.975 E3.6786
G1 X137.188 Y101.415 E3.6973
G1 X136.830 Y101.814 E3.7151
G1 X136.486 Y102.159 E3.7313
G1 X136.145 Y102.467 E3.7466
G1 X135.835 Y102.721 E3.7600
G1 X135.462 Y102.999 E3.7754
G1 X135.080 Y103.254 E3.7907
G1 X134.676 Y103.496 E3.8064
G1 X134.315 Y103.690 E3.8200
G1 X133.891 Y103.893 E3.8356
G1 X133.501 Y104.056 E3.8497
G1 X133.048 Y104.220 E3.8657
G1 X132.573 Y104.364 E3.8822
G1 X132.149 Y104.471 E3.8968
G1 X131.655 Y104.568 E3.9135
G1 X131.144 Y104.640 E3.9307
G1 X130.691 Y104.680 E3.9458
G1 X130.152 Y104.698 E3.9637
G1 X129.679 Y104.688 E3.9795
G1 X128.353 Y104.589 E4.0237
G1 X115.553 Y103.609 E4.4507
G1 X114.587 Y103.532 E4.4829
G1 X114.409 Y103.478 E4.4891
G1 X114.301 Y103.404 E4.4934
G1 X114.223 Y103.309 E4.4975
G1 X114.177 Y103.204 E4.5013
G1 X114.142 Y102.923 E4.5108
G1 X114.171 Y100.543 E4.5899
G1 X117.511 Y100.554 E4.7010
G1 X117.529 Y99.071 E4.7503
G1 X116.233 Y99.045 E4.7935
G0 E4.7935
G0 X114.941 Y98.618 F6000
G1 X114.703 Y98.613 E4.8014 F3600
G1 X114.595 Y98.609 E4.8050
G1 X114.621 Y96.588 E4.8722
G1 X114.812 Y96.398 E4.8812
G1 X129.414 Y95.635 E5.3675
G1 X130.048 Y95.617 E5.3886
G1 X130.573 Y95.635 E5.4061
G1 X131.173 Y95.694 E5.4261
G1 X131.667 Y95.774 E5.4427
G1 X132.159 Y95.883 E5.4595
G1 X132.692 Y96.035 E5.4780
G1 X133.146 Y96.193 E5.4939
G1 X133.586 Y96.373 E5.5097
G1 X134.012 Y96.574 E5.5254
G1 X134.472 Y96.825 E5.5429
G1 X134.855 Y97.061 E5.5578
G1 X135.274 Y97.352 E5.5748
G1 X135.635 Y97.633 E5.5900
G1 X136.024 Y97.973 E5.6072
G1 X136.394 Y98.336 E5.6244
G1 X136.766 Y98.748 E5.6429
G1 X137.129 Y99.207 E5.6623
G1 X137.480 Y99.720 E5.6830
G1 X137.607 Y99.936 E5.6914
G1 X137.642 Y100.097 E5.6968
G1 X137.548 Y100.257 E5.7030
G1 X137.216 Y100.736 E5.7224
G1 X136.882 Y101.157 E5.7403
G1 X136.540 Y101.539 E5.7573
G1 X136.210 Y101.869 E5.7728
G1 X135.884 Y102.163 E5.7874
G1 X135.588 Y102.406 E5.8002
G1 X135.231 Y102.672 E5.8150
G1 X134.866 Y102.916 E5.8296
G1 X134.478 Y103.148 E5.8446
G1 X134.134 Y103.333 E5.8576
G1 X133.727 Y103.527 E5.8726
G1 X133.356 Y103.683 E5.8860
G1 X132.921 Y103.840 E5.9014
G1 X132.466 Y103.979 E5.9172
G1 X132.062 Y104.080 E5.9311
G1 X131.589 Y104.173 E5.9471
G1 X131.098 Y104.242 E5.9636
G1 X130.667 Y104.280 E5.9780
G1 X130.149 Y104.297 E5.9952
G1 X129.698 Y104.288 E6.0102
G1 X128.353 Y104.188 E6.0551
G1 X115.553 Y103.208 E6.4820
G1 X114.753 Y103.144 E6.5087
G1 X114.563 Y103.068 E6.5155
G1 X114.542 Y102.900 E6.5211
G1 X114.566 Y100.944 E6.5862
G1 X117.906 Y100.955 E6.6973
G1 X117.934 Y98.679 E6.7730
G1 X115.141 Y98.622 E6.8659
;segType:HShell
G0 E6.8659
G0 X114.819 Y96.804 F6000
G0 X114.812 Y97.278 F6000
G1 X116.016 Y96.535 E6.9130 F1800
G0 X116.848 Y96.492 F6000
G1 X114.806 Y97.752 E6.9927 F1800
G0 X114.800 Y98.226 F6000
G1 X117.679 Y96.448 E7.1053 F1800
G0 X118.511 Y96.405 F6000
G1 X115.243 Y98.423 E7.2330 F1800
G0 X115.979 Y98.438 F6000
G1 X119.343 Y96.361 E7.3645 F1800
G0 X120.175 Y96.318 F6000
G1 X116.715 Y98.454 E7.4997 F1800
G0 X117.452 Y98.469 F6000
G1 X121.007 Y96.274 E7.6387 F1800
G0 X121.838 Y96.231 F6000
G1 X118.136 Y98.516 E7.7834 F1800
G0 F3600 E7.7834
G0 X118.119 Y99.938 F6000
G1 X124.334 Y96.101 E8.0264 F1800
G0 X125.166 Y96.057 F6000
G1 X118.113 Y100.411 E8.3020 F1800
G0 X118.107 Y100.885 F6000
G1 X125.997 Y96.014 E8.6105 F1800
G0 X126.829 Y95.970 F6000
G1 X115.445 Y102.998 E9.0554 F1800
G0 X116.122 Y103.051 F6000
G1 X127.661 Y95.927 E9.5065 F1800
G0 X128.493 Y95.883 F6000
G1 X116.800 Y103.102 E9.9635 F1800
G0 X117.477 Y103.154 F6000
G1 X129.325 Y95.840 E10.4266 F1800
G0 X130.120 Y95.819 F6000
G1 X118.154 Y103.206 E10.8943 F1800
G0 X118.832 Y103.258 F6000
G1 X130.815 Y95.860 E11.3627 F1800
G0 X131.445 Y95.941 F6000
G1 X119.509 Y103.310 E11.8293 F1800
G0 X120.187 Y103.362 F6000
G1 X132.019 Y96.057 E12.2918 F1800
G0 X132.546 Y96.201 F6000
G1 X120.864 Y103.414 E12.7484 F1800
G0 X121.542 Y103.466 F6000
G1 X133.039 Y96.367 E13.1978 F1800
G0 X133.499 Y96.553 F6000
G1 X122.219 Y103.517 E13.6387 F1800
G0 X122.896 Y103.569 F6000
G1 X133.930 Y96.758 E14.0700 F1800
G0 X134.335 Y96.978 F6000
G1 X123.574 Y103.621 E14.4906 F1800
G0 X124.251 Y103.673 F6000
G1 X134.718 Y97.211 E14.8997 F1800
G0 X135.078 Y97.459 F6000
G1 X124.929 Y103.725 E15.2964 F1800
G0 X125.606 Y103.777 F6000
G1 X135.419 Y97.719 E15.6800 F1800
G0 X135.740 Y97.991 F6000
G1 X126.283 Y103.829 E16.0496 F1800
G0 X126.961 Y103.881 F6000
G1 X136.044 Y98.273 E16.4047 F1800
G0 X136.332 Y98.565 F6000
G1 X127.638 Y103.932 E16.7445 F1800
G0 X128.316 Y103.984 F6000
G1 X136.604 Y98.867 E17.0684 F1800
G0 X136.855 Y99.183 F6000
G1 X128.995 Y104.035 E17.3756 F1800
G0 X129.674 Y104.086 F6000
G1 X137.088 Y99.508 E17.6655 F1800
G0 X137.309 Y99.842 F6000
G1 X130.432 Y104.088 E17.9343 F1800
G0 X131.322 Y104.009 F6000
G1 X137.235 Y100.358 E18.1654 F1800
G0 X136.503 Y101.280 F6000
G1 X132.475 Y103.767 E18.3228 F1800
G0 F3600 E18.3228
G0 X117.671 Y101.154 F6000
G1 X114.793 Y102.931 E18.4353 F1800
G0 X114.747 Y102.489 F6000
G1 X116.913 Y101.152 E18.5200 F1800
G0 X116.156 Y101.149 F6000
G1 X114.753 Y102.015 E18.5748 F1800
G0 X114.759 Y101.542 F6000
G1 X115.399 Y101.147 E18.5998 F1800
; ------------------------------------
; Layer #2
; ------------------------------------
M106 S0 ;turn off fan
G21 ; mm
G90 ; abs
G92 E0 ;reset extr
;segType:HShell
G0 F3600 E-3.0000
G0 F1200 Z0.700
G0 X114.716 Y97.407 F6000
G0 F3600 E0.0000
G1 X115.146 Y98.104 E0.0272 F1800
G0 X115.622 Y98.113 F6000
G1 X114.726 Y96.662 E0.0839 F1800
G0 X115.079 Y96.472 F6000
G1 X116.097 Y98.122 E0.1484 F1800
G0 X116.573 Y98.131 F6000
G1 X115.534 Y96.448 E0.2142 F1800
G0 X115.989 Y96.423 F6000
G1 X117.049 Y98.140 E0.2813 F1800
;segType:Perimeter
G0 F3600 E0.2813
G0 X117.068 Y99.141 F6000
G1 X114.410 Y99.088 E0.3697 F1800
G1 X114.296 Y99.086 E0.3735
G1 X113.694 Y99.078 E0.3936
G1 X113.729 Y96.370 E0.4836
G1 X113.770 Y96.137 E0.4915
G1 X113.887 Y95.882 E0.5008
G1 X114.052 Y95.699 E0.5090
G1 X114.252 Y95.577 E0.5168
G1 X114.477 Y95.511 E0.5246
G1 X114.973 Y95.477 E0.5412
G1 X127.667 Y94.785 E0.9640
G1 X129.727 Y94.675 E1.0326
G1 X130.514 Y94.686 E1.0588
G1 X131.276 Y94.755 E1.0842
G1 X132.012 Y94.879 E1.1090
G1 X132.720 Y95.053 E1.1333
G1 X133.399 Y95.272 E1.1570
G1 X134.049 Y95.534 E1.1804
G1 X134.671 Y95.837 E1.2034
G1 X135.074 Y96.063 E1.2187
G1 X135.447 Y96.296 E1.2334
G1 X135.825 Y96.555 E1.2486
G1 X136.188 Y96.829 E1.2637
G1 X136.738 Y97.299 E1.2878
G1 X137.217 Y97.771 E1.3102
G1 X137.666 Y98.277 E1.3327
G1 X138.081 Y98.816 E1.3553
G1 X138.554 Y99.539 E1.3840
G1 X138.693 Y99.790 E1.3936
G1 X138.749 Y100.051 E1.4024
G1 X138.689 Y100.323 E1.4117
G1 X138.300 Y100.947 E1.4362
G1 X137.892 Y101.497 E1.4589
G1 X137.451 Y102.013 E1.4815
G1 X136.978 Y102.495 E1.5040
G1 X136.474 Y102.944 E1.5264
G1 X136.161 Y103.194 E1.5397
G1 X135.791 Y103.463 E1.5550
G1 X135.408 Y103.716 E1.5702
G1 X135.034 Y103.940 E1.5847
G1 X134.313 Y104.311 E1.6117
G1 X133.673 Y104.582 E1.6348
G1 X133.004 Y104.811 E1.6583
G1 X132.307 Y104.995 E1.6823
G1 X131.583 Y105.132 E1.7068
G1 X130.833 Y105.215 E1.7319
G1 X130.060 Y105.242 E1.7576
G1 X129.200 Y105.202 E1.7863
G1 X114.436 Y104.033 E2.2789
G1 X114.187 Y103.968 E2.2874
G1 X113.966 Y103.836 E2.2960
G1 X113.807 Y103.661 E2.3038
G1 X113.704 Y103.455 E2.3115
G1 X113.652 Y103.225 E2.3194
G1 X113.647 Y102.946 E2.3286
G1 X113.677 Y100.437 E2.4121
G1 X117.112 Y100.477 E2.5263
G1 X117.127 Y99.202 E2.5687
G0 X117.137 Y98.402 F6000
;segType:Loop
G0 F3600 E2.5687
G0 X116.036 Y98.720 F6000
G1 X114.410 Y98.688 E2.6228 F3600
G1 X114.099 Y98.684 E2.6332
G1 X114.129 Y96.417 E2.7086
G1 X114.225 Y96.104 E2.7195
G1 X114.315 Y96.004 E2.7239
G1 X114.525 Y95.909 E2.7316
G1 X114.998 Y95.876 E2.7474
G1 X127.667 Y95.186 E3.1694
G1 X129.735 Y95.076 E3.2382
G1 X130.493 Y95.085 E3.2635
G1 X131.225 Y95.152 E3.2879
G1 X131.930 Y95.271 E3.3117
G1 X132.610 Y95.438 E3.3350
G1 X133.263 Y95.648 E3.3578
G1 X133.887 Y95.900 E3.3802
G1 X134.486 Y96.192 E3.4023
G1 X134.870 Y96.408 E3.4170
G1 X135.229 Y96.631 E3.4310
G1 X135.592 Y96.880 E3.4457
G1 X135.937 Y97.140 E3.4601
G1 X136.467 Y97.594 E3.4833
G1 X136.927 Y98.047 E3.5048
G1 X137.358 Y98.532 E3.5263
G1 X137.755 Y99.048 E3.5480
G1 X138.211 Y99.745 E3.5757
G1 X138.294 Y99.895 E3.5814
G1 X138.313 Y100.170 E3.5905
G1 X137.969 Y100.721 E3.6122
G1 X137.579 Y101.247 E3.6339
G1 X137.155 Y101.743 E3.6556
G1 X136.702 Y102.206 E3.6772
G1 X136.216 Y102.638 E3.6988
G1 X135.918 Y102.876 E3.7115
G1 X135.563 Y103.134 E3.7261
G1 X135.195 Y103.377 E3.7408
G1 X134.839 Y103.590 E3.7546
G1 X134.143 Y103.948 E3.7806
G1 X133.530 Y104.208 E3.8028
G1 X132.888 Y104.428 E3.8253
G1 X132.219 Y104.604 E3.8483
G1 X131.524 Y104.736 E3.8719
G1 X130.804 Y104.816 E3.8959
G1 X130.062 Y104.842 E3.9206
G1 X129.225 Y104.803 E3.9485
G1 X114.503 Y103.637 E4.4397
G1 X114.343 Y103.595 E4.4452
G1 X114.222 Y103.523 E4.4499
G1 X114.140 Y103.433 E4.4539
G1 X114.083 Y103.319 E4.4582
G1 X114.051 Y103.176 E4.4630
G1 X114.047 Y102.945 E4.4707
G1 X114.072 Y100.841 E4.5407
G1 X117.507 Y100.881 E4.6550
G1 X117.533 Y98.750 E4.7259
G1 X116.236 Y98.724 E4.7690
G0 E4.7690
G0 X114.944 Y98.300 F6000
G1 X114.504 Y98.291 E4.7836 F3600
G1 X114.528 Y96.480 E4.8439
G1 X114.583 Y96.302 E4.8501
G1 X114.625 Y96.303 E4.8515
G1 X115.022 Y96.275 E4.8647
G1 X127.667 Y95.586 E5.2859
G1 X129.743 Y95.476 E5.3550
G1 X130.472 Y95.485 E5.3793
G1 X131.173 Y95.549 E5.4027
G1 X131.849 Y95.663 E5.4255
G1 X132.501 Y95.823 E5.4478
G1 X133.126 Y96.024 E5.4697
G1 X133.724 Y96.266 E5.4911
G1 X134.300 Y96.546 E5.5124
G1 X134.666 Y96.752 E5.5264
G1 X135.010 Y96.966 E5.5399
G1 X135.358 Y97.204 E5.5539
G1 X135.686 Y97.452 E5.5676
G1 X136.196 Y97.889 E5.5899
G1 X136.637 Y98.323 E5.6105
G1 X137.049 Y98.787 E5.6311
G1 X137.428 Y99.280 E5.6518
G1 X137.823 Y99.882 E5.6758
G1 X137.855 Y100.149 E5.6847
G1 X137.638 Y100.496 E5.6983
G1 X137.266 Y100.998 E5.7191
G1 X136.860 Y101.473 E5.7399
G1 X136.426 Y101.916 E5.7605
G1 X135.962 Y102.329 E5.7812
G1 X135.335 Y102.805 E5.8073
G1 X134.641 Y103.242 E5.8346
G1 X133.973 Y103.586 E5.8596
G1 X133.387 Y103.834 E5.8808
G1 X132.772 Y104.045 E5.9024
G1 X132.131 Y104.214 E5.9245
G1 X131.465 Y104.340 E5.9470
G1 X130.775 Y104.417 E5.9701
G1 X130.065 Y104.441 E5.9937
G1 X129.249 Y104.403 E6.0209
G1 X114.597 Y103.244 E6.5097
G1 X114.470 Y103.160 E6.5148
G1 X114.447 Y102.928 E6.5226
G1 X114.468 Y101.246 E6.5785
G1 X117.902 Y101.286 E6.6927
G1 X117.938 Y98.357 E6.7902
G1 X115.144 Y98.304 E6.8831
;segType:HShell
G0 E6.8831
G0 X117.524 Y98.149 F6000
G1 X116.443 Y96.398 E6.9515 F1800
G0 X116.898 Y96.373 F6000
G1 X118.000 Y98.158 E7.0213 F1800
G0 F3600 E7.0213
G0 X136.585 Y98.565 F6000
G1 X137.590 Y100.194 E7.0850 F1800
G0 F3600 E7.0850
G0 X137.344 Y100.557 F6000
G1 X135.492 Y97.556 E7.2023 F1800
G0 X134.677 Y96.998 F6000
G1 X137.086 Y100.900 E7.3548 F1800
G0 X136.813 Y101.220 F6000
G1 X133.965 Y96.606 E7.5351 F1800
G0 X133.317 Y96.317 F6000
G1 X136.531 Y101.523 E7.7386 F1800
G0 X136.240 Y101.814 F6000
G1 X132.713 Y96.102 E7.9619 F1800
G0 X132.144 Y95.941 F6000
G1 X135.936 Y102.084 E8.2020 F1800
G0 X135.622 Y102.336 F6000
G1 X131.602 Y95.824 E8.4565 F1800
G0 X131.081 Y95.741 F6000
G1 X135.302 Y102.579 E8.7238 F1800
G0 X134.968 Y102.800 F6000
G1 X130.583 Y95.696 E9.0015 F1800
G0 X130.103 Y95.680 F6000
G1 X134.630 Y103.013 E9.2881 F1800
G0 X134.278 Y103.204 F6000
G1 X129.634 Y95.682 E9.5821 F1800
G0 X129.179 Y95.706 F6000
G1 X133.921 Y103.388 E9.8824 F1800
G0 X133.550 Y103.548 F6000
G1 X128.724 Y95.730 E10.1879 F1800
G0 X128.268 Y95.755 F6000
G1 X133.171 Y103.696 E10.4984 F1800
G0 X132.783 Y103.829 F6000
G1 X127.813 Y95.779 E10.8130 F1800
G0 X127.358 Y95.804 F6000
G1 X132.382 Y103.941 E11.1311 F1800
G0 X131.973 Y104.040 F6000
G1 X126.904 Y95.828 E11.4521 F1800
G0 X126.449 Y95.853 F6000
G1 X131.552 Y104.120 E11.7752 F1800
G0 X131.118 Y104.177 F6000
G1 X125.994 Y95.878 E12.0996 F1800
G0 X125.539 Y95.903 F6000
G1 X130.674 Y104.220 E12.4247 F1800
G0 X130.214 Y104.236 F6000
G1 X125.084 Y95.927 E12.7495 F1800
G0 X124.630 Y95.952 F6000
G1 X129.737 Y104.226 E13.0729 F1800
G0 X129.253 Y104.203 F6000
G1 X124.175 Y95.977 E13.3944 F1800
G0 X123.720 Y96.002 F6000
G1 X128.759 Y104.164 E13.7134 F1800
G0 X128.265 Y104.125 F6000
G1 X123.265 Y96.027 E14.0300 F1800
G0 X122.810 Y96.051 F6000
G1 X127.771 Y104.086 E14.3440 F1800
G0 X127.276 Y104.046 F6000
G1 X122.356 Y96.076 E14.6555 F1800
G0 X121.901 Y96.101 F6000
G1 X126.782 Y104.007 E14.9646 F1800
G0 X126.288 Y103.968 F6000
G1 X121.446 Y96.126 E15.2711 F1800
G0 X120.991 Y96.150 F6000
G1 X125.794 Y103.929 E15.5752 F1800
G0 X125.299 Y103.890 F6000
G1 X120.537 Y96.175 E15.8768 F1800
G0 X120.082 Y96.200 F6000
G1 X124.805 Y103.851 E16.1758 F1800
G0 X124.311 Y103.812 F6000
G1 X119.627 Y96.225 E16.4724 F1800
G0 X119.172 Y96.249 F6000
G1 X123.817 Y103.773 E16.7664 F1800
G0 X123.322 Y103.733 F6000
G1 X118.717 Y96.274 E17.0580 F1800
G0 X118.263 Y96.299 F6000
G1 X122.828 Y103.694 E17.3471 F1800
G0 X122.334 Y103.655 F6000
G1 X117.808 Y96.324 E17.6337 F1800
G0 X117.353 Y96.349 F6000
G1 X121.840 Y103.616 E17.9177 F1800
G0 X121.345 Y103.577 F6000
G1 X118.138 Y98.381 E18.1208 F1800
G0 X118.129 Y99.128 F6000
G1 X120.851 Y103.538 E18.2932 F1800
G0 X120.357 Y103.499 F6000
G1 X118.119 Y99.874 E18.4349 F1800
G0 X118.110 Y100.621 F6000
G1 X119.863 Y103.460 E18.5458 F1800
G0 X119.369 Y103.421 F6000
G1 X118.101 Y101.368 E18.6261 F1800
G0 X117.703 Y101.484 F6000
G1 X118.874 Y103.381 E18.7003 F1800
G0 X118.380 Y103.342 F6000
G1 X117.229 Y101.478 E18.7731 F1800
G0 X116.756 Y101.473 F6000
G1 X117.886 Y103.303 E18.8447 F1800
G0 X117.392 Y103.264 F6000
G1 X116.282 Y101.467 E18.9149 F1800
G0 X115.809 Y101.462 F6000
G1 X116.897 Y103.225 E18.9838 F1800
G0 X116.403 Y103.186 F6000
G1 X115.335 Y101.456 E19.0514 F1800
G0 X114.862 Y101.451 F6000
G1 X115.909 Y103.147 E19.1177 F1800
G0 X115.415 Y103.108 F6000
G1 X114.660 Y101.885 E19.1655 F1800
G0 X114.651 Y102.632 F6000
G1 X114.920 Y103.068 E19.1826 F1800
; ------------------------------------
; Layer #3
; ------------------------------------
M106 S203 ;set fan speed
G21 ; mm
G90 ; abs
G92 E0 ;reset extr
;segType:HShell
G0 F3600 E-3.0000
G0 F1200 Z0.900
G0 X118.130 Y98.990 F6000
G0 F3600 E0.0000
G1 X123.126 Y95.906 E0.1953 F1800
G0 X123.964 Y95.859 F6000
G1 X118.124 Y99.464 E0.4235 F1800
G0 X117.129 Y99.031 F6000
G0 X117.070 Y99.005
G0 X117.070 Y99.005
G0 X117.058 Y99.000
;segType:Perimeter
G0 F3600 E0.4235
G0 X117.070 Y99.005 F6000
G1 X113.601 Y98.962 E0.5389 F1800
G1 X113.633 Y96.326 E0.6266
G1 X113.670 Y96.051 E0.6358
G1 X113.768 Y95.817 E0.6443
G1 X113.920 Y95.627 E0.6523
G1 X114.116 Y95.491 E0.6603
G1 X114.340 Y95.413 E0.6682
G1 X114.465 Y95.395 E0.6724
G1 X125.610 Y94.764 E1.0437
G1 X129.495 Y94.539 E1.1731
G1 X130.303 Y94.532 E1.2000
G1 X131.087 Y94.588 E1.2261
G1 X131.846 Y94.699 E1.2516
G1 X132.580 Y94.862 E1.2766
G1 X133.287 Y95.074 E1.3012
G1 X133.965 Y95.331 E1.3253
G1 X134.616 Y95.632 E1.3491
G1 X135.050 Y95.864 E1.3655
G1 X135.519 Y96.146 E1.3837
G1 X136.097 Y96.544 E1.4071
G1 X136.575 Y96.922 E1.4273
G1 X137.094 Y97.388 E1.4505
G1 X137.581 Y97.889 E1.4738
G1 X138.034 Y98.425 E1.4971
G1 X138.453 Y98.996 E1.5207
G1 X138.695 Y99.369 E1.5354
G1 X138.920 Y99.753 E1.5502
G1 X138.995 Y100.064 E1.5609
G1 X138.932 Y100.336 E1.5702
G1 X138.804 Y100.556 E1.5786
G1 X138.506 Y101.009 E1.5967
G1 X138.080 Y101.577 E1.6203
G1 X137.620 Y102.109 E1.6437
G1 X137.128 Y102.605 E1.6669
G1 X136.603 Y103.066 E1.6902
G1 X136.197 Y103.383 E1.7073
G1 X135.618 Y103.779 E1.7306
G1 X135.115 Y104.079 E1.7501
G1 X134.339 Y104.471 E1.7790
G1 X133.675 Y104.744 E1.8029
G1 X132.982 Y104.973 E1.8272
G1 X132.263 Y105.155 E1.8518
G1 X131.518 Y105.287 E1.8770
G1 X130.749 Y105.366 E1.9027
G1 X129.956 Y105.385 E1.9291
G1 X129.555 Y105.372 E1.9424
G1 X128.925 Y105.325 E1.9635
G1 X126.753 Y105.145 E2.0359
G1 X115.096 Y104.200 E2.4249
G1 X114.321 Y104.134 E2.4508
G1 X114.069 Y104.062 E2.4595
G1 X113.862 Y103.933 E2.4676
G1 X113.718 Y103.774 E2.4748
G1 X113.621 Y103.593 E2.4816
G1 X113.550 Y103.210 E2.4946
G1 X113.581 Y100.550 E2.5830
G1 X117.110 Y100.593 E2.7004
G1 X117.129 Y99.065 E2.7512
G0 X117.129 Y99.065 F6000
G0 X117.130 Y99.005
G0 X116.986 Y99.004
G0 X116.986 Y99.004
G0 X116.023 Y98.587
;segType:Loop
G0 F3600 E2.7512
G0 X116.035 Y98.592 F6000
G1 X114.006 Y98.567 E2.8187 F3600
G1 X114.033 Y96.355 E2.8923
G1 X114.060 Y96.157 E2.8989
G1 X114.116 Y96.023 E2.9037
G1 X114.196 Y95.923 E2.9080
G1 X114.288 Y95.859 E2.9117
G1 X114.531 Y95.792 E2.9201
G1 X125.610 Y95.164 E3.2892
G1 X129.508 Y94.939 E3.4191
G1 X130.291 Y94.932 E3.4451
G1 X131.044 Y94.985 E3.4702
G1 X131.774 Y95.092 E3.4947
G1 X132.479 Y95.250 E3.5188
G1 X133.159 Y95.453 E3.5424
G1 X133.810 Y95.700 E3.5656
G1 X134.438 Y95.990 E3.5885
G1 X134.852 Y96.212 E3.6042
G1 X135.302 Y96.483 E3.6216
G1 X135.859 Y96.867 E3.6442
G1 X136.317 Y97.228 E3.6636
G1 X136.817 Y97.676 E3.6859
G1 X137.284 Y98.158 E3.7082
G1 X137.720 Y98.672 E3.7306
G1 X138.124 Y99.224 E3.7534
G1 X138.355 Y99.579 E3.7674
G1 X138.545 Y99.904 E3.7800
G1 X138.584 Y100.066 E3.7855
G1 X138.558 Y100.180 E3.7894
G1 X138.176 Y100.781 E3.8131
G1 X137.769 Y101.325 E3.8357
G1 X137.327 Y101.837 E3.8582
G1 X136.854 Y102.313 E3.8805
G1 X136.348 Y102.758 E3.9029
G1 X135.961 Y103.060 E3.9192
G1 X135.403 Y103.442 E3.9417
G1 X134.922 Y103.729 E3.9603
G1 X134.173 Y104.107 E3.9883
G1 X133.536 Y104.368 E4.0112
G1 X132.870 Y104.589 E4.0345
G1 X132.179 Y104.764 E4.0582
G1 X131.463 Y104.891 E4.0824
G1 X130.724 Y104.966 E4.1071
G1 X129.957 Y104.985 E4.1326
G1 X129.576 Y104.973 E4.1453
G1 X129.039 Y104.932 E4.1632
G1 X128.925 Y104.923 E4.1670
G1 X126.867 Y104.753 E4.2357
G1 X115.096 Y103.798 E4.6285
G1 X114.394 Y103.739 E4.6519
G1 X114.233 Y103.693 E4.6575
G1 X114.121 Y103.623 E4.6619
G1 X113.950 Y103.175 E4.6778
G1 X113.976 Y100.955 E4.7517
G1 X117.506 Y100.997 E4.8691
G1 X117.534 Y98.610 E4.9484
G1 X116.235 Y98.594 E4.9917
G0 E4.9917
G0 X114.940 Y98.178 F6000
G1 X114.410 Y98.172 E5.0093 F3600
G1 X114.432 Y96.407 E5.0680
G1 X114.596 Y96.189 E5.0771
G1 X125.610 Y95.565 E5.4440
G1 X129.521 Y95.339 E5.5743
G1 X130.279 Y95.333 E5.5995
G1 X131.001 Y95.383 E5.6235
G1 X131.701 Y95.486 E5.6471
G1 X132.378 Y95.637 E5.6702
G1 X133.030 Y95.832 E5.6928
G1 X133.655 Y96.069 E5.7150
G1 X134.259 Y96.348 E5.7372
G1 X134.654 Y96.560 E5.7521
G1 X135.085 Y96.819 E5.7688
G1 X135.622 Y97.189 E5.7905
G1 X136.060 Y97.534 E5.8090
G1 X136.539 Y97.965 E5.8305
G1 X136.988 Y98.427 E5.8519
G1 X137.406 Y98.920 E5.8734
G1 X137.792 Y99.448 E5.8951
G1 X138.155 Y100.034 E5.9181
G1 X138.132 Y100.103 E5.9205
G1 X137.847 Y100.554 E5.9382
G1 X137.457 Y101.074 E5.9599
G1 X137.033 Y101.565 E5.9814
G1 X136.580 Y102.022 E6.0028
G1 X136.092 Y102.449 E6.0244
G1 X135.724 Y102.737 E6.0399
G1 X135.187 Y103.105 E6.0616
G1 X134.729 Y103.378 E6.0793
G1 X134.007 Y103.743 E6.1063
G1 X133.397 Y103.993 E6.1282
G1 X132.758 Y104.205 E6.1505
G1 X132.095 Y104.372 E6.1733
G1 X131.408 Y104.495 E6.1965
G1 X130.698 Y104.567 E6.2202
G1 X129.959 Y104.585 E6.2448
G1 X129.598 Y104.573 E6.2568
G1 X129.039 Y104.531 E6.2755
G1 X128.925 Y104.522 E6.2793
G1 X126.982 Y104.361 E6.3442
G1 X115.096 Y103.397 E6.7408
G1 X114.525 Y103.349 E6.7598
G1 X114.416 Y103.274 E6.7642
G1 X114.351 Y103.104 E6.7703
G1 X114.372 Y101.360 E6.8283
G1 X117.901 Y101.402 E6.9457
G1 X117.939 Y98.215 E7.0517
G1 X115.140 Y98.181 E7.1448
;segType:HShell
G0 E7.1448
G0 X118.136 Y98.517 F6000
G1 X122.287 Y95.954 E7.3071 F1800
G0 X121.449 Y96.001 F6000
G1 X118.141 Y98.043 E7.4364 F1800
G0 X117.435 Y98.009 F6000
G1 X120.611 Y96.049 E7.5605 F1800
G0 X119.773 Y96.096 F6000
G1 X116.689 Y98.000 E7.6810 F1800
G0 X115.942 Y97.991 F6000
G1 X118.934 Y96.143 E7.7980 F1800
G0 X118.096 Y96.191 F6000
G1 X115.196 Y97.981 E7.9113 F1800
G0 X114.614 Y97.870 F6000
G1 X117.258 Y96.238 E8.0147 F1800
G0 X116.419 Y96.286 F6000
G1 X114.620 Y97.397 E8.0850 F1800
G0 X114.626 Y96.923 F6000
G1 X115.581 Y96.333 E8.1223 F1800
G0 F3600 E8.1223
G0 X118.119 Y99.938 F6000
G1 X124.802 Y95.811 E8.3836 F1800
G0 X125.641 Y95.764 F6000
G1 X118.113 Y100.411 E8.6778 F1800
G0 X118.107 Y100.885 F6000
G1 X126.481 Y95.715 E9.0051 F1800
G0 X127.321 Y95.666 F6000
G1 X118.101 Y101.359 E9.3655 F1800
G0 F3600 E9.3655
G0 X136.669 Y101.648 F6000
G1 X132.997 Y103.915 E9.5091 F1800
G0 F3600 E9.5091
G0 X131.714 Y104.237 F6000
G1 X137.526 Y100.648 E9.7363 F1800
G0 X137.870 Y99.966 F6000
G1 X130.753 Y104.360 E10.0145 F1800
G0 X129.952 Y104.385 F6000
G1 X137.664 Y99.623 E10.3159 F1800
G0 X137.433 Y99.296 F6000
G1 X129.253 Y104.346 E10.6357 F1800
G0 X128.578 Y104.292 F6000
G1 X137.190 Y98.975 E10.9723 F1800
G0 X136.929 Y98.667 F6000
G1 X127.907 Y104.237 E11.3250 F1800
G0 X127.235 Y104.181 F6000
G1 X136.652 Y98.368 E11.6930 F1800
G0 X136.363 Y98.076 F6000
G1 X126.563 Y104.126 E12.0761 F1800
G0 X125.890 Y104.072 F6000
G1 X136.053 Y97.797 E12.4734 F1800
G0 X135.728 Y97.528 F6000
G1 X125.217 Y104.017 E12.8843 F1800
G0 X124.544 Y103.962 F6000
G1 X135.386 Y97.269 E13.3081 F1800
G0 X135.025 Y97.021 F6000
G1 X123.871 Y103.908 E13.7441 F1800
G0 X123.198 Y103.853 F6000
G1 X134.644 Y96.787 E14.1915 F1800
G0 X134.241 Y96.565 F6000
G1 X122.525 Y103.799 E14.6494 F1800
G0 X121.852 Y103.744 F6000
G1 X133.810 Y96.361 E15.1169 F1800
G0 X133.358 Y96.170 F6000
G1 X121.179 Y103.689 E15.5930 F1800
G0 X120.506 Y103.635 F6000
G1 X132.879 Y95.996 E16.0766 F1800
G0 X132.366 Y95.842 F6000
G1 X119.833 Y103.580 E16.5665 F1800
G0 X119.160 Y103.526 F6000
G1 X131.811 Y95.715 E17.0610 F1800
G0 X131.210 Y95.616 F6000
G1 X118.487 Y103.471 E17.5583 F1800
G0 X117.814 Y103.416 F6000
G1 X130.552 Y95.552 E18.0562 F1800
G0 X129.816 Y95.536 F6000
G1 X117.141 Y103.362 E18.5517 F1800
G0 X116.468 Y103.307 F6000
G1 X129.002 Y95.569 E19.0416 F1800
G0 X128.162 Y95.618 F6000
G1 X115.795 Y103.253 E19.5250 F1800
G0 X115.122 Y103.198 F6000
G1 X117.710 Y101.600 E19.6262 F1800
G0 X116.963 Y101.591 F6000
G1 X114.570 Y103.069 E19.7197 F1800
G0 X114.557 Y102.607 F6000
G1 X116.216 Y101.582 E19.7846 F1800
G0 X115.470 Y101.573 F6000
G1 X114.563 Y102.133 E19.8201 F1800
; ------------------------------------
; Layer #4
; ------------------------------------
M106 S203 ;set fan speed
G21 ; mm
G90 ; abs
G92 E0 ;reset extr
;segType:HShell
G0 F3600 E-3.0000
G0 F1200 Z1.100
G0 X118.137 Y98.381 F6000
G0 F3600 E0.0000
G1 X121.509 Y103.842 E0.2135 F1800
G0 X121.013 Y103.800 F6000
G1 X118.128 Y99.128 E0.3961 F1800
;segType:Perimeter
G0 F3600 E0.3961
G0 X117.870 Y98.978 F6000
G1 X117.070 Y98.968 E0.4227 F1800
G1 X113.507 Y98.925 E0.5412
G1 X113.542 Y96.172 E0.6328
G1 X113.594 Y95.892 E0.6423
G1 X113.678 Y95.708 E0.6490
G1 X113.840 Y95.512 E0.6575
G1 X114.035 Y95.381 E0.6653
G1 X114.253 Y95.307 E0.6729
G1 X115.145 Y95.243 E0.7027
G1 X126.867 Y94.554 E1.0932
G1 X128.925 Y94.428 E1.1618
G1 X129.039 Y94.422 E1.1656
G1 X129.629 Y94.390 E1.1852
G1 X130.446 Y94.395 E1.2124
G1 X131.241 Y94.460 E1.2389
G1 X132.014 Y94.583 E1.2650
G1 X132.761 Y94.759 E1.2905
G1 X133.482 Y94.983 E1.3156
G1 X134.176 Y95.255 E1.3404
G1 X134.842 Y95.571 E1.3649
G1 X135.481 Y95.931 E1.3893
G1 X135.935 Y96.224 E1.4073
G1 X136.519 Y96.653 E1.4314
G1 X136.935 Y96.999 E1.4494
G1 X137.269 Y97.305 E1.4645
G1 X137.649 Y97.687 E1.4824
G1 X137.953 Y98.024 E1.4975
G1 X138.244 Y98.376 E1.5127
G1 X138.570 Y98.811 E1.5308
G1 X138.828 Y99.192 E1.5460
G1 X139.144 Y99.714 E1.5663
G1 X139.239 Y100.077 E1.5788
G1 X139.185 Y100.302 E1.5865
G1 X139.120 Y100.445 E1.5917
G1 X138.710 Y101.073 E1.6167
G1 X138.438 Y101.443 E1.6320
G1 X138.150 Y101.799 E1.6472
G1 X137.790 Y102.203 E1.6652
G1 X137.472 Y102.528 E1.6803
G1 X137.141 Y102.839 E1.6954
G1 X136.733 Y103.187 E1.7133
G1 X136.298 Y103.520 E1.7315
G1 X135.702 Y103.922 E1.7554
G1 X134.987 Y104.331 E1.7828
G1 X134.324 Y104.648 E1.8072
G1 X133.633 Y104.920 E1.8319
G1 X132.916 Y105.146 E1.8569
G1 X132.173 Y105.323 E1.8823
G1 X131.405 Y105.448 E1.9082
G1 X130.615 Y105.517 E1.9346
G1 X129.804 Y105.526 E1.9616
G1 X129.395 Y105.507 E1.9752
G1 X124.925 Y105.130 E2.1244
G1 X114.277 Y104.243 E2.4798
G1 X114.028 Y104.187 E2.4883
G1 X113.800 Y104.061 E2.4969
G1 X113.633 Y103.891 E2.5048
G1 X113.525 Y103.694 E2.5123
G1 X113.454 Y103.318 E2.5250
G1 X113.486 Y100.585 E2.6159
G1 X117.110 Y100.629 E2.7365
G1 X117.129 Y99.029 E2.7897
G0 X117.139 Y98.229 F6000
;segType:Loop
G0 F3600 E2.7897
G0 X116.035 Y98.555 F6000
G1 X113.912 Y98.530 E2.8603 F3600
G1 X113.942 Y96.211 E2.9374
G1 X113.967 Y96.074 E2.9421
G1 X114.043 Y95.894 E2.9486
G1 X114.116 Y95.805 E2.9524
G1 X114.296 Y95.705 E2.9592
G1 X115.171 Y95.642 E2.9884
G1 X126.982 Y94.947 E3.3819
G1 X128.925 Y94.829 E3.4466
G1 X129.039 Y94.823 E3.4505
G1 X129.639 Y94.790 E3.4704
G1 X130.428 Y94.794 E3.4967
G1 X131.193 Y94.858 E3.5222
G1 X131.936 Y94.976 E3.5472
G1 X132.655 Y95.145 E3.5718
G1 X133.350 Y95.361 E3.5960
G1 X134.017 Y95.622 E3.6198
G1 X134.658 Y95.926 E3.6434
G1 X135.274 Y96.273 E3.6669
G1 X135.708 Y96.553 E3.6841
G1 X136.273 Y96.968 E3.7074
G1 X136.672 Y97.301 E3.7247
G1 X136.992 Y97.594 E3.7391
G1 X137.358 Y97.962 E3.7564
G1 X137.651 Y98.286 E3.7709
G1 X137.930 Y98.623 E3.7855
G1 X138.244 Y99.043 E3.8030
G1 X138.491 Y99.408 E3.8176
G1 X138.771 Y99.872 E3.8356
G1 X138.822 Y100.065 E3.8423
G1 X138.756 Y100.271 E3.8495
G1 X138.381 Y100.845 E3.8723
G1 X138.121 Y101.198 E3.8869
G1 X137.845 Y101.541 E3.9015
G1 X137.498 Y101.930 E3.9188
G1 X137.193 Y102.242 E3.9334
G1 X136.874 Y102.541 E3.9479
G1 X136.481 Y102.876 E3.9651
G1 X136.064 Y103.195 E3.9825
G1 X135.490 Y103.582 E4.0055
G1 X134.801 Y103.976 E4.0320
G1 X134.164 Y104.281 E4.0554
G1 X133.500 Y104.543 E4.0792
G1 X132.809 Y104.760 E4.1033
G1 X132.094 Y104.931 E4.1277
G1 X131.356 Y105.051 E4.1526
G1 X130.596 Y105.117 E4.1780
G1 X129.811 Y105.126 E4.2041
G1 X129.421 Y105.108 E4.2171
G1 X125.039 Y104.738 E4.3633
G1 X114.338 Y103.847 E4.7205
G1 X114.171 Y103.809 E4.7262
G1 X114.045 Y103.740 E4.7310
G1 X113.896 Y103.502 E4.7403
G1 X113.854 Y103.282 E4.7477
G1 X113.881 Y100.990 E4.8240
G1 X117.505 Y101.034 E4.9445
G1 X117.535 Y98.574 E5.0263
G1 X116.235 Y98.558 E5.0696
G0 E5.0696
G0 X114.940 Y98.142 F6000
G1 X114.317 Y98.134 E5.0903 F3600
G1 X114.341 Y96.276 E5.1521
G1 X114.410 Y96.098 E5.1584
G1 X115.197 Y96.042 E5.1847
G1 X129.650 Y95.190 E5.6662
G1 X130.411 Y95.194 E5.6915
G1 X131.145 Y95.255 E5.7160
G1 X131.859 Y95.369 E5.7401
G1 X132.550 Y95.531 E5.7637
G1 X133.217 Y95.739 E5.7869
G1 X133.858 Y95.990 E5.8098
G1 X134.474 Y96.282 E5.8325
G1 X135.067 Y96.616 E5.8551
G1 X135.481 Y96.883 E5.8715
G1 X136.026 Y97.283 E5.8940
G1 X136.409 Y97.602 E5.9106
G1 X136.715 Y97.882 E5.9244
G1 X137.068 Y98.238 E5.9410
G1 X137.348 Y98.548 E5.9549
G1 X137.615 Y98.871 E5.9689
G1 X137.918 Y99.275 E5.9857
G1 X138.154 Y99.623 E5.9997
G1 X138.309 Y99.880 E6.0097
G1 X138.351 Y100.160 E6.0191
G1 X138.053 Y100.617 E6.0372
G1 X137.804 Y100.954 E6.0511
G1 X137.540 Y101.282 E6.0651
G1 X137.206 Y101.657 E6.0819
G1 X136.913 Y101.956 E6.0958
G1 X136.607 Y102.242 E6.1097
G1 X136.230 Y102.565 E6.1262
G1 X135.831 Y102.870 E6.1429
G1 X135.279 Y103.242 E6.1650
G1 X134.615 Y103.622 E6.1905
G1 X134.004 Y103.914 E6.2130
G1 X133.366 Y104.166 E6.2358
G1 X132.702 Y104.374 E6.2590
G1 X132.016 Y104.538 E6.2824
G1 X131.306 Y104.654 E6.3064
G1 X130.576 Y104.717 E6.3307
G1 X129.818 Y104.726 E6.3559
G1 X129.447 Y104.709 E6.3683
G1 X125.153 Y104.346 E6.5116
G1 X114.425 Y103.453 E6.8697
G1 X114.255 Y103.247 E6.8786
G1 X114.277 Y101.395 E6.9402
G1 X117.900 Y101.439 E7.0607
G1 X117.940 Y98.178 E7.1691
G1 X115.140 Y98.144 E7.2623
;segType:HShell
G0 E7.2623
G0 X114.531 Y97.107 F6000
G1 X115.047 Y97.943 E7.2949 F1800
G0 X115.520 Y97.949 F6000
G1 X114.540 Y96.361 E7.3570 F1800
G0 X114.948 Y96.260 F6000
G1 X115.994 Y97.955 E7.4232 F1800
G0 X116.468 Y97.960 F6000
G1 X115.399 Y96.230 E7.4909 F1800
G0 X115.853 Y96.203 F6000
G1 X116.941 Y97.966 E7.5598 F1800
G0 X117.415 Y97.972 F6000
G1 X116.307 Y96.177 E7.6299 F1800
G0 X116.760 Y96.150 F6000
G1 X117.889 Y97.978 E7.7014 F1800
G0 F3600 E7.7014
G0 X117.214 Y96.123 F6000
G1 X122.004 Y103.883 E8.0047 F1800
G0 X122.500 Y103.924 F6000
G1 X117.667 Y96.096 E8.3107 F1800
G0 X118.121 Y96.070 F6000
G1 X122.996 Y103.966 E8.6193 F1800
G0 X123.491 Y104.007 F6000
G1 X118.575 Y96.043 E8.9306 F1800
G0 X119.028 Y96.016 F6000
G1 X123.987 Y104.048 E9.2445 F1800
G0 X124.482 Y104.089 F6000
G1 X119.482 Y95.990 E9.5612 F1800
G0 X119.935 Y95.963 F6000
G1 X124.978 Y104.131 E9.8804 F1800
G0 X125.474 Y104.172 F6000
G1 X120.389 Y95.936 E10.2024 F1800
G0 X120.842 Y95.909 F6000
G1 X125.970 Y104.214 E10.5270 F1800
G0 X126.466 Y104.256 F6000
G1 X121.296 Y95.883 E10.8543 F1800
G0 X121.750 Y95.856 F6000
G1 X126.962 Y104.298 E11.1843 F1800
G0 X127.457 Y104.340 F6000
G1 X122.203 Y95.829 E11.5169 F1800
G0 X122.657 Y95.802 F6000
G1 X127.953 Y104.382 E11.8523 F1800
G0 X128.449 Y104.424 F6000
G1 X123.110 Y95.776 E12.1903 F1800
G0 X123.564 Y95.749 F6000
G1 X128.945 Y104.466 E12.5310 F1800
G0 X129.441 Y104.507 F6000
G1 X124.018 Y95.722 E12.8744 F1800
G0 X124.471 Y95.695 F6000
G1 X129.922 Y104.524 E13.2195 F1800
G0 X130.389 Y104.519 F6000
G1 X124.925 Y95.669 E13.5655 F1800
G0 X125.378 Y95.642 F6000
G1 X130.843 Y104.493 E13.9115 F1800
G0 X131.288 Y104.454 F6000
G1 X125.832 Y95.615 E14.2569 F1800
G0 X126.285 Y95.588 F6000
G1 X131.716 Y104.384 E14.6007 F1800
G0 X132.136 Y104.304 F6000
G1 X126.739 Y95.562 E14.9425 F1800
G0 X127.193 Y95.535 F6000
G1 X132.546 Y104.206 E15.2814 F1800
G0 X132.944 Y104.089 F6000
G1 X127.646 Y95.508 E15.6168 F1800
G0 X128.100 Y95.482 F6000
G1 X133.336 Y103.962 E15.9483 F1800
G0 X133.714 Y103.813 F6000
G1 X128.553 Y95.455 E16.2750 F1800
G0 X129.007 Y95.428 F6000
G1 X134.085 Y103.653 E16.5965 F1800
G0 X134.448 Y103.480 F6000
G1 X129.461 Y95.401 E16.9123 F1800
G0 X129.925 Y95.392 F6000
G1 X134.799 Y103.286 E17.2209 F1800
G0 X135.146 Y103.087 F6000
G1 X130.396 Y95.394 E17.5216 F1800
G0 X130.892 Y95.435 F6000
G1 X135.479 Y102.866 E17.8120 F1800
G0 X135.807 Y102.636 F6000
G1 X131.401 Y95.499 E18.0910 F1800
G0 X131.928 Y95.590 F6000
G1 X136.126 Y102.390 E18.3568 F1800
G0 X136.434 Y102.128 F6000
G1 X132.478 Y95.720 E18.6073 F1800
G0 X133.058 Y95.899 F6000
G1 X136.729 Y101.844 E18.8397 F1800
G0 X137.022 Y101.557 F6000
G1 X133.672 Y96.132 E19.0517 F1800
G0 X134.329 Y96.435 F6000
G1 X137.301 Y101.249 E19.2399 F1800
G0 X137.567 Y100.918 F6000
G1 X135.052 Y96.844 E19.3991 F1800
G0 X135.881 Y97.425 F6000
G1 X137.828 Y100.580 E19.5224 F1800
G0 X138.075 Y100.217 F6000
G1 X136.976 Y98.437 E19.5920 F1800
G0 F3600 E19.5920
G0 X118.119 Y99.874 F6000
G1 X120.518 Y103.759 E19.7439 F1800
G0 X120.022 Y103.718 F6000
G1 X118.110 Y100.621 E19.8649 F1800
G0 X118.101 Y101.368 F6000
G1 X119.527 Y103.677 E19.9552 F1800
G0 X119.031 Y103.635 F6000
G1 X117.798 Y101.638 E20.0333 F1800
G0 X117.324 Y101.632 F6000
G1 X118.535 Y103.594 E20.1099 F1800
G0 X118.040 Y103.553 F6000
G1 X116.850 Y101.626 E20.1853 F1800
G0 X116.377 Y101.620 F6000
G1 X117.544 Y103.512 E20.2592 F1800
G0 X117.049 Y103.470 F6000
G1 X115.903 Y101.615 E20.3317 F1800
G0 X115.430 Y101.609 F6000
G1 X116.553 Y103.429 E20.4028 F1800
G0 X116.058 Y103.388 F6000
G1 X114.956 Y101.603 E20.4726 F1800
G0 X114.482 Y101.598 F6000
G1 X115.562 Y103.346 E20.5410 F1800
G0 X115.066 Y103.305 F6000
G1 X114.466 Y102.332 E20.5790 F1800
; ------------------------------------
; Layer #5
; ------------------------------------
M106 S203 ;set fan speed
G21 ; mm
G90 ; abs
G92 E0 ;reset extr
;segType:HShell
G0 F3600 E-3.0000
G0 F1200 Z1.300
G0 X118.130 Y98.990 F6000
G0 F3600 E0.0000
G1 X123.592 Y95.618 E0.2135 F1800
G0 X122.747 Y95.670 F6000
G1 X118.136 Y98.517 E0.3937 F1800
;segType:Perimeter
G0 F3600 E0.3937
G0 X117.070 Y98.998 F6000
G1 X113.412 Y98.953 E0.5154 F1800
G1 X113.451 Y96.049 E0.6120
G1 X113.504 Y95.781 E0.6211
G1 X113.615 Y95.558 E0.6294
G1 X113.779 Y95.381 E0.6374
G1 X113.984 Y95.258 E0.6454
G1 X114.316 Y95.182 E0.6567
G1 X125.725 Y94.486 E1.0368
G1 X129.476 Y94.252 E1.1618
G1 X130.310 Y94.246 E1.1896
G1 X131.124 Y94.303 E1.2167
G1 X131.917 Y94.418 E1.2434
G1 X132.688 Y94.588 E1.2696
G1 X133.433 Y94.809 E1.2955
G1 X134.152 Y95.079 E1.3210
G1 X134.843 Y95.396 E1.3463
G1 X135.519 Y95.766 E1.3720
G1 X135.969 Y96.048 E1.3896
G1 X136.516 Y96.436 E1.4119
G1 X136.965 Y96.795 E1.4310
G1 X137.372 Y97.156 E1.4491
G1 X137.761 Y97.539 E1.4673
G1 X138.036 Y97.834 E1.4807
G1 X138.392 Y98.251 E1.4989
G1 X138.726 Y98.688 E1.5172
G1 X138.959 Y99.021 E1.5307
G1 X139.349 Y99.647 E1.5553
G1 X139.478 Y99.958 E1.5665
G1 X139.487 Y100.070 E1.5702
G1 X139.415 Y100.355 E1.5800
G1 X139.252 Y100.631 E1.5907
G1 X138.841 Y101.238 E1.6150
G1 X138.596 Y101.561 E1.6285
G1 X138.245 Y101.984 E1.6468
G1 X137.873 Y102.388 E1.6651
G1 X137.588 Y102.671 E1.6784
G1 X137.184 Y103.039 E1.6966
G1 X136.762 Y103.385 E1.7148
G1 X136.287 Y103.735 E1.7344
G1 X135.751 Y104.084 E1.7557
G1 X134.997 Y104.503 E1.7844
G1 X134.309 Y104.822 E1.8096
G1 X133.593 Y105.093 E1.8350
G1 X132.851 Y105.316 E1.8608
G1 X132.085 Y105.488 E1.8869
G1 X131.296 Y105.606 E1.9134
G1 X130.487 Y105.666 E1.9404
G1 X129.659 Y105.665 E1.9680
G1 X129.241 Y105.640 E1.9819
G1 X124.696 Y105.244 E2.1336
G1 X114.128 Y104.339 E2.4864
G1 X113.877 Y104.266 E2.4951
G1 X113.671 Y104.137 E2.5032
G1 X113.512 Y103.955 E2.5112
G1 X113.406 Y103.728 E2.5196
G1 X113.362 Y103.491 E2.5276
G1 X113.393 Y100.554 E2.6253
G1 X117.110 Y100.599 E2.7489
G1 X117.129 Y99.059 E2.8002
G0 X117.139 Y98.259 F6000
;segType:Loop
G0 F3600 E2.8002
G0 X116.035 Y98.585 F6000
G1 X113.818 Y98.558 E2.8739 F3600
G1 X113.850 Y96.091 E2.9560
G1 X113.886 Y95.912 E2.9620
G1 X113.948 Y95.787 E2.9667
G1 X114.020 Y95.709 E2.9702
G1 X114.182 Y95.623 E2.9763
G1 X114.373 Y95.579 E2.9828
G1 X125.725 Y94.887 E3.3611
G1 X129.490 Y94.652 E3.4865
G1 X130.298 Y94.646 E3.5134
G1 X131.081 Y94.701 E3.5396
G1 X131.846 Y94.812 E3.5652
G1 X132.588 Y94.975 E3.5905
G1 X133.306 Y95.188 E3.6154
G1 X133.998 Y95.448 E3.6400
G1 X134.664 Y95.754 E3.6644
G1 X135.317 Y96.111 E3.6891
G1 X135.747 Y96.381 E3.7060
G1 X136.276 Y96.755 E3.7276
G1 X136.707 Y97.100 E3.7460
G1 X137.099 Y97.448 E3.7634
G1 X137.474 Y97.818 E3.7809
G1 X137.737 Y98.100 E3.7937
G1 X138.080 Y98.502 E3.8113
G1 X138.403 Y98.924 E3.8290
G1 X138.625 Y99.241 E3.8418
G1 X138.992 Y99.831 E3.8650
G1 X139.091 Y100.068 E3.8735
G1 X139.074 Y100.074 E3.8741
G1 X139.042 Y100.201 E3.8785
G1 X138.914 Y100.417 E3.8868
G1 X138.516 Y101.005 E3.9104
G1 X138.283 Y101.312 E3.9232
G1 X137.943 Y101.721 E3.9409
G1 X137.584 Y102.110 E3.9585
G1 X137.312 Y102.381 E3.9713
G1 X136.922 Y102.736 E3.9888
G1 X136.516 Y103.069 E4.0063
G1 X136.059 Y103.406 E4.0252
G1 X135.544 Y103.741 E4.0456
G1 X134.815 Y104.147 E4.0734
G1 X134.153 Y104.453 E4.0976
G1 X133.464 Y104.714 E4.1221
G1 X132.750 Y104.929 E4.1470
G1 X132.011 Y105.094 E4.1721
G1 X131.251 Y105.208 E4.1977
G1 X130.473 Y105.266 E4.2237
G1 X129.671 Y105.265 E4.2503
G1 X129.270 Y105.241 E4.2637
G1 X124.696 Y104.842 E4.4164
G1 X114.182 Y103.942 E4.7674
G1 X113.933 Y103.829 E4.7764
G1 X113.850 Y103.734 E4.7806
G1 X113.790 Y103.605 E4.7854
G1 X113.762 Y103.456 E4.7904
G1 X113.789 Y100.959 E4.8735
G1 X117.505 Y101.004 E4.9971
G1 X117.534 Y98.604 E5.0770
G1 X116.235 Y98.588 E5.1202
G0 E5.1202
G0 X114.940 Y98.172 F6000
G1 X114.223 Y98.163 E5.1440 F3600
G1 X114.249 Y96.188 E5.2097
G1 X114.296 Y96.034 E5.2151
G1 X114.456 Y95.975 E5.2207
G1 X125.725 Y95.288 E5.5962
G1 X129.504 Y95.052 E5.7222
G1 X130.285 Y95.046 E5.7482
G1 X131.039 Y95.099 E5.7733
G1 X131.774 Y95.206 E5.7980
G1 X132.488 Y95.363 E5.8223
G1 X133.179 Y95.568 E5.8463
G1 X133.844 Y95.818 E5.8699
G1 X134.484 Y96.112 E5.8934
G1 X135.114 Y96.457 E5.9173
G1 X135.525 Y96.714 E5.9334
G1 X136.035 Y97.075 E5.9541
G1 X136.449 Y97.406 E5.9718
G1 X136.826 Y97.740 E5.9885
G1 X137.188 Y98.097 E6.0054
G1 X137.439 Y98.366 E6.0177
G1 X137.769 Y98.754 E6.0346
G1 X138.080 Y99.160 E6.0516
G1 X138.291 Y99.462 E6.0639
G1 X138.644 Y100.030 E6.0861
G1 X138.569 Y100.213 E6.0927
G1 X138.190 Y100.772 E6.1152
G1 X137.969 Y101.063 E6.1273
G1 X137.642 Y101.457 E6.1444
G1 X137.296 Y101.833 E6.1614
G1 X137.036 Y102.091 E6.1735
G1 X136.660 Y102.434 E6.1905
G1 X136.271 Y102.753 E6.2072
G1 X135.831 Y103.077 E6.2254
G1 X135.338 Y103.398 E6.2450
G1 X134.634 Y103.790 E6.2717
G1 X133.998 Y104.084 E6.2950
G1 X133.335 Y104.335 E6.3186
G1 X132.648 Y104.542 E6.3425
G1 X131.938 Y104.701 E6.3667
G1 X131.207 Y104.810 E6.3913
G1 X130.458 Y104.866 E6.4163
G1 X129.683 Y104.865 E6.4420
G1 X129.300 Y104.842 E6.4548
G1 X124.696 Y104.441 E6.6085
G1 X114.285 Y103.550 E6.9561
G1 X114.163 Y103.388 E6.9628
G1 X114.185 Y101.364 E7.0301
G1 X117.900 Y101.409 E7.1537
G1 X117.939 Y98.209 E7.2602
G1 X115.140 Y98.174 E7.3533
;segType:HShell
G0 E7.3533
G0 X115.143 Y96.134 F6000
G1 X114.444 Y96.565 E7.3806 F1800
G0 X114.438 Y97.039 F6000
G1 X115.988 Y96.082 E7.4412 F1800
G0 X116.833 Y96.031 F6000
G1 X114.432 Y97.513 E7.5351 F1800
G0 X114.460 Y97.966 F6000
G1 X117.678 Y95.979 E7.6608 F1800
G0 X118.523 Y95.928 F6000
G1 X115.206 Y97.975 E7.7905 F1800
G0 X115.953 Y97.984 F6000
G1 X119.367 Y95.876 E7.9239 F1800
G0 X120.212 Y95.824 F6000
G1 X116.700 Y97.993 E8.0612 F1800
G0 X117.446 Y98.002 F6000
G1 X121.057 Y95.773 E8.2024 F1800
G0 X121.902 Y95.721 F6000
G1 X118.141 Y98.043 E8.3494 F1800
G0 F3600 E8.3494
G0 X118.124 Y99.464 F6000
G1 X124.437 Y95.567 E8.5961 F1800
G0 X125.282 Y95.515 F6000
G1 X118.118 Y99.938 E8.8761 F1800
G0 X118.113 Y100.411 F6000
G1 X126.128 Y95.463 E9.1894 F1800
G0 X126.975 Y95.410 F6000
G1 X118.107 Y100.885 E9.5361 F1800
G0 X118.101 Y101.359 F6000
G1 X127.822 Y95.357 E9.9160 F1800
G0 X128.669 Y95.305 F6000
G1 X115.474 Y103.451 E10.4318 F1800
G0 X116.143 Y103.508 F6000
G1 X129.516 Y95.252 E10.9545 F1800
G0 X130.285 Y95.247 F6000
G1 X116.812 Y103.565 E11.4811 F1800
G0 X117.480 Y103.622 F6000
G1 X130.969 Y95.295 E12.0084 F1800
G0 X131.590 Y95.381 F6000
G1 X118.149 Y103.680 E12.5338 F1800
G0 X118.818 Y103.737 F6000
G1 X132.165 Y95.497 E13.0555 F1800
G0 X132.702 Y95.635 F6000
G1 X119.487 Y103.794 E13.5720 F1800
G0 X120.155 Y103.851 F6000
G1 X133.208 Y95.793 E14.0823 F1800
G0 X133.681 Y95.971 F6000
G1 X120.824 Y103.908 E14.5848 F1800
G0 X121.493 Y103.966 F6000
G1 X134.125 Y96.167 E15.0786 F1800
G0 X134.549 Y96.375 F6000
G1 X122.162 Y104.023 E15.5628 F1800
G0 X122.830 Y104.080 F6000
G1 X134.953 Y96.596 E16.0366 F1800
G0 X135.334 Y96.831 F6000
G1 X123.499 Y104.137 E16.4992 F1800
G0 X124.168 Y104.195 F6000
G1 X135.694 Y97.079 E16.9498 F1800
G0 X136.040 Y97.335 F6000
G1 X124.836 Y104.252 E17.3877 F1800
G0 X125.503 Y104.310 F6000
G1 X136.369 Y97.602 E17.8124 F1800
G0 X136.681 Y97.880 F6000
G1 X126.171 Y104.368 E18.2232 F1800
G0 X126.838 Y104.427 F6000
G1 X136.969 Y98.172 E18.6192 F1800
G0 X137.256 Y98.465 F6000
G1 X127.505 Y104.485 E19.0004 F1800
G0 X128.172 Y104.543 F6000
G1 X137.521 Y98.771 E19.3658 F1800
G0 X137.768 Y99.089 F6000
G1 X128.839 Y104.601 E19.7148 F1800
G0 X129.514 Y104.654 F6000
G1 X138.006 Y99.412 E20.0467 F1800
G0 X138.231 Y99.743 F6000
G1 X130.258 Y104.666 E20.3584 F1800
G0 X131.097 Y104.617 F6000
G1 X138.394 Y100.113 E20.6436 F1800
G0 X137.808 Y100.945 F6000
G1 X132.123 Y104.454 E20.8658 F1800
G0 F3600 E20.8658
G0 X133.565 Y104.034 F6000
G1 X136.797 Y102.039 E20.9921 F1800
G0 F3600 E20.9921
G0 X117.699 Y101.607 F6000
G1 X114.805 Y103.393 E21.1052 F1800
G0 X114.365 Y103.195 F6000
G1 X116.953 Y101.598 E21.2064 F1800
G0 X116.206 Y101.589 F6000
G1 X114.370 Y102.722 E21.2781 F1800
G0 X114.375 Y102.249 F6000
G1 X115.459 Y101.580 E21.3205 F1800
; ------------------------------------
; Layer #6
; ------------------------------------
M106 S203 ;set fan speed
G21 ; mm
G90 ; abs
G92 E0 ;reset extr
;segType:Infill
G0 F3600 E-3.0000
G0 F1200 Z1.500
G0 X114.911 Y96.962 F6000
G0 F3600 E0.0000
G1 X115.520 Y97.949 E0.0424 F4500
G0 X115.502 Y98.685 F6000
G0 X117.533 Y98.709
G0 X117.507 Y100.898
G0 X115.448 Y100.873
G0 X115.448 Y100.873
G0 X115.429 Y101.621
G0 F3600 E0.0424
G0 X115.430 Y101.609 F6000
G1 X116.255 Y102.945 E0.0999 F4500
G0 F3600 E0.0999
G0 X117.798 Y101.638 F6000
G1 X118.718 Y103.128 E0.1640 F4500
G0 F3600 E0.1640
G0 X121.182 Y103.312 F6000
G1 X118.138 Y98.381 E0.3760 F4500
;segType:Perimeter
G0 F3600 E0.3760
G0 X117.868 Y99.113 F6000
G1 X117.068 Y99.103 E0.4026 F1800
G1 X113.318 Y99.059 E0.5274
G1 X113.355 Y96.018 E0.6285
G1 X113.398 Y95.725 E0.6383
G1 X113.513 Y95.471 E0.6476
G1 X113.677 Y95.285 E0.6559
G1 X113.876 Y95.161 E0.6637
G1 X114.100 Y95.093 E0.6714
G1 X114.318 Y95.072 E0.6787
G1 X123.553 Y94.491 E0.9865
G1 X127.210 Y94.255 E1.1084
G1 X129.031 Y94.136 E1.1691
G1 X129.605 Y94.104 E1.1882
G1 X130.449 Y94.109 E1.2163
G1 X131.275 Y94.177 E1.2438
G1 X132.083 Y94.303 E1.2710
G1 X132.868 Y94.484 E1.2978
G1 X133.628 Y94.719 E1.3243
G1 X134.363 Y95.004 E1.3505
G1 X135.070 Y95.337 E1.3765
G1 X135.748 Y95.716 E1.4023
G1 X136.450 Y96.179 E1.4303
G1 X136.907 Y96.524 E1.4493
G1 X137.493 Y97.026 E1.4750
G1 X138.042 Y97.567 E1.5007
G1 X138.553 Y98.147 E1.5264
G1 X139.025 Y98.764 E1.5522
G1 X139.455 Y99.418 E1.5782
G1 X139.653 Y99.761 E1.5914
G1 X139.728 Y100.058 E1.6016
G1 X139.671 Y100.332 E1.6109
G1 X139.519 Y100.595 E1.6210
G1 X139.082 Y101.245 E1.6471
G1 X138.604 Y101.859 E1.6729
G1 X138.085 Y102.434 E1.6987
G1 X137.529 Y102.970 E1.7244
G1 X136.937 Y103.466 E1.7501
G1 X136.472 Y103.810 E1.7693
G1 X136.044 Y104.094 E1.7864
G1 X135.374 Y104.485 E1.8122
G1 X134.675 Y104.830 E1.8381
G1 X133.948 Y105.127 E1.8643
G1 X133.195 Y105.374 E1.8906
G1 X132.419 Y105.568 E1.9172
G1 X131.620 Y105.709 E1.9442
G1 X130.801 Y105.792 E1.9716
G1 X129.964 Y105.815 E1.9994
G1 X129.544 Y105.802 E2.0134
G1 X129.042 Y105.766 E2.0301
G1 X124.010 Y105.317 E2.1982
G1 X114.056 Y104.444 E2.5305
G1 X113.804 Y104.377 E2.5392
G1 X113.584 Y104.244 E2.5477
G1 X113.426 Y104.069 E2.5556
G1 X113.323 Y103.864 E2.5632
G1 X113.271 Y103.635 E2.5710
G1 X113.265 Y103.412 E2.5784
G1 X113.301 Y100.447 E2.6771
G1 X117.111 Y100.494 E2.8038
G1 X117.127 Y99.164 E2.8480
G0 X117.137 Y98.364 F6000
;segType:Loop
G0 F3600 E2.8480
G0 X116.033 Y98.691 F6000
G1 X113.723 Y98.663 E2.9249 F3600
G1 X113.755 Y96.049 E3.0118
G1 X113.786 Y95.839 E3.0189
G1 X113.853 Y95.691 E3.0243
G1 X113.939 Y95.594 E3.0286
G1 X114.043 Y95.528 E3.0327
G1 X114.178 Y95.487 E3.0374
G1 X114.350 Y95.470 E3.0432
G1 X123.553 Y94.892 E3.3499
G1 X127.210 Y94.656 E3.4718
G1 X129.056 Y94.535 E3.5333
G1 X129.615 Y94.504 E3.5519
G1 X130.432 Y94.509 E3.5791
G1 X131.228 Y94.574 E3.6056
G1 X132.007 Y94.696 E3.6319
G1 X132.764 Y94.871 E3.6577
G1 X133.497 Y95.097 E3.6832
G1 X134.205 Y95.371 E3.7085
G1 X134.887 Y95.692 E3.7336
G1 X135.540 Y96.058 E3.7584
G1 X136.219 Y96.506 E3.7855
G1 X136.656 Y96.836 E3.8037
G1 X137.222 Y97.321 E3.8285
G1 X137.751 Y97.842 E3.8532
G1 X138.244 Y98.401 E3.8780
G1 X138.698 Y98.995 E3.9029
G1 X139.115 Y99.628 E3.9281
G1 X139.279 Y99.913 E3.9390
G1 X139.318 Y100.066 E3.9443
G1 X139.293 Y100.188 E3.9484
G1 X139.180 Y100.383 E3.9559
G1 X138.758 Y101.011 E3.9810
G1 X138.297 Y101.602 E4.0060
G1 X137.797 Y102.156 E4.0308
G1 X137.262 Y102.673 E4.0555
G1 X136.690 Y103.152 E4.0804
G1 X136.242 Y103.483 E4.0989
G1 X135.832 Y103.754 E4.1152
G1 X135.184 Y104.133 E4.1402
G1 X134.511 Y104.465 E4.1652
G1 X133.810 Y104.751 E4.1903
G1 X133.084 Y104.989 E4.2157
G1 X132.335 Y105.177 E4.2414
G1 X131.565 Y105.313 E4.2674
G1 X130.776 Y105.393 E4.2938
G1 X129.965 Y105.415 E4.3208
G1 X129.564 Y105.402 E4.3341
G1 X129.074 Y105.367 E4.3505
G1 X124.010 Y104.915 E4.5196
G1 X114.126 Y104.049 E4.8496
G1 X113.962 Y104.005 E4.8552
G1 X113.842 Y103.932 E4.8599
G1 X113.759 Y103.841 E4.8640
G1 X113.702 Y103.728 E4.8682
G1 X113.670 Y103.584 E4.8731
G1 X113.665 Y103.409 E4.8789
G1 X113.696 Y100.852 E4.9640
G1 X117.507 Y100.898 E5.0908
G1 X117.533 Y98.709 E5.1636
G1 X116.233 Y98.693 E5.2068
G0 E5.2068
G0 X114.938 Y98.278 F6000
G1 X114.128 Y98.268 E5.2338 F3600
G1 X114.155 Y96.074 E5.3068
G1 X114.216 Y95.905 E5.3127
G1 X114.410 Y95.867 E5.3193
G1 X123.553 Y95.292 E5.6240
G1 X127.210 Y95.057 E5.7459
G1 X129.079 Y94.934 E5.8082
G1 X129.624 Y94.904 E5.8264
G1 X130.414 Y94.909 E5.8526
G1 X131.181 Y94.972 E5.8782
G1 X131.931 Y95.089 E5.9035
G1 X132.660 Y95.257 E5.9283
G1 X133.365 Y95.475 E5.9529
G1 X134.048 Y95.739 E5.9773
G1 X134.704 Y96.048 E6.0014
G1 X135.332 Y96.400 E6.0253
G1 X135.988 Y96.833 E6.0515
G1 X136.405 Y97.148 E6.0688
G1 X136.951 Y97.616 E6.0928
G1 X137.461 Y98.117 E6.1165
G1 X137.935 Y98.655 E6.1404
G1 X138.372 Y99.227 E6.1643
G1 X138.774 Y99.839 E6.1887
G1 X138.843 Y100.167 E6.1998
G1 X138.434 Y100.776 E6.2242
G1 X137.991 Y101.344 E6.2482
G1 X137.510 Y101.877 E6.2721
G1 X136.994 Y102.375 E6.2959
G1 X136.442 Y102.837 E6.3199
G1 X136.013 Y103.155 E6.3376
G1 X135.621 Y103.415 E6.3533
G1 X134.995 Y103.780 E6.3774
G1 X134.346 Y104.100 E6.4014
G1 X133.672 Y104.375 E6.4257
G1 X132.973 Y104.605 E6.4501
G1 X132.252 Y104.785 E6.4749
G1 X131.510 Y104.916 E6.4999
G1 X130.750 Y104.993 E6.5253
G1 X129.966 Y105.014 E6.5514
G1 X129.585 Y105.003 E6.5641
G1 X129.106 Y104.969 E6.5800
G1 X124.010 Y104.514 E6.7502
G1 X114.182 Y103.652 E7.0784
G1 X114.065 Y103.406 E7.0874
G1 X114.091 Y101.257 E7.1589
G1 X117.902 Y101.303 E7.2857
G1 X117.938 Y98.314 E7.3851
G1 X115.138 Y98.280 E7.4782
;segType:Infill
G0 E7.4782
G0 X117.038 Y96.599 F6000
G1 X117.889 Y97.978 E7.5375 F4500
G0 F3600 E7.5375
G0 X121.598 Y96.371 F6000
G1 X126.109 Y103.678 E7.8517 F4500
G0 F3600 E7.8517
G0 X128.572 Y103.861 F6000
G1 X123.878 Y96.257 E8.1786 F4500
G0 F3600 E8.1786
G0 X126.158 Y96.143 F6000
G1 X130.953 Y103.911 E8.5126 F4500
G0 F3600 E8.5126
G0 X133.011 Y103.437 F6000
G1 X128.438 Y96.029 E8.8311 F4500
G0 F3600 E8.8311
G0 X130.768 Y95.996 F6000
G1 X134.792 Y102.515 E9.1114 F4500
G0 F3600 E9.1114
G0 X136.326 Y101.192 F6000
G1 X133.595 Y96.768 E9.3016 F4500
G0 F3600 E9.3016
G0 X123.645 Y103.495 F6000
G1 X119.318 Y96.485 E9.6030 F4500
;segType:HShell
G0 F3600 E9.6030
G0 X114.337 Y97.554 F6000
G0 X114.346 Y96.808 F6000
G1 X114.902 Y97.709 E9.6382 F1800
G0 X114.911 Y96.962 F6000
G1 X114.395 Y96.126 E9.6709 F1800
G0 X114.787 Y96.379 F6000
G1 X115.468 Y96.341 E9.6962 F1800
G1 X115.922 Y96.315 E9.7218
G1 X116.376 Y96.290 E9.7476
G1 X116.831 Y96.264 E9.7736
G1 X117.285 Y96.238 E9.7998
G0 X117.529 Y95.872 F6000
G1 X117.950 Y96.554 E9.8264 F1800
G0 X118.406 Y96.531 F6000
G1 X117.981 Y95.843 E9.8533 F1800
G0 X118.434 Y95.815 F6000
G1 X118.862 Y96.508 E9.8804 F1800
G0 X119.318 Y96.485 F6000
G1 X118.886 Y95.786 E9.9077 F1800
G0 X119.339 Y95.758 F6000
G1 X119.774 Y96.462 E9.9353 F1800
G0 X120.230 Y96.440 F6000
G1 X119.791 Y95.729 E9.9630 F1800
G0 X120.244 Y95.701 F6000
G1 X120.686 Y96.417 E9.9910 F1800
G0 X121.142 Y96.394 F6000
G1 X120.696 Y95.673 E10.0192 F1800
G0 X121.149 Y95.644 F6000
G1 X121.598 Y96.371 E10.0476 F1800
G0 X122.054 Y96.348 F6000
G1 X121.601 Y95.616 E10.0763 F1800
G0 X122.054 Y95.587 F6000
G1 X122.510 Y96.326 E10.1051 F1800
G0 X122.966 Y96.303 F6000
G1 X122.506 Y95.559 E10.1342 F1800
G0 X122.959 Y95.530 F6000
G1 X123.422 Y96.280 E10.1635 F1800
G0 X123.878 Y96.257 F6000
G1 X123.411 Y95.502 E10.1930 F1800
G0 X123.864 Y95.473 F6000
G1 X124.334 Y96.234 E10.2228 F1800
G0 X124.790 Y96.211 F6000
G1 X124.316 Y95.444 E10.2528 F1800
G0 X124.768 Y95.415 F6000
G1 X125.246 Y96.189 E10.2831 F1800
G0 X125.702 Y96.166 F6000
G1 X125.220 Y95.386 E10.3136 F1800
G0 X125.672 Y95.357 F6000
G1 X126.158 Y96.143 E10.3443 F1800
G0 X126.614 Y96.120 F6000
G1 X126.124 Y95.327 E10.3753 F1800
G0 X126.576 Y95.298 F6000
G1 X127.070 Y96.097 E10.4065 F1800
G0 X127.526 Y96.074 F6000
G1 X127.029 Y95.269 E10.4380 F1800
G0 X127.480 Y95.240 F6000
G1 X127.982 Y96.052 E10.4697 F1800
G0 X128.438 Y96.029 F6000
G1 X127.932 Y95.210 E10.5017 F1800
G0 X128.384 Y95.180 F6000
G1 X128.894 Y96.006 E10.5340 F1800
G0 X129.350 Y95.983 F6000
G1 X128.836 Y95.151 E10.5665 F1800
G0 X129.289 Y95.123 F6000
G1 X129.810 Y95.968 E10.5995 F1800
G0 X130.280 Y95.968 F6000
G1 X129.748 Y95.105 E10.6333 F1800
G0 X130.220 Y95.108 F6000
G1 X130.768 Y95.996 E10.6680 F1800
G0 X131.278 Y96.060 F6000
G1 X130.706 Y95.134 E10.7042 F1800
G0 X131.203 Y95.178 F6000
G1 X131.809 Y96.160 E10.7426 F1800
G0 X132.368 Y96.304 F6000
G1 X131.723 Y95.259 E10.7834 F1800
G0 X132.262 Y95.371 F6000
G1 X132.960 Y96.501 E10.8276 F1800
G0 X133.595 Y96.768 F6000
G1 X132.823 Y95.517 E10.8765 F1800
G0 X133.410 Y95.707 F6000
G1 X134.296 Y97.142 E10.9326 F1800
G0 X135.103 Y97.687 F6000
G1 X134.032 Y95.953 E11.0004 F1800
G0 X134.702 Y96.276 F6000
G1 X136.190 Y98.688 E11.0946 F1800
G0 F3600 E11.0946
G0 X137.376 Y98.325 F6000
G1 X138.556 Y100.236 E11.1693 F1800
G0 F3600 E11.1693
G0 X138.311 Y100.600 F6000
G1 X136.273 Y97.299 E11.2984 F1800
G0 X135.440 Y96.711 F6000
G1 X138.052 Y100.941 E11.4637 F1800
G0 X137.786 Y101.272 F6000
G1 X137.109 Y100.176 E11.5066 F1800
G0 X136.860 Y100.534 F6000
G1 X137.507 Y101.582 E11.5475 F1800
G0 X137.220 Y101.879 F6000
G1 X136.599 Y100.873 E11.5868 F1800
G0 X136.326 Y101.192 F6000
G1 X136.926 Y102.163 E11.6248 F1800
G0 X136.619 Y102.428 F6000
G1 X136.042 Y101.493 E11.6613 F1800
G0 X135.746 Y101.776 F6000
G1 X136.309 Y102.687 E11.6969 F1800
G0 X135.986 Y102.925 F6000
G1 X135.436 Y102.035 E11.7317 F1800
G0 X135.123 Y102.289 F6000
G1 X135.656 Y103.152 E11.7655 F1800
G0 X135.315 Y103.361 F6000
G1 X134.792 Y102.515 E11.7985 F1800
G0 X134.460 Y102.738 F6000
G1 X134.969 Y103.563 E11.8308 F1800
G0 X134.612 Y103.746 F6000
G1 X134.112 Y102.936 E11.8625 F1800
G0 X133.751 Y103.113 F6000
G1 X134.251 Y103.923 E11.8941 F1800
G0 X133.876 Y104.076 F6000
G1 X133.388 Y103.286 E11.9250 F1800
G0 X133.011 Y103.437 F6000
G1 X133.496 Y104.222 E11.9557 F1800
G0 X133.105 Y104.351 F6000
G1 X132.622 Y103.568 E11.9863 F1800
G0 X132.223 Y103.683 F6000
G1 X132.706 Y104.465 E12.0168 F1800
G0 X132.299 Y104.567 F6000
G1 X131.812 Y103.779 E12.0477 F1800
G0 X131.389 Y103.855 F6000
G1 X131.879 Y104.648 E12.0787 F1800
G0 X131.453 Y104.721 F6000
G1 X130.953 Y103.911 E12.1103 F1800
G0 X130.504 Y103.944 F6000
G1 X131.011 Y104.766 E12.1424 F1800
G0 X130.561 Y104.798 F6000
G1 X130.039 Y103.952 E12.1755 F1800
G0 X129.557 Y103.934 F6000
G1 X130.099 Y104.811 E12.2098 F1800
G0 X129.619 Y104.796 F6000
G1 X129.065 Y103.898 E12.2449 F1800
G0 X128.572 Y103.861 F6000
G1 X129.133 Y104.770 E12.2804 F1800
G0 X128.636 Y104.726 F6000
G1 X128.079 Y103.824 E12.3156 F1800
G0 X127.587 Y103.788 F6000
G1 X128.138 Y104.681 E12.3505 F1800
G0 X127.641 Y104.637 F6000
G1 X127.094 Y103.751 E12.3852 F1800
G0 X126.601 Y103.715 F6000
G1 X127.143 Y104.593 E12.4195 F1800
G0 X126.646 Y104.548 F6000
G1 X126.109 Y103.678 E12.4535 F1800
G0 X125.616 Y103.641 F6000
G1 X126.148 Y104.504 E12.4872 F1800
G0 X125.651 Y104.459 F6000
G1 X125.123 Y103.605 E12.5206 F1800
G0 X124.631 Y103.568 F6000
G1 X125.153 Y104.415 E12.5537 F1800
G0 X124.656 Y104.371 F6000
G1 X124.138 Y103.531 E12.5865 F1800
G0 X123.645 Y103.495 F6000
G1 X124.158 Y104.326 E12.6190 F1800
G0 X123.661 Y104.282 F6000
G1 X123.152 Y103.458 E12.6513 F1800
G0 X122.660 Y103.422 F6000
G1 X123.164 Y104.239 E12.6832 F1800
G0 X122.667 Y104.195 F6000
G1 X122.167 Y103.385 E12.7149 F1800
G0 X121.674 Y103.348 F6000
G1 X122.170 Y104.152 E12.7463 F1800
G0 X121.673 Y104.108 F6000
G1 X121.182 Y103.312 E12.7774 F1800
G0 X120.689 Y103.275 F6000
G1 X121.176 Y104.065 E12.8083 F1800
G0 X120.679 Y104.021 F6000
G1 X120.196 Y103.238 E12.8389 F1800
G0 X119.704 Y103.202 F6000
G1 X120.182 Y103.977 E12.8692 F1800
G0 X119.685 Y103.934 F6000
G1 X119.211 Y103.165 E12.8992 F1800
G0 X118.718 Y103.128 F6000
G1 X119.188 Y103.890 E12.9290 F1800
G0 X118.691 Y103.847 F6000
G1 X118.225 Y103.092 E12.9585 F1800
G0 X117.733 Y103.055 F6000
G1 X118.194 Y103.803 E12.9877 F1800
G0 X117.697 Y103.759 F6000
G1 X117.240 Y103.019 E13.0167 F1800
G0 X116.747 Y102.982 F6000
G1 X117.200 Y103.716 E13.0454 F1800
G0 X116.703 Y103.672 F6000
G1 X116.255 Y102.945 E13.0738 F1800
G0 X115.762 Y102.909 F6000
G1 X116.206 Y103.629 E13.1020 F1800
G0 X115.709 Y103.585 F6000
G1 X115.269 Y102.872 E13.1298 F1800
G0 F3600 E13.1298
G0 X114.272 Y102.780 F6000
G1 X114.715 Y103.498 E13.1579 F1800
G0 X115.212 Y103.542 F6000
G1 X114.282 Y102.034 E13.2168 F1800
G0 X114.398 Y101.461 F6000
G1 X114.846 Y102.187 E13.2452 F1800
; ------------------------------------
; Layer #7
; ------------------------------------
M106 S203 ;set fan speed
G21 ; mm
G90 ; abs
G92 E0 ;reset extr
;segType:HShell
G0 F3600 E-3.0000
G0 F1200 Z1.700
G0 X125.166 Y96.057 F6000
G0 F3600 E0.0000
G1 X126.620 Y95.159 E0.0568 F1800
G0 X125.765 Y95.217 F6000
G1 X124.334 Y96.101 E0.1128 F1800
;segType:Infill
G0 F3600 E0.1128
G1 X118.119 Y99.938 E0.3800 F4500
;segType:Perimeter
G0 F3600 E0.3800
G0 X117.865 Y99.386 F6000
G1 X117.065 Y99.377 E0.4066 F1800
G1 X116.314 Y99.368 E0.4316
G1 X113.222 Y99.297 E0.5345
G1 X113.266 Y95.863 E0.6487
G1 X113.300 Y95.641 E0.6562
G1 X113.398 Y95.404 E0.6647
G1 X113.551 Y95.213 E0.6728
G1 X113.711 Y95.095 E0.6794
G1 X113.927 Y95.006 E0.6872
G1 X114.048 Y94.982 E0.6913
G1 X125.610 Y94.225 E1.0767
G1 X129.381 Y93.972 E1.2024
G1 X130.243 Y93.961 E1.2311
G1 X131.089 Y94.014 E1.2593
G1 X131.918 Y94.128 E1.2871
G1 X132.727 Y94.298 E1.3146
G1 X133.513 Y94.525 E1.3418
G1 X134.275 Y94.804 E1.3688
G1 X135.010 Y95.133 E1.3956
G1 X135.715 Y95.511 E1.4222
G1 X136.390 Y95.936 E1.4487
G1 X137.074 Y96.440 E1.4770
G1 X137.449 Y96.752 E1.4932
G1 X137.855 Y97.123 E1.5115
G1 X138.243 Y97.514 E1.5298
G1 X138.573 Y97.877 E1.5461
G1 X138.924 Y98.303 E1.5645
G1 X139.256 Y98.747 E1.5829
G1 X139.533 Y99.157 E1.5994
G1 X139.822 Y99.631 E1.6179
G1 X139.930 Y99.842 E1.6257
G1 X139.971 Y100.063 E1.6332
G1 X139.909 Y100.345 E1.6428
G1 X139.797 Y100.543 E1.6504
G1 X139.494 Y101.011 E1.6689
G1 X139.169 Y101.462 E1.6874
G1 X138.862 Y101.849 E1.7038
G1 X138.500 Y102.265 E1.7222
G1 X138.118 Y102.663 E1.7405
G1 X137.761 Y103.001 E1.7569
G1 X137.346 Y103.360 E1.7751
G1 X136.914 Y103.699 E1.7934
G1 X136.263 Y104.149 E1.8197
G1 X135.576 Y104.556 E1.8463
G1 X134.860 Y104.915 E1.8729
G1 X134.115 Y105.225 E1.8998
G1 X133.344 Y105.483 E1.9268
G1 X132.551 Y105.688 E1.9541
G1 X131.736 Y105.837 E1.9816
G1 X130.903 Y105.927 E2.0095
G1 X130.054 Y105.957 E2.0377
G1 X129.191 Y105.922 E2.0664
G1 X125.496 Y105.582 E2.1899
G1 X115.782 Y104.711 E2.5143
G1 X113.937 Y104.543 E2.5759
G1 X113.687 Y104.469 E2.5845
G1 X113.481 Y104.338 E2.5926
G1 X113.330 Y104.167 E2.6003
G1 X113.241 Y103.997 E2.6066
G1 X113.170 Y103.628 E2.6191
G1 X113.212 Y100.173 E2.7340
G1 X113.496 Y100.174 E2.7435
G1 X113.610 Y100.175 E2.7473
G1 X117.114 Y100.221 E2.8639
G1 X117.124 Y99.437 E2.8899
G0 X117.134 Y98.637 F6000
;segType:Loop
G0 F3600 E2.8899
G0 X116.034 Y98.961 F6000
G1 X113.627 Y98.906 E2.9700 F3600
G1 X113.666 Y95.896 E3.0701
G1 X113.688 Y95.749 E3.0751
G1 X113.746 Y95.609 E3.0801
G1 X113.823 Y95.512 E3.0842
G1 X113.953 Y95.436 E3.0892
G1 X114.126 Y95.378 E3.0953
G1 X125.610 Y94.626 E3.4781
G1 X129.396 Y94.371 E3.6043
G1 X130.233 Y94.361 E3.6321
G1 X131.049 Y94.412 E3.6593
G1 X131.849 Y94.522 E3.6862
G1 X132.630 Y94.687 E3.7127
G1 X133.389 Y94.905 E3.7390
G1 X134.124 Y95.174 E3.7650
G1 X134.833 Y95.492 E3.7909
G1 X135.514 Y95.857 E3.8166
G1 X136.164 Y96.267 E3.8421
G1 X136.828 Y96.756 E3.8695
G1 X137.186 Y97.054 E3.8850
G1 X137.578 Y97.412 E3.9027
G1 X137.953 Y97.789 E3.9204
G1 X138.270 Y98.139 E3.9361
G1 X138.610 Y98.550 E3.9538
G1 X138.930 Y98.979 E3.9716
G1 X139.196 Y99.373 E3.9874
G1 X139.473 Y99.827 E4.0051
G1 X139.559 Y100.074 E4.0138
G1 X139.534 Y100.192 E4.0179
G1 X139.161 Y100.788 E4.0412
G1 X138.850 Y101.221 E4.0590
G1 X138.554 Y101.593 E4.0748
G1 X138.204 Y101.995 E4.0925
G1 X137.836 Y102.379 E4.1102
G1 X137.493 Y102.704 E4.1259
G1 X137.092 Y103.052 E4.1436
G1 X136.677 Y103.376 E4.1611
G1 X136.047 Y103.812 E4.1866
G1 X135.384 Y104.205 E4.2122
G1 X134.693 Y104.551 E4.2379
G1 X133.974 Y104.850 E4.2638
G1 X133.230 Y105.100 E4.2899
G1 X132.465 Y105.297 E4.3162
G1 X131.679 Y105.441 E4.3428
G1 X130.874 Y105.528 E4.3697
G1 X130.055 Y105.556 E4.3969
G1 X129.218 Y105.522 E4.4248
G1 X125.496 Y105.181 E4.5491
G1 X115.896 Y104.319 E4.8697
G1 X114.013 Y104.148 E4.9326
G1 X113.854 Y104.101 E4.9381
G1 X113.743 Y104.030 E4.9425
G1 X113.661 Y103.938 E4.9466
G1 X113.623 Y103.864 E4.9493
G1 X113.571 Y103.592 E4.9586
G1 X113.606 Y100.645 E5.0566
G1 X113.610 Y100.575 E5.0589
G1 X117.509 Y100.626 E5.1886
G1 X117.530 Y98.982 E5.2433
G1 X116.322 Y98.968 E5.2835
G1 X116.234 Y98.966 E5.2864
G0 E5.2864
G0 X114.944 Y98.536 F6000
G1 X114.032 Y98.515 E5.3167 F3600
G1 X114.065 Y95.960 E5.4017
G1 X114.223 Y95.772 E5.4099
G1 X125.610 Y95.027 E5.7894
G1 X129.413 Y94.771 E5.9162
G1 X130.223 Y94.761 E5.9431
G1 X131.009 Y94.811 E5.9693
G1 X131.781 Y94.916 E5.9952
G1 X132.534 Y95.075 E6.0208
G1 X133.265 Y95.285 E6.0461
G1 X133.973 Y95.545 E6.0712
G1 X134.657 Y95.852 E6.0961
G1 X135.313 Y96.203 E6.1209
G1 X135.938 Y96.597 E6.1455
G1 X136.581 Y97.071 E6.1720
G1 X136.924 Y97.355 E6.1868
G1 X137.301 Y97.701 E6.2039
G1 X137.663 Y98.065 E6.2209
G1 X137.967 Y98.400 E6.2360
G1 X138.295 Y98.798 E6.2531
G1 X138.604 Y99.211 E6.2703
G1 X138.859 Y99.589 E6.2855
G1 X139.068 Y99.930 E6.2988
G1 X139.111 Y100.113 E6.3050
G1 X138.829 Y100.565 E6.3227
G1 X138.531 Y100.979 E6.3397
G1 X138.247 Y101.337 E6.3549
G1 X137.909 Y101.725 E6.3720
G1 X137.554 Y102.095 E6.3891
G1 X137.224 Y102.408 E6.4042
G1 X136.837 Y102.743 E6.4212
G1 X136.440 Y103.054 E6.4380
G1 X135.830 Y103.475 E6.4626
G1 X135.192 Y103.854 E6.4873
G1 X134.526 Y104.188 E6.5121
G1 X133.834 Y104.476 E6.5371
G1 X133.117 Y104.716 E6.5622
G1 X132.379 Y104.906 E6.5875
G1 X131.621 Y105.045 E6.6132
G1 X130.845 Y105.129 E6.6391
G1 X130.056 Y105.156 E6.6654
G1 X129.244 Y105.123 E6.6924
G1 X125.496 Y104.779 E6.8176
G1 X116.010 Y103.928 E7.1344
G1 X114.296 Y103.772 E7.1916
G1 X113.971 Y103.557 E7.2046
G1 X114.002 Y100.988 E7.2900
G1 X114.067 Y100.981 E7.2922
G1 X117.904 Y101.031 E7.4198
G1 X117.935 Y98.587 E7.5011
G1 X116.329 Y98.568 E7.5546
G1 X115.144 Y98.541 E7.5940
;segType:Infill
G0 E7.5940
G0 X114.812 Y97.278 F6000
G1 X116.016 Y96.535 E7.6457 F4500
G0 F3600 E7.6457
G0 X117.494 Y97.973 F6000
G1 X120.175 Y96.318 E7.7610 F4500
G0 F3600 E7.7610
G0 X120.187 Y103.362 F6000
G1 X132.019 Y96.057 E8.2697 F4500
G0 F3600 E8.2697
G0 X134.335 Y96.978 F6000
G1 X123.574 Y103.621 E8.7324 F4500
G0 F3600 E8.7324
G0 X126.961 Y103.881 F6000
G1 X136.044 Y98.273 E9.1229 F4500
G0 F3600 E9.1229
G0 X137.309 Y99.842 F6000
G1 X130.432 Y104.088 E9.4186 F4500
G0 F3600 E9.4186
G0 X128.493 Y95.883 F6000
G1 X116.800 Y103.102 E9.9214 F4500
G0 F3600 E9.9214
G0 X114.753 Y102.015 F6000
G1 X115.412 Y101.609 E9.9497 F4500
G0 X116.088 Y100.607 F6000
G0 X117.509 Y100.626
G0 X117.530 Y98.982
G0 X117.189 Y98.978
G0 X117.189 Y98.978
G0 X117.598 Y98.372
;segType:HShell
G0 F3600 E9.9497
G0 X118.215 Y98.233 F6000
G1 X117.169 Y98.173 E9.9730 F1800
G1 X116.424 Y98.163 E9.9983
G1 X115.684 Y98.150 E10.0236
G1 X114.943 Y98.137 E10.0483
G1 X114.522 Y97.927 E10.0726
G1 X114.528 Y97.453 E10.0948
G1 X114.534 Y96.980 E10.1170
G0 F3600 E10.1170
G0 X114.262 Y96.208 F6000
G0 X114.256 Y96.681 F6000
G1 X115.543 Y95.887 E10.1674 F1800
G0 X116.395 Y95.831 F6000
G1 X115.184 Y96.578 E10.2147 F1800
G0 X116.016 Y96.535 F6000
G1 X117.247 Y95.775 E10.2628 F1800
G0 X118.099 Y95.719 F6000
G1 X116.848 Y96.492 E10.3117 F1800
G0 X117.679 Y96.448 F6000
G1 X118.950 Y95.663 E10.3614 F1800
G0 X119.802 Y95.608 F6000
G1 X118.511 Y96.405 E10.4119 F1800
G0 X119.343 Y96.361 F6000
G1 X120.654 Y95.552 E10.4631 F1800
G0 X121.506 Y95.496 F6000
G1 X120.175 Y96.318 E10.5152 F1800
G0 X121.007 Y96.274 F6000
G1 X122.358 Y95.440 E10.5680 F1800
G0 X123.209 Y95.385 F6000
G1 X121.838 Y96.231 E10.6216 F1800
G0 X122.670 Y96.187 F6000
G1 X124.061 Y95.329 E10.6759 F1800
G0 X124.913 Y95.273 F6000
G1 X123.502 Y96.144 E10.7311 F1800
G0 F3600 E10.7311
G0 X125.997 Y96.014 F6000
G1 X127.474 Y95.102 E10.7888 F1800
G0 X128.328 Y95.045 F6000
G1 X126.829 Y95.970 E10.8474 F1800
G0 X127.661 Y95.927 F6000
G1 X129.183 Y94.987 E10.9069 F1800
G0 X129.981 Y94.964 F6000
G1 X128.493 Y95.883 E10.9651 F1800
G0 X129.325 Y95.840 F6000
G1 X130.699 Y94.992 E11.0188 F1800
G0 X131.350 Y95.059 F6000
G1 X130.120 Y95.819 E11.0669 F1800
G0 X130.815 Y95.860 F6000
G1 X131.953 Y95.157 E11.1114 F1800
G0 X132.518 Y95.279 F6000
G1 X131.445 Y95.941 E11.1533 F1800
G0 X132.019 Y96.057 F6000
G1 X133.037 Y95.428 E11.1931 F1800
G0 X133.528 Y95.595 F6000
G1 X132.546 Y96.201 E11.2315 F1800
G0 X133.039 Y96.367 F6000
G1 X133.998 Y95.775 E11.2690 F1800
G0 X134.439 Y95.973 F6000
G1 X133.499 Y96.553 E11.3057 F1800
G0 X133.930 Y96.758 F6000
G1 X134.856 Y96.186 E11.3419 F1800
G0 X135.260 Y96.406 F6000
G1 X134.335 Y96.978 E11.3781 F1800
G0 X134.718 Y97.211 F6000
G1 X135.637 Y96.644 E11.4140 F1800
G0 X135.999 Y96.890 F6000
G1 X135.078 Y97.459 E11.4501 F1800
G0 X135.419 Y97.719 F6000
G1 X136.346 Y97.146 E11.4863 F1800
G0 X136.678 Y97.411 F6000
G1 X135.740 Y97.991 E11.5230 F1800
G0 X136.044 Y98.273 F6000
G1 X136.991 Y97.688 E11.5600 F1800
G0 X137.290 Y97.973 F6000
G1 X136.332 Y98.565 E11.5975 F1800
G0 X136.604 Y98.867 F6000
G1 X137.576 Y98.267 E11.6355 F1800
G0 X137.848 Y98.570 F6000
G1 X136.855 Y99.183 E11.6743 F1800
G0 X137.088 Y99.508 F6000
G1 X138.105 Y98.881 E11.7140 F1800
G0 X138.347 Y99.201 F6000
G1 X137.309 Y99.842 E11.7546 F1800
G0 X137.235 Y100.358 F6000
G1 X138.573 Y99.532 E11.8069 F1800
G0 X138.790 Y99.868 F6000
G1 X136.503 Y101.280 E11.8963 F1800
G0 F3600 E11.8963
G0 X136.813 Y102.499 F6000
G1 X134.228 Y104.095 E11.9974 F1800
G0 F3600 E11.9974
G0 X132.565 Y104.651 F6000
G1 X138.037 Y101.273 E12.2113 F1800
G0 X138.700 Y100.394 F6000
G1 X131.465 Y104.860 E12.4940 F1800
G0 X130.578 Y104.938 F6000
G1 X132.475 Y103.767 E12.5682 F1800
G0 X131.322 Y104.009 F6000
G1 X129.804 Y104.946 E12.6275 F1800
G0 X129.102 Y104.909 F6000
G1 X130.432 Y104.088 E12.6795 F1800
G0 X129.674 Y104.086 F6000
G1 X128.439 Y104.848 E12.7277 F1800
G0 X127.776 Y104.787 F6000
G1 X128.995 Y104.035 E12.7754 F1800
G0 X128.316 Y103.984 F6000
G1 X127.113 Y104.727 E12.8224 F1800
G0 X126.450 Y104.666 F6000
G1 X127.638 Y103.932 E12.8688 F1800
G0 X126.961 Y103.881 F6000
G1 X125.787 Y104.605 E12.9147 F1800
G0 X125.123 Y104.545 F6000
G1 X126.283 Y103.829 E12.9601 F1800
G0 X125.606 Y103.777 F6000
G1 X124.459 Y104.485 E13.0049 F1800
G0 X123.794 Y104.426 F6000
G1 X124.929 Y103.725 E13.0493 F1800
G0 X124.251 Y103.673 F6000
G1 X123.129 Y104.366 E13.0931 F1800
G0 X122.464 Y104.306 F6000
G1 X123.574 Y103.621 E13.1365 F1800
G0 X122.896 Y103.569 F6000
G1 X121.799 Y104.247 E13.1794 F1800
G0 X121.135 Y104.187 F6000
G1 X122.219 Y103.517 E13.2218 F1800
G0 X121.542 Y103.466 F6000
G1 X120.470 Y104.127 E13.2637 F1800
G0 X119.805 Y104.068 F6000
G1 X120.864 Y103.414 E13.3051 F1800
G0 X120.187 Y103.362 F6000
G1 X119.140 Y104.008 E13.3460 F1800
G0 X118.475 Y103.948 F6000
G1 X119.509 Y103.310 E13.3864 F1800
G0 X118.832 Y103.258 F6000
G1 X117.810 Y103.889 E13.4263 F1800
G0 X117.146 Y103.829 F6000
G1 X118.154 Y103.206 E13.4658 F1800
G0 X117.477 Y103.154 F6000
G1 X116.481 Y103.769 E13.5047 F1800
G0 X115.816 Y103.709 F6000
G1 X116.800 Y103.102 E13.5431 F1800
G0 X116.122 Y103.051 F6000
G1 X115.153 Y103.649 E13.5810 F1800
G0 X114.489 Y103.589 F6000
G1 X115.445 Y102.998 E13.6184 F1800
G0 X114.493 Y103.351 F6000
G1 X114.464 Y102.664 E13.6425 F1800
G1 X114.469 Y102.191 E13.6647
G0 X114.191 Y101.892 F6000
G1 X115.316 Y101.198 E13.7087 F1800
G0 X114.571 Y101.188 F6000
G1 X114.197 Y101.419 E13.7233 F1800
G0 F3600 E13.7233
G0 X115.364 Y101.403 F6000
G1 X116.483 Y101.417 E13.7487 F1800
G1 X117.230 Y101.427 E13.7741
G1 X117.877 Y101.497 E13.7994
; ------------------------------------
; Layer #8
; ------------------------------------
M106 S203 ;set fan speed
G21 ; mm
G90 ; abs
G92 E0 ;reset extr
;segType:Infill
G0 F3600 E-3.0000
G0 F1200 Z1.900
G0 X134.968 Y102.800 F6000
G0 F3600 E0.0000
G1 X130.583 Y95.696 E0.3054 F4500
G0 F3600 E0.3054
G0 X133.317 Y96.317 F6000
G1 X136.531 Y101.523 E0.5293 F4500
;segType:Perimeter
G0 F3600 E0.5293
G0 X139.904 Y99.384 F6000
G1 X140.200 Y100.127 E0.5559 F1800
G1 X140.147 Y100.354 E0.5636
G1 X139.874 Y100.805 E0.5812
G1 X139.399 Y101.483 E0.6087
G1 X138.880 Y102.121 E0.6361
G1 X138.317 Y102.720 E0.6634
G1 X137.716 Y103.276 E0.6906
G1 X137.076 Y103.788 E0.7179
G1 X136.401 Y104.254 E0.7452
G1 X135.694 Y104.671 E0.7725
G1 X134.956 Y105.040 E0.7999
G1 X134.191 Y105.356 E0.8275
G1 X133.400 Y105.619 E0.8552
G1 X132.587 Y105.827 E0.8831
G1 X131.753 Y105.978 E0.9113
G1 X130.903 Y106.069 E0.9397
G1 X130.039 Y106.097 E0.9685
G1 X129.162 Y106.061 E0.9976
G1 X124.467 Y105.621 E1.1545
G1 X113.915 Y104.652 E1.5069
G1 X113.651 Y104.593 E1.5159
G1 X113.436 Y104.476 E1.5241
G1 X113.265 Y104.306 E1.5321
G1 X113.144 Y104.087 E1.5404
G1 X113.093 Y103.902 E1.5468
G1 X113.076 Y103.689 E1.5539
G1 X113.169 Y96.139 E1.8050
G1 X113.179 Y95.716 E1.8191
G1 X113.250 Y95.419 E1.8293
G1 X113.348 Y95.240 E1.8360
G1 X113.521 Y95.060 E1.8443
G1 X113.723 Y94.943 E1.8521
G1 X113.950 Y94.881 E1.8599
G1 X114.410 Y94.847 E1.8753
G1 X114.525 Y94.838 E1.8791
G1 X123.096 Y94.264 E2.1648
G1 X126.982 Y93.997 E2.2944
G1 X129.005 Y93.855 E2.3618
G1 X129.555 Y93.824 E2.3801
G1 X130.428 Y93.827 E2.4092
G1 X131.286 Y93.893 E2.4378
G1 X132.128 Y94.021 E2.4661
G1 X132.951 Y94.208 E2.4942
G1 X133.752 Y94.450 E2.5220
G1 X134.528 Y94.746 E2.5497
G1 X135.278 Y95.095 E2.5772
G1 X135.997 Y95.494 E2.6045
G1 X136.684 Y95.941 E2.6318
G1 X137.338 Y96.435 E2.6590
G1 X137.953 Y96.973 E2.6862
G1 X138.531 Y97.554 E2.7135
G1 X139.067 Y98.175 E2.7408
G1 X139.559 Y98.836 E2.7682
G1 X140.006 Y99.535 E2.7957
G1 X140.141 Y99.773 E2.8049
G1 X140.196 Y99.918 E2.8100
G1 X140.206 Y100.009 E2.8131
G0 X139.830 Y100.715 F6000
;segType:Loop
G0 F3600 E2.8131
G0 X139.386 Y100.805 F6000
G1 X139.080 Y101.242 E2.8308 F3600
G1 X138.578 Y101.858 E2.8572
G1 X138.036 Y102.435 E2.8836
G1 X137.455 Y102.972 E2.9099
G1 X136.837 Y103.467 E2.9362
G1 X136.186 Y103.916 E2.9625
G1 X135.503 Y104.320 E2.9889
G1 X134.790 Y104.675 E3.0154
G1 X134.051 Y104.981 E3.0420
G1 X133.287 Y105.235 E3.0688
G1 X132.501 Y105.436 E3.0958
G1 X131.696 Y105.582 E3.1230
G1 X130.875 Y105.669 E3.1505
G1 X130.040 Y105.697 E3.1782
G1 X129.189 Y105.662 E3.2066
G1 X124.467 Y105.219 E3.3643
G1 X113.978 Y104.256 E3.7146
G1 X113.675 Y104.150 E3.7253
G1 X113.587 Y104.062 E3.7295
G1 X113.527 Y103.953 E3.7336
G1 X113.477 Y103.658 E3.7436
G1 X113.569 Y96.146 E3.9934
G1 X113.578 Y95.768 E4.0060
G1 X113.627 Y95.564 E4.0130
G1 X113.674 Y95.479 E4.0162
G1 X113.771 Y95.377 E4.0209
G1 X113.878 Y95.315 E4.0250
G1 X114.018 Y95.277 E4.0298
G1 X114.525 Y95.240 E4.0467
G1 X114.639 Y95.232 E4.0505
G1 X123.096 Y94.664 E4.3324
G1 X126.982 Y94.397 E4.4620
G1 X129.030 Y94.254 E4.5303
G1 X129.565 Y94.224 E4.5481
G1 X130.412 Y94.227 E4.5763
G1 X131.240 Y94.291 E4.6039
G1 X132.054 Y94.414 E4.6313
G1 X132.849 Y94.595 E4.6584
G1 X133.623 Y94.829 E4.6853
G1 X134.372 Y95.115 E4.7120
G1 X135.096 Y95.452 E4.7385
G1 X135.791 Y95.837 E4.7649
G1 X136.454 Y96.268 E4.7913
G1 X137.085 Y96.745 E4.8176
G1 X137.680 Y97.265 E4.8438
G1 X138.237 Y97.826 E4.8701
G1 X138.754 Y98.426 E4.8965
G1 X139.230 Y99.064 E4.9229
G1 X139.663 Y99.741 E4.9497
G1 X139.766 Y99.922 E4.9566
G1 X139.802 Y100.071 E4.9617
G1 X139.772 Y100.202 E4.9662
G1 X139.539 Y100.587 E4.9811
G1 X139.500 Y100.641 E4.9833
G0 E4.9833
G0 X138.412 Y101.429 F6000
G1 X138.277 Y101.594 E4.9904 F3600
G1 X137.754 Y102.151 E5.0159
G1 X137.194 Y102.669 E5.0412
G1 X136.598 Y103.146 E5.0666
G1 X135.970 Y103.579 E5.0920
G1 X135.312 Y103.968 E5.1174
G1 X134.624 Y104.311 E5.1430
G1 X133.911 Y104.606 E5.1686
G1 X133.174 Y104.851 E5.1945
G1 X132.416 Y105.045 E5.2205
G1 X131.639 Y105.185 E5.2468
G1 X130.847 Y105.270 E5.2733
G1 X130.042 Y105.296 E5.3000
G1 X129.216 Y105.262 E5.3275
G1 X124.467 Y104.817 E5.4862
G1 X114.064 Y103.862 E5.8336
G1 X113.877 Y103.626 E5.8437
G1 X113.969 Y96.154 E6.0922
G1 X113.976 Y95.845 E6.1025
G1 X114.067 Y95.675 E6.1089
G1 X114.639 Y95.633 E6.1280
G1 X114.753 Y95.625 E6.1318
G1 X123.096 Y95.065 E6.4099
G1 X126.982 Y94.798 E6.5394
G1 X129.056 Y94.653 E6.6086
G1 X129.576 Y94.624 E6.6259
G1 X130.395 Y94.627 E6.6532
G1 X131.195 Y94.689 E6.6798
G1 X131.980 Y94.808 E6.7062
G1 X132.747 Y94.982 E6.7324
G1 X133.493 Y95.207 E6.7583
G1 X134.217 Y95.484 E6.7841
G1 X134.914 Y95.808 E6.8097
G1 X135.585 Y96.180 E6.8352
G1 X136.224 Y96.596 E6.8606
G1 X136.833 Y97.056 E6.8859
G1 X137.406 Y97.557 E6.9112
G1 X137.943 Y98.098 E6.9366
G1 X138.442 Y98.676 E6.9620
G1 X138.900 Y99.291 E6.9875
G1 X139.341 Y99.980 E7.0147
G1 X139.326 Y100.166 E7.0209
G1 X139.203 Y100.368 E7.0288
G1 X138.760 Y101.000 E7.0544
G1 X138.538 Y101.274 E7.0662
;segType:Infill
G0 E7.0662
G0 X133.171 Y103.696 F6000
G1 X128.268 Y95.755 E7.4076 F4500
G0 F3600 E7.4076
G0 X125.994 Y95.878 F6000
G1 X131.118 Y104.177 E7.7645 F4500
G0 F3600 E7.7645
G0 X128.759 Y104.164 F6000
G1 X123.720 Y96.002 E8.1154 F4500
G0 F3600 E8.1154
G0 X121.446 Y96.126 F6000
G1 X126.288 Y103.968 E8.4526 F4500
G0 F3600 E8.4526
G0 X123.817 Y103.773 F6000
G1 X119.172 Y96.249 E8.7761 F4500
G0 F3600 E8.7761
G0 X117.889 Y97.978 F6000
G1 X116.898 Y96.373 E8.8451 F4500
G0 F3600 E8.8451
G0 X114.726 Y96.662 F6000
G1 X115.520 Y97.949 E8.9004 F4500
G0 F3600 E8.9004
G0 X115.430 Y101.609 F6000
G1 X116.403 Y103.186 E8.9682 F4500
G0 F3600 E8.9682
G0 X118.874 Y103.381 F6000
G1 X117.798 Y101.638 E9.0432 F4500
G0 F3600 E9.0432
G0 X118.138 Y98.381 F6000
G1 X121.345 Y103.577 E9.2666 F4500
;segType:HShell
G0 F3600 E9.2666
G0 X137.781 Y98.218 F6000
G1 X139.038 Y100.254 E9.3462 F1800
G0 X138.788 Y100.612 F6000
G1 X136.674 Y97.187 E9.4800 F1800
G0 X135.827 Y96.576 F6000
G1 X138.534 Y100.961 E9.6515 F1800
G0 X138.267 Y101.290 F6000
G1 X137.590 Y100.194 E9.6943 F1800
G0 X137.344 Y100.557 F6000
G1 X137.992 Y101.606 E9.7353 F1800
G0 X137.708 Y101.908 F6000
G1 X137.086 Y100.900 E9.7746 F1800
G0 X136.813 Y101.220 F6000
G1 X137.414 Y102.193 E9.8127 F1800
G0 X137.115 Y102.469 F6000
G1 X136.531 Y101.523 E9.8497 F1800
G0 X136.240 Y101.814 F6000
G1 X136.803 Y102.726 E9.8853 F1800
G0 X136.488 Y102.977 F6000
G1 X135.936 Y102.084 E9.9202 F1800
G0 X135.622 Y102.336 F6000
G1 X136.159 Y103.206 E9.9542 F1800
G0 X135.828 Y103.431 F6000
G1 X135.302 Y102.579 E9.9875 F1800
G0 X134.968 Y102.800 F6000
G1 X135.483 Y103.634 E10.0201 F1800
G0 X135.136 Y103.832 F6000
G1 X134.630 Y103.013 E10.0522 F1800
G0 X134.278 Y103.204 F6000
G1 X134.776 Y104.012 E10.0837 F1800
G0 X134.412 Y104.183 F6000
G1 X133.921 Y103.388 E10.1148 F1800
G0 X133.550 Y103.548 F6000
G1 X134.037 Y104.338 E10.1457 F1800
G0 X133.655 Y104.480 F6000
G1 X133.171 Y103.696 E10.1763 F1800
G0 X132.783 Y103.829 F6000
G1 X133.265 Y104.610 E10.2068 F1800
G0 X132.865 Y104.724 F6000
G1 X132.382 Y103.941 E10.2374 F1800
G0 X131.973 Y104.040 F6000
G1 X132.459 Y104.828 E10.2682 F1800
G0 X132.040 Y104.910 F6000
G1 X131.552 Y104.120 E10.2991 F1800
G0 X131.118 Y104.177 F6000
G1 X131.617 Y104.986 E10.3307 F1800
G0 X131.176 Y105.034 F6000
G1 X130.674 Y104.220 E10.3625 F1800
G0 X130.214 Y104.236 F6000
G1 X130.731 Y105.074 E10.3953 F1800
G0 X130.270 Y105.089 F6000
G1 X129.737 Y104.226 E10.4290 F1800
G0 X129.253 Y104.203 F6000
G1 X129.799 Y105.086 E10.4635 F1800
G0 X129.316 Y105.066 F6000
G1 X128.759 Y104.164 E10.4988 F1800
G0 X128.265 Y104.125 F6000
G1 X128.820 Y105.024 E10.5340 F1800
G0 X128.321 Y104.977 F6000
G1 X127.771 Y104.086 E10.5688 F1800
G0 X127.276 Y104.046 F6000
G1 X127.822 Y104.931 E10.6034 F1800
G0 X127.323 Y104.884 F6000
G1 X126.782 Y104.007 E10.6376 F1800
G0 X126.288 Y103.968 F6000
G1 X126.824 Y104.837 E10.6716 F1800
G0 X126.325 Y104.790 F6000
G1 X125.794 Y103.929 E10.7053 F1800
G0 X125.299 Y103.890 F6000
G1 X125.826 Y104.744 E10.7386 F1800
G0 X125.327 Y104.697 F6000
G1 X124.805 Y103.851 E10.7717 F1800
G0 X124.311 Y103.812 F6000
G1 X124.828 Y104.650 E10.8045 F1800
G0 X124.330 Y104.604 F6000
G1 X123.817 Y103.773 E10.8370 F1800
G0 X123.322 Y103.733 F6000
G1 X123.831 Y104.558 E10.8692 F1800
G0 X123.333 Y104.512 F6000
G1 X122.828 Y103.694 E10.9011 F1800
G0 X122.334 Y103.655 F6000
G1 X122.835 Y104.466 E10.9328 F1800
G0 X122.336 Y104.421 F6000
G1 X121.840 Y103.616 E10.9643 F1800
G0 X121.345 Y103.577 F6000
G1 X121.838 Y104.375 E10.9955 F1800
G0 X121.340 Y104.329 F6000
G1 X120.851 Y103.538 E11.0264 F1800
G0 X120.357 Y103.499 F6000
G1 X120.841 Y104.283 E11.0571 F1800
G0 X120.343 Y104.238 F6000
G1 X119.863 Y103.460 E11.0875 F1800
G0 X119.369 Y103.421 F6000
G1 X119.845 Y104.192 E11.1177 F1800
G0 X119.346 Y104.146 F6000
G1 X118.874 Y103.381 E11.1475 F1800
G0 X118.380 Y103.342 F6000
G1 X118.848 Y104.101 E11.1772 F1800
G0 X118.350 Y104.055 F6000
G1 X117.886 Y103.303 E11.2066 F1800
G0 X117.392 Y103.264 F6000
G1 X117.851 Y104.009 E11.2357 F1800
G0 X117.353 Y103.963 F6000
G1 X116.897 Y103.225 E11.2645 F1800
G0 X116.403 Y103.186 F6000
G1 X116.855 Y103.918 E11.2931 F1800
G0 X116.357 Y103.872 F6000
G1 X115.909 Y103.147 E11.3215 F1800
G0 X115.415 Y103.108 F6000
G1 X115.858 Y103.826 E11.3496 F1800
G0 X115.360 Y103.780 F6000
G1 X114.920 Y103.068 E11.3774 F1800
G0 F3600 E11.3774
G0 X114.363 Y103.689 F6000
G0 X114.862 Y103.735 F6000
G1 X114.091 Y102.487 E11.4262 F1800
G0 X114.100 Y101.740 F6000
G1 X114.651 Y102.632 E11.4610 F1800
G0 X114.660 Y101.885 F6000
G1 X114.110 Y100.994 E11.4958 F1800
G0 X114.119 Y100.247 F6000
G1 X114.956 Y101.603 E11.5488 F1800
G0 X115.430 Y101.609 F6000
G1 X114.128 Y99.501 E11.6312 F1800
G0 X114.137 Y98.754 F6000
G1 X115.903 Y101.615 E11.7431 F1800
G0 X116.377 Y101.620 F6000
G1 X114.146 Y98.008 E11.8843 F1800
G0 X114.156 Y97.261 F6000
G1 X116.850 Y101.626 E12.0549 F1800
G0 X117.324 Y101.632 F6000
G1 X115.047 Y97.943 E12.1991 F1800
G0 X115.520 Y97.949 F6000
G1 X117.798 Y101.638 E12.3433 F1800
G0 X118.101 Y101.368 F6000
G1 X115.994 Y97.955 E12.4767 F1800
G0 X116.468 Y97.960 F6000
G1 X118.110 Y100.621 E12.5807 F1800
G0 X118.119 Y99.874 F6000
G1 X116.941 Y97.966 E12.6553 F1800
G0 X117.415 Y97.972 F6000
G1 X118.129 Y99.128 E12.7004 F1800
G0 X118.138 Y98.381 F6000
G1 X117.889 Y97.978 E12.7162 F1800
G0 F3600 E12.7162
G0 X114.165 Y96.514 F6000
G1 X114.716 Y97.407 E12.7511 F1800
G0 X114.726 Y96.662 F6000
G1 X114.233 Y95.863 E12.7823 F1800
G0 X114.654 Y96.165 F6000
G1 X115.334 Y96.124 E12.8074 F1800
G1 X115.787 Y96.096 E12.8327
G1 X116.240 Y96.069 E12.8583
G1 X116.693 Y96.041 E12.8840
G1 X117.146 Y96.014 E12.9100
G1 X117.599 Y95.986 E12.9361
G1 X118.052 Y95.959 E12.9625
G0 X118.294 Y95.588 F6000
G1 X118.717 Y96.274 E12.9893 F1800
G0 X119.172 Y96.249 F6000
G1 X118.745 Y95.558 E13.0164 F1800
G0 X119.196 Y95.528 F6000
G1 X119.627 Y96.225 E13.0436 F1800
G0 X120.082 Y96.200 F6000
G1 X119.648 Y95.497 E13.0711 F1800
G0 X120.099 Y95.467 F6000
G1 X120.537 Y96.175 E13.0988 F1800
G0 X120.991 Y96.150 F6000
G1 X120.551 Y95.437 E13.1267 F1800
G0 X121.002 Y95.406 F6000
G1 X121.446 Y96.126 E13.1548 F1800
G0 X121.901 Y96.101 F6000
G1 X121.453 Y95.376 E13.1831 F1800
G0 X121.905 Y95.346 F6000
G1 X122.356 Y96.076 E13.2117 F1800
G0 X122.810 Y96.051 F6000
G1 X122.356 Y95.316 E13.2404 F1800
G0 X122.808 Y95.285 F6000
G1 X123.265 Y96.027 E13.2694 F1800
G0 X123.720 Y96.002 F6000
G1 X123.259 Y95.255 E13.2986 F1800
G0 X123.710 Y95.224 F6000
G1 X124.175 Y95.977 E13.3280 F1800
G0 X124.630 Y95.952 F6000
G1 X124.161 Y95.193 E13.3577 F1800
G0 X124.612 Y95.162 F6000
G1 X125.084 Y95.927 E13.3877 F1800
G0 X125.539 Y95.903 F6000
G1 X125.063 Y95.131 E13.4178 F1800
G0 X125.514 Y95.100 F6000
G1 X125.994 Y95.878 E13.4482 F1800
G0 X126.449 Y95.853 F6000
G1 X125.965 Y95.069 E13.4789 F1800
G0 X126.416 Y95.038 F6000
G1 X126.904 Y95.828 E13.5098 F1800
G0 X127.358 Y95.804 F6000
G1 X126.867 Y95.007 E13.5409 F1800
G0 X127.317 Y94.976 F6000
G1 X127.813 Y95.779 E13.5723 F1800
G0 X128.268 Y95.755 F6000
G1 X127.768 Y94.944 E13.6040 F1800
G0 X128.218 Y94.912 F6000
G1 X128.724 Y95.730 E13.6360 F1800
G0 X129.179 Y95.706 F6000
G1 X128.669 Y94.881 E13.6683 F1800
G0 X129.120 Y94.850 F6000
G1 X129.634 Y95.682 E13.7008 F1800
G0 X130.103 Y95.680 F6000
G1 X129.574 Y94.824 E13.7343 F1800
G0 X130.045 Y94.826 F6000
G1 X130.583 Y95.696 E13.7683 F1800
G0 X131.081 Y95.741 F6000
G1 X130.523 Y94.837 E13.8036 F1800
G0 X131.016 Y94.876 F6000
G1 X131.602 Y95.824 E13.8407 F1800
G0 X132.144 Y95.941 F6000
G1 X131.527 Y94.942 E13.8798 F1800
G0 X132.051 Y95.029 F6000
G1 X132.713 Y96.102 E13.9217 F1800
G0 X133.317 Y96.317 F6000
G1 X132.598 Y95.153 E13.9672 F1800
G0 X133.170 Y95.319 F6000
G1 X133.965 Y96.606 E14.0175 F1800
G0 X134.677 Y96.998 F6000
G1 X133.769 Y95.527 E14.0750 F1800
G0 X134.402 Y95.790 F6000
G1 X135.492 Y97.556 E14.1440 F1800
G0 F3600 E14.1440
G0 X135.081 Y96.129 F6000
G1 X136.585 Y98.565 E14.2393 F1800
; ------------------------------------
; Layer #9
; ------------------------------------
M106 S203 ;set fan speed
G21 ; mm
G90 ; abs
G92 E0 ;reset extr
;segType:Infill
G0 F3600 E-3.0000
G0 F1200 Z2.100
G0 X136.363 Y98.076 F6000
G0 F3600 E0.0000
G1 X126.563 Y104.126 E0.4214 F4500
G0 F3600 E0.4214
G0 X129.952 Y104.385 F6000
G1 X137.664 Y99.623 E0.7530 F4500
;segType:Perimeter
G0 F3600 E0.7530
G0 X140.081 Y99.431 F6000
G1 X140.436 Y100.148 E0.7796 F1800
G1 X140.383 Y100.366 E0.7871
G1 X140.054 Y100.901 E0.8079
G1 X139.561 Y101.592 E0.8362
G1 X139.021 Y102.243 E0.8643
G1 X138.438 Y102.854 E0.8924
G1 X137.814 Y103.420 E0.9204
G1 X137.151 Y103.941 E0.9485
G1 X136.452 Y104.413 E0.9765
G1 X135.720 Y104.835 E1.0046
G1 X134.958 Y105.206 E1.0328
G1 X134.168 Y105.523 E1.0611
G1 X133.354 Y105.784 E1.0896
G1 X132.519 Y105.988 E1.1182
G1 X131.664 Y106.133 E1.1470
G1 X130.795 Y106.216 E1.1760
G1 X129.913 Y106.236 E1.2054
G1 X129.471 Y106.221 E1.2201
G1 X129.013 Y106.189 E1.2353
G1 X126.982 Y105.992 E1.3032
G1 X122.639 Y105.579 E1.4483
G1 X113.821 Y104.752 E1.7429
G1 X113.600 Y104.706 E1.7504
G1 X113.361 Y104.587 E1.7593
G1 X113.186 Y104.421 E1.7673
G1 X113.067 Y104.223 E1.7750
G1 X113.001 Y104.000 E1.7827
G1 X112.985 Y103.824 E1.7886
G1 X113.083 Y95.717 E2.0583
G1 X113.120 Y95.437 E2.0676
G1 X113.217 Y95.203 E2.0761
G1 X113.369 Y95.012 E2.0842
G1 X113.566 Y94.872 E2.0922
G1 X113.809 Y94.787 E2.1008
G1 X113.939 Y94.770 E2.1051
G1 X123.553 Y94.104 E2.4257
G1 X127.325 Y93.837 E2.5514
G1 X129.179 Y93.702 E2.6133
G1 X130.070 Y93.678 E2.6429
G1 X130.949 Y93.720 E2.6722
G1 X131.814 Y93.824 E2.7012
G1 X132.664 Y93.989 E2.7300
G1 X133.493 Y94.213 E2.7585
G1 X134.300 Y94.493 E2.7869
G1 X135.081 Y94.828 E2.8152
G1 X135.833 Y95.216 E2.8434
G1 X136.554 Y95.655 E2.8714
G1 X137.240 Y96.144 E2.8995
G1 X137.890 Y96.680 E2.9275
G1 X138.500 Y97.260 E2.9555
G1 X139.069 Y97.883 E2.9835
G1 X139.593 Y98.546 E3.0116
G1 X140.069 Y99.248 E3.0399
G1 X140.394 Y99.807 E3.0613
G1 X140.439 Y100.031 E3.0690
G0 X140.053 Y100.732 F6000
;segType:Loop
G0 F3600 E3.0690
G0 X139.662 Y100.761 F6000
G1 X139.243 Y101.348 E3.0929 F3600
G1 X138.722 Y101.977 E3.1201
G1 X138.159 Y102.567 E3.1472
G1 X137.556 Y103.115 E3.1743
G1 X136.915 Y103.617 E3.2014
G1 X136.240 Y104.073 E3.2285
G1 X135.533 Y104.482 E3.2557
G1 X134.796 Y104.840 E3.2829
G1 X134.033 Y105.146 E3.3103
G1 X133.246 Y105.399 E3.3378
G1 X132.438 Y105.596 E3.3654
G1 X131.612 Y105.736 E3.3933
G1 X130.771 Y105.816 E3.4214
G1 X129.919 Y105.836 E3.4498
G1 X129.043 Y105.790 E3.4789
G1 X126.982 Y105.590 E3.5478
G1 X122.753 Y105.188 E3.6891
G1 X113.880 Y104.356 E3.9855
G1 X113.732 Y104.325 E3.9905
G1 X113.593 Y104.255 E3.9957
G1 X113.498 Y104.165 E4.0001
G1 X113.399 Y103.960 E4.0076
G1 X113.385 Y103.808 E4.0127
G1 X113.483 Y95.746 E4.2809
G1 X113.562 Y95.412 E4.2923
G1 X113.647 Y95.305 E4.2968
G1 X113.740 Y95.239 E4.3006
G1 X114.006 Y95.166 E4.3098
G1 X123.553 Y94.505 E4.6281
G1 X127.325 Y94.238 E4.7539
G1 X129.199 Y94.102 E4.8163
G1 X130.066 Y94.078 E4.8452
G1 X130.915 Y94.118 E4.8735
G1 X131.752 Y94.219 E4.9015
G1 X132.573 Y94.379 E4.9294
G1 X133.376 Y94.595 E4.9570
G1 X134.155 Y94.866 E4.9844
G1 X134.910 Y95.190 E5.0118
G1 X135.637 Y95.565 E5.0390
G1 X136.334 Y95.990 E5.0661
G1 X136.997 Y96.462 E5.0932
G1 X137.625 Y96.979 E5.1202
G1 X138.214 Y97.540 E5.1473
G1 X138.764 Y98.142 E5.1744
G1 X139.270 Y98.783 E5.2016
G1 X139.730 Y99.461 E5.2288
G1 X140.014 Y99.950 E5.2476
G1 X140.041 Y100.081 E5.2521
G1 X140.009 Y100.210 E5.2565
G1 X139.773 Y100.594 E5.2715
G0 E5.2715
G0 X138.694 Y101.385 F6000
G1 X138.423 Y101.711 E5.2856 F3600
G1 X137.879 Y102.280 E5.3118
G1 X137.297 Y102.809 E5.3379
G1 X136.680 Y103.294 E5.3641
G1 X136.028 Y103.734 E5.3902
G1 X135.345 Y104.128 E5.4164
G1 X134.634 Y104.475 E5.4428
G1 X133.897 Y104.770 E5.4692
G1 X133.137 Y105.014 E5.4957
G1 X132.357 Y105.204 E5.5224
G1 X131.559 Y105.339 E5.5493
G1 X130.748 Y105.417 E5.5764
G1 X129.925 Y105.435 E5.6038
G1 X129.073 Y105.391 E5.6322
G1 X126.982 Y105.188 E5.7021
G1 X122.867 Y104.797 E5.8395
G1 X113.953 Y103.961 E6.1373
G1 X113.798 Y103.866 E6.1434
G1 X113.786 Y103.731 E6.1479
G1 X113.882 Y95.795 E6.4118
G1 X113.924 Y95.618 E6.4179
G1 X113.945 Y95.598 E6.4189
G1 X114.073 Y95.562 E6.4233
G1 X123.553 Y94.906 E6.7394
G1 X127.325 Y94.639 E6.8651
G1 X129.219 Y94.501 E6.9283
G1 X130.062 Y94.478 E6.9563
G1 X130.882 Y94.517 E6.9836
G1 X131.690 Y94.614 E7.0107
G1 X132.483 Y94.769 E7.0376
G1 X133.258 Y94.978 E7.0643
G1 X134.011 Y95.239 E7.0908
G1 X134.740 Y95.552 E7.1171
G1 X135.441 Y95.914 E7.1434
G1 X136.114 Y96.324 E7.1696
G1 X136.753 Y96.779 E7.1957
G1 X137.360 Y97.279 E7.2218
G1 X137.929 Y97.820 E7.2480
G1 X138.459 Y98.401 E7.2741
G1 X138.947 Y99.019 E7.3003
G1 X139.392 Y99.674 E7.3267
G1 X139.604 Y100.040 E7.3407
G1 X139.598 Y100.114 E7.3432
G1 X139.387 Y100.458 E7.3566
G1 X138.926 Y101.104 E7.3830
G1 X138.821 Y101.230 E7.3885
;segType:Infill
G0 E7.3885
G0 X134.644 Y96.787 F6000
G1 X123.198 Y103.853 E7.8806 F4500
G0 F3600 E7.8806
G0 X119.833 Y103.580 F6000
G1 X132.366 Y95.842 E8.4195 F4500
G0 F3600 E8.4195
G0 X129.002 Y95.569 F6000
G1 X116.468 Y103.307 E8.9584 F4500
G0 F3600 E8.9584
G0 X114.563 Y102.133 F6000
G1 X115.412 Y101.609 E8.9950 F4500
G0 F3600 E8.9950
G0 X114.620 Y97.397 F6000
G1 X116.419 Y96.286 E9.0723 F4500
G0 F3600 E9.0723
G0 X120.611 Y96.049 F6000
G1 X117.494 Y97.973 E9.2063 F4500
G0 F3600 E9.2063
G0 X118.119 Y99.938 F6000
G1 X124.803 Y95.811 E9.4937 F4500
;segType:HShell
G0 F3600 E9.4937
G0 X138.970 Y100.697 F6000
G1 X131.863 Y105.085 E9.7715 F1800
G0 X133.032 Y104.833 F6000
G1 X138.229 Y101.625 E9.9747 F1800
G0 F3600 E9.9747
G0 X136.607 Y103.096 F6000
G1 X135.113 Y104.019 E10.0331 F1800
G0 F3600 E10.0331
G0 X132.997 Y103.915 F6000
G1 X130.916 Y105.200 E10.1144 F1800
G0 X130.103 Y105.231 F6000
G1 X131.714 Y104.237 E10.1774 F1800
G0 X130.753 Y104.360 F6000
G1 X129.382 Y105.207 E10.2310 F1800
G0 X128.705 Y105.154 F6000
G1 X129.952 Y104.385 E10.2797 F1800
G0 X129.253 Y104.346 F6000
G1 X128.047 Y105.090 E10.3268 F1800
G0 X127.389 Y105.026 F6000
G1 X128.578 Y104.292 E10.3733 F1800
G0 X127.907 Y104.237 F6000
G1 X126.730 Y104.963 E10.4193 F1800
G0 X126.070 Y104.900 F6000
G1 X127.235 Y104.181 E10.4648 F1800
G0 X126.563 Y104.126 F6000
G1 X125.411 Y104.838 E10.5098 F1800
G0 X124.751 Y104.775 F6000
G1 X125.890 Y104.072 E10.5544 F1800
G0 X125.217 Y104.017 F6000
G1 X124.091 Y104.712 E10.5984 F1800
G0 X123.431 Y104.649 F6000
G1 X124.544 Y103.962 E10.6419 F1800
G0 X123.871 Y103.908 F6000
G1 X122.771 Y104.587 E10.6848 F1800
G0 X122.110 Y104.525 F6000
G1 X123.198 Y103.853 E10.7273 F1800
G0 X122.525 Y103.799 F6000
G1 X121.449 Y104.463 E10.7694 F1800
G0 X120.788 Y104.401 F6000
G1 X121.852 Y103.744 E10.8110 F1800
G0 X121.179 Y103.689 F6000
G1 X120.127 Y104.339 E10.8521 F1800
G0 X119.466 Y104.277 F6000
G1 X120.506 Y103.635 E10.8927 F1800
G0 X119.833 Y103.580 F6000
G1 X118.805 Y104.215 E10.9329 F1800
G0 X118.144 Y104.153 F6000
G1 X119.160 Y103.526 E10.9726 F1800
G0 X118.487 Y103.471 F6000
G1 X117.483 Y104.091 E11.0119 F1800
G0 X116.822 Y104.029 F6000
G1 X117.814 Y103.416 E11.0506 F1800
G0 X117.141 Y103.362 F6000
G1 X116.161 Y103.967 E11.0889 F1800
G0 X115.500 Y103.905 F6000
G1 X116.468 Y103.307 E11.1268 F1800
G0 X115.795 Y103.253 F6000
G1 X114.839 Y103.843 E11.1642 F1800
G0 X114.178 Y103.781 F6000
