;FLAVOR:Marlin
;TIME:1751
;Filament used: 1.30116m
;Layer height: 0.2
;Generated with Cura_SteamEngine 3.1.0
M190 S70
M104 S220
M109 S220
M82 ; absolute extrusion mode
G21 ;metric values
G90 ;absolute positioning
M82 ;set extruder to absolute mode
M107 ;start with the fan off
G28
G29
G92 E0 ;zero the extruded length
G1 F9000
M117 Printing (Cura)...
;LAYER_COUNT:151
;LAYER:0
M107
G0 F1500 X91.444 Y102.888 Z0.3
;TYPE:SKIRT
G1 F900 X91.891 Y102.541 E0.02823
G1 X92.383 Y102.262 E0.05645
G1 X93.059 Y102.01 E0.09244
G1 X93.499 Y101.89 E0.1152
G1 X94.3 Y101.757 E0.15571
G1 X109.068 Y100.829 E0.89394
G1 X109.475 Y100.824 E0.91424
G1 X111.374 Y100.898 E1.00906
G1 X112.145 Y101.004 E1.04788
G1 X113.966 Y101.438 E1.14128
G1 X114.65 Y101.668 E1.17728
G1 X116.052 Y102.285 E1.2537
G1 X116.536 Y102.538 E1.28095
G1 X117.525 Y103.146 E1.33887
G1 X117.927 Y103.429 E1.3634
G1 X118.858 Y104.173 E1.42285
G1 X119.296 Y104.581 E1.45272
G1 X120.392 Y105.765 E1.53321
G1 X120.866 Y106.389 E1.5723
G1 X121.709 Y107.762 E1.65268
G1 X121.97 Y108.264 E1.68091
G1 X122.157 Y108.797 E1.70909
G1 X122.268 Y109.351 E1.73728
G1 X122.293 Y110.098 E1.77457
G1 X122.27 Y110.476 E1.79346
G1 X122.195 Y111.036 E1.82165
G1 X122.043 Y111.581 E1.84988
G1 X121.736 Y112.242 E1.88624
G1 X121.268 Y113.048 E1.93274
G1 X120.942 Y113.525 E1.96156
G1 X120.143 Y114.532 E2.0257
G1 X119.864 Y114.848 E2.04673
G1 X119.272 Y115.451 E2.08888
G1 X118.905 Y115.782 E2.11354
G1 X117.784 Y116.672 E2.18495
G1 X117.366 Y116.962 E2.21033
G1 X116.491 Y117.491 E2.26134
G1 X116.019 Y117.735 E2.28785
G1 X114.657 Y118.328 E2.36196
G1 X114.1 Y118.523 E2.39141
G1 X112.763 Y118.883 E2.46049
G1 X112.161 Y118.997 E2.49105
G1 X110.627 Y119.166 E2.56805
G1 X109.944 Y119.182 E2.60213
G1 X94.104 Y118.21 E3.39388
G1 X93.544 Y118.136 E3.42206
G1 X92.999 Y117.983 E3.4503
G1 X92.396 Y117.709 E3.48335
G1 X91.908 Y117.436 E3.51124
G1 X91.435 Y117.126 E3.53946
G1 X91.011 Y116.752 E3.56767
G1 X90.644 Y116.322 E3.59587
G1 X90.344 Y115.85 E3.62377
G1 X90.045 Y115.298 E3.65509
G1 X89.811 Y114.783 E3.68331
G1 X89.653 Y114.241 E3.71148
G1 X89.562 Y113.414 E3.75299
G1 X89.529 Y107.169 E4.06456
G1 X89.552 Y106.716 E4.08718
G1 X89.627 Y106.026 E4.12181
G1 X89.728 Y105.469 E4.15005
G1 X89.906 Y104.933 E4.17823
G1 X90.1 Y104.529 E4.20059
G1 X90.247 Y104.262 E4.2158
G1 X90.554 Y103.787 E4.24401
G1 X91.084 Y103.21 E4.2831
G1 X91.444 Y102.888 E4.3072
G0 F1500 X91.711 Y103.186
G1 F900 X92.136 Y102.859 E4.33395
G1 X92.605 Y102.599 E4.3607
G1 X93.164 Y102.396 E4.39037
G1 X93.604 Y102.276 E4.41313
G1 X94.325 Y102.156 E4.44959
G1 X109.093 Y101.228 E5.18783
G1 X109.459 Y101.224 E5.20609
G1 X111.358 Y101.298 E5.3009
G1 X112.053 Y101.393 E5.3359
G1 X113.874 Y101.827 E5.42929
G1 X114.489 Y102.034 E5.46166
G1 X115.891 Y102.651 E5.53808
G1 X116.326 Y102.879 E5.56259
G1 X117.315 Y103.487 E5.62051
G1 X117.677 Y103.742 E5.6426
G1 X118.608 Y104.486 E5.70205
G1 X119.003 Y104.852 E5.72892
G1 X120.099 Y106.036 E5.80941
G1 X120.525 Y106.598 E5.8446
G1 X121.368 Y107.971 E5.92498
G1 X121.614 Y108.448 E5.95175
G1 X121.786 Y108.956 E5.97851
G1 X121.881 Y109.484 E6.00528
G1 X121.893 Y110.074 E6.03472
G1 X121.87 Y110.452 E6.05361
G1 X121.798 Y110.983 E6.08034
G1 X121.648 Y111.498 E6.10711
G1 X121.39 Y112.041 E6.1371
G1 X120.922 Y112.847 E6.1836
G1 X120.629 Y113.277 E6.20956
G1 X119.83 Y114.284 E6.27369
G1 X119.579 Y114.568 E6.2926
G1 X118.987 Y115.171 E6.33476
G1 X118.656 Y115.468 E6.35694
G1 X117.535 Y116.358 E6.42835
G1 X117.16 Y116.62 E6.45118
G1 X116.285 Y117.149 E6.50219
G1 X115.859 Y117.369 E6.52611
G1 X114.497 Y117.962 E6.60022
G1 X113.996 Y118.137 E6.6267
G1 X112.659 Y118.497 E6.69577
G1 X112.117 Y118.599 E6.72329
G1 X110.583 Y118.768 E6.80028
G1 X109.969 Y118.783 E6.83093
G1 X94.129 Y117.811 E7.62267
G1 X93.597 Y117.739 E7.64946
G1 X93.083 Y117.588 E7.67618
G1 X92.591 Y117.36 E7.70324
G1 X92.103 Y117.087 E7.73114
G1 X91.656 Y116.791 E7.75788
G1 X91.258 Y116.432 E7.78462
G1 X90.917 Y116.017 E7.81142
G1 X90.696 Y115.66 E7.83237
G1 X90.397 Y115.108 E7.86369
G1 X90.177 Y114.618 E7.89048
G1 X90.032 Y114.102 E7.91723
G1 X89.962 Y113.412 E7.95183
G1 X89.929 Y107.167 E8.26339
G1 X89.95 Y106.759 E8.28378
G1 X90.025 Y106.069 E8.3184
G1 X90.123 Y105.542 E8.34515
G1 X90.297 Y105.035 E8.37189
G1 X90.45 Y104.722 E8.38927
G1 X90.597 Y104.455 E8.40448
G1 X90.89 Y104.006 E8.43123
G1 X91.351 Y103.508 E8.46508
G1 X91.711 Y103.186 E8.48918
G0 F1500 X91.978 Y103.484
G1 F900 X92.38 Y103.178 E8.51438
G1 X92.825 Y102.939 E8.53958
G1 X93.269 Y102.782 E8.56308
G1 X93.709 Y102.662 E8.58583
G1 X94.35 Y102.555 E8.61826
G1 X109.118 Y101.627 E9.35649
G1 X109.444 Y101.623 E9.37275
G1 X111.343 Y101.697 E9.46757
G1 X111.96 Y101.782 E9.49864
G1 X113.781 Y102.216 E9.59203
G1 X114.328 Y102.4 E9.62083
G1 X115.73 Y103.017 E9.69725
G1 X116.117 Y103.22 E9.71905
G1 X117.106 Y103.828 E9.77697
G1 X117.428 Y104.054 E9.79659
G1 X118.359 Y104.798 E9.85605
G1 X118.709 Y105.124 E9.87991
G1 X119.805 Y106.308 E9.96041
G1 X120.184 Y106.808 E9.99171
G1 X121.027 Y108.181 E10.07209
G1 X121.257 Y108.631 E10.0973
G1 X121.413 Y109.112 E10.12253
G1 X121.491 Y109.611 E10.14773
G1 X121.494 Y110.049 E10.16958
G1 X121.471 Y110.427 E10.18847
G1 X121.401 Y110.928 E10.21371
G1 X121.252 Y111.411 E10.23893
G1 X121.044 Y111.84 E10.26271
G1 X120.576 Y112.646 E10.30921
G1 X120.316 Y113.028 E10.33227
G1 X119.517 Y114.035 E10.3964
G1 X119.293 Y114.288 E10.41326
G1 X118.701 Y114.891 E10.45542
G1 X118.408 Y115.155 E10.47509
G1 X117.287 Y116.045 E10.5465
G1 X116.953 Y116.277 E10.56679
G1 X116.078 Y116.806 E10.6178
G1 X115.699 Y117.002 E10.63909
G1 X114.337 Y117.595 E10.7132
G1 X113.892 Y117.751 E10.73673
G1 X112.555 Y118.111 E10.80581
G1 X112.073 Y118.202 E10.83028
G1 X110.539 Y118.371 E10.90727
G1 X109.993 Y118.384 E10.93452
G1 X94.153 Y117.412 E11.72627
G1 X93.652 Y117.341 E11.75151
G1 X93.169 Y117.193 E11.77672
G1 X92.787 Y117.011 E11.79783
G1 X92.299 Y116.738 E11.82572
G1 X91.878 Y116.457 E11.85098
G1 X91.507 Y116.113 E11.87622
G1 X91.195 Y115.715 E11.90145
G1 X91.047 Y115.469 E11.91577
G1 X90.748 Y114.917 E11.94709
G1 X90.543 Y114.455 E11.97231
G1 X90.414 Y113.966 E11.99754
G1 X90.362 Y113.41 E12.0254
G1 X90.329 Y107.165 E12.33697
G1 X90.348 Y106.802 E12.3551
G1 X90.423 Y106.112 E12.38973
G1 X90.517 Y105.615 E12.41496
G1 X90.801 Y104.915 E12.45265
G1 X90.948 Y104.648 E12.46786
G1 X91.226 Y104.225 E12.49311
G1 X91.618 Y103.806 E12.52174
G1 X91.978 Y103.484 E12.54583
G1 F3600 E9.54583
G0 F1500 X111.555 Y114.044
;TYPE:WALL-INNER
G1 F3600 E12.54583
G1 F900 X111.074 Y114.124 E12.57016
G1 X110.541 Y114.178 E12.59689
G1 X110.263 Y114.195 E12.61078
G1 X109.788 Y114.201 E12.63448
G1 X109.457 Y114.189 E12.65101
G1 X94.651 Y113.266 E13.39112
G1 X94.567 Y113.248 E13.3954
G1 X94.538 Y113.209 E13.39783
G1 X94.526 Y113.137 E13.40147
G1 X94.524 Y107.196 E13.69787
G1 X94.534 Y106.817 E13.71678
G1 X94.551 Y106.77 E13.71927
G1 X94.583 Y106.747 E13.72124
G1 X94.612 Y106.738 E13.72276
G1 X109.357 Y105.817 E14.45982
G1 X109.723 Y105.801 E14.4781
G1 X110.263 Y105.805 E14.50504
G1 X110.578 Y105.823 E14.52078
G1 X110.891 Y105.854 E14.53647
G1 X111.483 Y105.942 E14.56633
G1 X111.95 Y106.043 E14.59017
G1 X112.562 Y106.216 E14.6219
G1 X113.043 Y106.387 E14.64737
G1 X113.262 Y106.475 E14.65914
G1 X113.73 Y106.691 E14.68486
G1 X114.155 Y106.918 E14.7089
G1 X114.558 Y107.159 E14.73232
G1 X114.978 Y107.447 E14.75773
G1 X115.401 Y107.778 E14.78453
G1 X115.595 Y107.943 E14.79723
G1 X115.918 Y108.245 E14.81929
G1 X116.157 Y108.489 E14.83633
G1 X116.347 Y108.696 E14.85035
G1 X116.686 Y109.103 E14.87678
G1 X116.864 Y109.34 E14.89156
G1 X117.055 Y109.615 E14.90827
G1 X117.295 Y110.003 E14.93103
G1 X117.048 Y110.397 E14.95423
G1 X116.716 Y110.855 E14.98245
G1 X116.578 Y111.032 E14.99365
G1 X116.209 Y111.456 E15.02169
G1 X115.863 Y111.809 E15.04635
G1 X115.545 Y112.1 E15.06786
G1 X115.213 Y112.374 E15.08933
G1 X114.839 Y112.649 E15.11249
G1 X114.495 Y112.878 E15.13311
G1 X114.051 Y113.139 E15.15881
G1 X113.695 Y113.326 E15.17887
G1 X113.214 Y113.543 E15.20519
G1 X112.78 Y113.71 E15.22839
G1 X112.269 Y113.871 E15.25512
G1 X112 Y113.945 E15.26904
G1 X111.555 Y114.044 E15.29179
G0 F1500 X111.62 Y114.439
G1 F900 X111.13 Y114.52 E15.31656
G1 X110.582 Y114.576 E15.34405
G1 X110.273 Y114.595 E15.35949
G1 X109.779 Y114.601 E15.38414
G1 X109.443 Y114.589 E15.40091
G1 X94.595 Y113.663 E16.14312
G1 X94.442 Y113.63 E16.15093
G1 X94.371 Y113.599 E16.1548
G1 X94.319 Y113.566 E16.15787
G1 X94.229 Y113.476 E16.16422
G1 X94.17 Y113.369 E16.17031
G1 X94.143 Y113.286 E16.17467
G1 X94.126 Y113.16 E16.18101
G1 X94.124 Y107.189 E16.47891
G1 X94.131 Y106.794 E16.49862
G1 X94.146 Y106.711 E16.50282
G1 X94.194 Y106.583 E16.50964
G1 X94.225 Y106.532 E16.51262
G1 X94.315 Y106.438 E16.51911
G1 X94.427 Y106.375 E16.52553
G1 X94.545 Y106.342 E16.53164
G1 X109.34 Y105.417 E17.27121
G1 X109.709 Y105.401 E17.28963
G1 X110.269 Y105.405 E17.31757
G1 X110.615 Y105.425 E17.33486
G1 X110.95 Y105.458 E17.35166
G1 X111.548 Y105.547 E17.38182
G1 X112.05 Y105.655 E17.40744
G1 X112.683 Y105.834 E17.44026
G1 X113.194 Y106.016 E17.46732
G1 X113.413 Y106.105 E17.47911
G1 X113.914 Y106.336 E17.50664
G1 X114.343 Y106.565 E17.5309
G1 X114.779 Y106.826 E17.55625
G1 X115.211 Y107.122 E17.58238
G1 X115.66 Y107.473 E17.61081
G1 X115.854 Y107.638 E17.62351
G1 X116.204 Y107.965 E17.64741
G1 X116.443 Y108.209 E17.66445
G1 X116.642 Y108.426 E17.67914
G1 X117.006 Y108.863 E17.70752
G1 X117.193 Y109.112 E17.72305
G1 X117.384 Y109.387 E17.73976
G1 X117.591 Y109.713 E17.75902
G1 X117.698 Y109.904 E17.76994
G1 X117.721 Y109.975 E17.77367
G1 X117.709 Y110.07 E17.77844
G1 X117.686 Y110.127 E17.78151
G1 X117.562 Y110.337 E17.79368
G1 X117.372 Y110.632 E17.81118
G1 X117.04 Y111.09 E17.83941
G1 X116.88 Y111.295 E17.85238
G1 X116.506 Y111.725 E17.88081
G1 X116.146 Y112.092 E17.90646
G1 X115.8 Y112.409 E17.92987
G1 X115.468 Y112.683 E17.95135
G1 X115.071 Y112.975 E17.97593
G1 X114.698 Y113.223 E17.99828
G1 X114.253 Y113.485 E18.02404
G1 X113.866 Y113.688 E18.04585
G1 X113.373 Y113.91 E18.07282
G1 X112.913 Y114.087 E18.09741
G1 X112.375 Y114.257 E18.12556
G1 X112.106 Y114.331 E18.13948
G1 X111.62 Y114.439 E18.16432
G0 F1500 X112.481 Y114.643
;TYPE:WALL-OUTER
G1 F900 X112.202 Y114.72 E18.17876
G1 X111.696 Y114.832 E18.20461
G1 X111.186 Y114.916 E18.2304
G1 X110.623 Y114.974 E18.25864
G1 X110.283 Y114.995 E18.27563
G1 X109.77 Y115.001 E18.30123
G1 X109.429 Y114.989 E18.31825
G1 X94.555 Y114.061 E19.06176
G1 X94.446 Y114.046 E19.06725
G1 X94.302 Y114.006 E19.07471
G1 X94.186 Y113.954 E19.08105
G1 X94.075 Y113.884 E19.08759
G1 X93.985 Y113.805 E19.09357
G1 X93.906 Y113.714 E19.09958
G1 X93.844 Y113.616 E19.10537
G1 X93.797 Y113.516 E19.11088
G1 X93.758 Y113.397 E19.11713
G1 X93.736 Y113.286 E19.12277
G1 X93.726 Y113.172 E19.12848
G1 X93.724 Y107.181 E19.42737
G1 X93.732 Y106.759 E19.44843
G1 X93.758 Y106.606 E19.45617
G1 X93.833 Y106.407 E19.46678
G1 X93.9 Y106.296 E19.47325
G1 X93.983 Y106.198 E19.47966
G1 X94.069 Y106.121 E19.48542
G1 X94.169 Y106.055 E19.4914
G1 X94.274 Y106.004 E19.49722
G1 X94.389 Y105.966 E19.50326
G1 X94.494 Y105.945 E19.5086
G1 X109.323 Y105.017 E20.24987
G1 X109.695 Y105.001 E20.26845
G1 X110.275 Y105.005 E20.29739
G1 X110.652 Y105.027 E20.31623
G1 X111.009 Y105.062 E20.33412
G1 X111.612 Y105.152 E20.36454
G1 X112.15 Y105.267 E20.39199
G1 X112.804 Y105.453 E20.42591
G1 X113.328 Y105.639 E20.45365
G1 X113.571 Y105.738 E20.46674
G1 X114.098 Y105.981 E20.49569
G1 X114.543 Y106.218 E20.52085
G1 X114.993 Y106.488 E20.54703
G1 X115.443 Y106.796 E20.57423
G1 X115.919 Y107.168 E20.60437
G1 X116.113 Y107.333 E20.61708
G1 X116.49 Y107.685 E20.64281
G1 X116.729 Y107.929 E20.65985
G1 X116.937 Y108.156 E20.67521
G1 X117.326 Y108.623 E20.70554
G1 X117.522 Y108.884 E20.72182
G1 X117.713 Y109.159 E20.73852
G1 X117.94 Y109.517 E20.75967
G1 X118.063 Y109.736 E20.7722
G1 X118.105 Y109.855 E20.7785
G1 X118.122 Y109.946 E20.78312
G1 X118.118 Y110.074 E20.78951
G1 X118.092 Y110.189 E20.79539
G1 X118.045 Y110.304 E20.80159
G1 X117.898 Y110.553 E20.81601
G1 X117.696 Y110.867 E20.83464
G1 X117.364 Y111.325 E20.86286
G1 X117.182 Y111.558 E20.87761
G1 X116.808 Y111.988 E20.90605
G1 X116.416 Y112.387 E20.93395
G1 X116.063 Y112.71 E20.95782
G1 X115.715 Y112.998 E20.98036
G1 X115.303 Y113.301 E21.00587
G1 X114.901 Y113.568 E21.02995
G1 X114.455 Y113.831 E21.05578
G1 X114.037 Y114.05 E21.07932
G1 X113.532 Y114.277 E21.10695
G1 X113.047 Y114.464 E21.13288
G1 X112.481 Y114.643 E21.1625
G0 F1500 X112.288 Y114.696
G0 X111.896 Y113.569
;TYPE:SKIN
G1 F900 X111.483 Y113.662 E21.18362
G1 X111.033 Y113.736 E21.20637
G1 X110.517 Y113.788 E21.23224
G1 X110.239 Y113.805 E21.24614
G1 X109.797 Y113.811 E21.26819
G1 X109.481 Y113.799 E21.28397
G1 X94.916 Y112.891 E22.01203
G1 X94.916 Y107.11 E22.30045
G1 X109.381 Y106.207 E23.02351
G1 X109.738 Y106.191 E23.04134
G1 X110.241 Y106.195 E23.06644
G1 X110.556 Y106.213 E23.08218
G1 X110.836 Y106.24 E23.09621
G1 X111.417 Y106.327 E23.12552
G1 X111.856 Y106.422 E23.14793
G1 X112.447 Y106.589 E23.17857
G1 X112.882 Y106.743 E23.20159
G1 X113.116 Y106.837 E23.21417
G1 X113.564 Y107.044 E23.23879
G1 X113.949 Y107.25 E23.26058
G1 X114.357 Y107.494 E23.2843
G1 X114.738 Y107.755 E23.30734
G1 X115.155 Y108.081 E23.33374
G1 X115.328 Y108.228 E23.34507
G1 X115.639 Y108.518 E23.36628
G1 X116.047 Y108.946 E23.39579
G1 X116.386 Y109.353 E23.42221
G1 X116.548 Y109.569 E23.43568
G1 X116.723 Y109.82 E23.45095
G1 X116.836 Y110.003 E23.46168
G1 X116.732 Y110.168 E23.47141
G1 X116.408 Y110.615 E23.49895
G1 X116.27 Y110.792 E23.51015
G1 X115.93 Y111.183 E23.536
G1 X115.592 Y111.528 E23.5601
G1 X115.289 Y111.805 E23.58058
G1 X114.97 Y112.068 E23.6012
G1 X114.615 Y112.33 E23.62322
G1 X114.29 Y112.547 E23.64271
G1 X113.869 Y112.794 E23.66706
G1 X113.515 Y112.981 E23.68704
G1 X113.066 Y113.182 E23.71158
G1 X112.651 Y113.342 E23.73377
G1 X112.16 Y113.496 E23.75944
G1 X111.896 Y113.569 E23.77311
G1 F3600 E20.77311
G0 F1500 X114.782 Y107.994
G1 F3600 E23.77311
G1 F900 X116.316 Y109.528 E23.88134
G1 X116.386 Y109.598
G0 F1500 X116.473 Y110.251
G1 F900 X113.341 Y107.118 E24.10236
G1 X113.271 Y107.048
G0 F1500 X112.398 Y106.741
G1 F900 X116.234 Y110.577 E24.37301
G1 X116.304 Y110.647
G0 F1500 X115.976 Y110.884
G1 F900 X111.628 Y106.536 E24.67978
G1 X111.558 Y106.466
G0 F1500 X110.943 Y106.418
G1 F900 X115.706 Y111.181 E25.01584
G1 X115.776 Y111.251
G0 F1500 X115.423 Y111.464
G1 F900 X110.32 Y106.36 E25.37592
G1 X110.25 Y106.29
G0 F1500 X109.745 Y106.351
G1 F900 X115.125 Y111.731 E25.7555
G1 X115.195 Y111.801
G0 F1500 X114.812 Y111.984
G1 F900 X109.206 Y106.378 E26.15104
G1 X109.136 Y106.308
G0 F1500 X108.674 Y106.411
G1 F900 X114.485 Y112.222 E26.56103
G1 X114.555 Y112.292
G0 F1500 X114.143 Y112.446
G1 F900 X108.142 Y106.445 E26.98444
G1 X108.072 Y106.375
G0 F1500 X107.609 Y106.478
G1 F900 X113.786 Y112.655 E27.42026
G1 X113.856 Y112.725
G0 F1500 X113.414 Y112.849
G1 F900 X107.077 Y106.511 E27.8674
G1 X107.007 Y106.441
G0 F1500 X106.544 Y106.544
G1 F900 X113.023 Y113.023 E28.32453
G1 X113.093 Y113.093
G0 F1500 X112.616 Y113.182
G1 F900 X106.012 Y106.577 E28.79051
G1 X105.942 Y106.507
G0 F1500 X105.479 Y106.611
G1 F900 X112.186 Y113.318 E29.26373
G1 X112.256 Y113.388
G0 F1500 X111.741 Y113.438
G1 F900 X104.947 Y106.644 E29.74308
G1 X104.877 Y106.574
G0 F1500 X104.414 Y106.677
G1 F900 X111.271 Y113.533 E30.22685
G1 X111.341 Y113.603
G0 F1500 X110.772 Y113.6
G1 F900 X103.882 Y106.71 E30.71297
G1 X103.812 Y106.64
G0 F1500 X103.35 Y106.744
G1 F900 X110.248 Y113.642 E31.19966
G1 X110.318 Y113.712
G0 F1500 X109.685 Y113.645
G1 F900 X102.816 Y106.776 E31.68431
G1 X102.746 Y106.706
G0 F1500 X102.284 Y106.809
G1 F900 X109.087 Y113.612 E32.1643
G1 X109.157 Y113.682
G0 F1500 X108.484 Y113.575
G1 F900 X101.751 Y106.843 E32.63931
G1 X101.681 Y106.773
G0 F1500 X101.219 Y106.876
G1 F900 X107.881 Y113.538 E33.10935
G1 X107.951 Y113.608
G0 F1500 X107.277 Y113.5
G1 F900 X100.687 Y106.909 E33.57435
G1 X100.617 Y106.839
G0 F1500 X100.154 Y106.942
G1 F900 X106.674 Y113.462 E34.03437
G1 X106.744 Y113.532
