; generated by Slic3r 1.3.0-dev on 2018-01-03 at 22:54:56

; external perimeters extrusion width = 0.40mm (2.14mm^3/s)
; perimeters extrusion width = 0.67mm (7.54mm^3/s)
; infill extrusion width = 0.67mm (9.42mm^3/s)
; solid infill extrusion width = 0.67mm (9.42mm^3/s)
; top infill extrusion width = 0.67mm (9.42mm^3/s)

M190 S75 ; set bed temperature and wait for it to be reached
M104 S220 ; set temperature
G21 ;metric values
G90 ;absolute positioning
M82 ;set extruder to absolute mode
M107 ;start with the fan off
G28
G29
G92 E0 ;zero the extruded length
G1 F9000
M117 Printing (Slic3r 1.3)...
; Filament gcode

M109 S220 ; set temperature and wait for it to be reached
G21 ; set units to millimeters
G90 ; use absolute coordinates
M82 ; use absolute distances for extrusion
G92 E0
G1 Z0.300 F600.000
G1 E-3.00000 F3600.00000
G92 E0
G1 X89.005 Y100.319 F600.000
G1 E3.00000 F3600.00000
G1 F900
G1 X89.472 Y99.937 E3.04029
G1 X90.030 Y99.545 E3.08589
G1 X90.566 Y99.227 E3.12751
G1 X91.259 Y98.886 E3.17914
G1 X91.977 Y98.609 E3.23054
G1 X92.730 Y98.395 E3.28284
G1 X93.341 Y98.272 E3.32443
G1 X94.001 Y98.189 E3.36887
G1 X109.000 Y97.259 E4.37284
G1 X110.037 Y97.228 E4.44212
G1 X110.756 Y97.243 E4.49021
G1 X111.503 Y97.291 E4.54020
G1 X112.137 Y97.358 E4.58276
G1 X112.879 Y97.467 E4.63285
G1 X113.530 Y97.590 E4.67714
G1 X114.217 Y97.748 E4.72422
G1 X114.899 Y97.936 E4.77148
G1 X115.586 Y98.155 E4.81968
G1 X116.221 Y98.387 E4.86482
G1 X116.818 Y98.632 E4.90792
G1 X117.419 Y98.905 E4.95207
G1 X118.088 Y99.244 E5.00210
G1 X118.699 Y99.586 E5.04891
G1 X119.290 Y99.950 E5.09530
G1 X119.810 Y100.297 E5.13704
G1 X120.413 Y100.737 E5.18691
G1 X120.993 Y101.200 E5.23650
G1 X121.480 Y101.621 E5.27950
G1 X121.988 Y102.098 E5.32604
G1 X122.432 Y102.550 E5.36838
G1 X122.919 Y103.083 E5.41658
G1 X123.336 Y103.579 E5.45993
G1 X123.728 Y104.083 E5.50256
G1 X124.162 Y104.690 E5.55240
G1 X124.828 Y105.748 E5.63593
G1 X125.079 Y106.211 E5.67114
G1 X125.298 Y106.682 E5.70584
G1 X125.513 Y107.238 E5.74560
G1 X125.633 Y107.614 E5.77202
G1 X125.765 Y108.116 E5.80664
G1 X125.859 Y108.587 E5.83873
G1 X125.930 Y109.093 E5.87287
G1 X125.972 Y109.652 E5.91038
G1 X125.979 Y110.023 E5.93516
G1 X125.951 Y110.688 E5.97957
G1 X125.827 Y111.593 E6.04060
G1 X125.737 Y112.000 E6.06845
G1 X125.529 Y112.714 E6.11815
G1 X125.243 Y113.443 E6.17050
G1 X124.921 Y114.089 E6.21869
G1 X124.353 Y115.025 E6.29186
G1 X123.769 Y115.862 E6.36003
G1 X123.179 Y116.612 E6.42376
G1 X122.535 Y117.342 E6.48882
G1 X121.821 Y118.062 E6.55656
G1 X121.075 Y118.732 E6.62352
G1 X120.278 Y119.365 E6.69149
G1 X119.501 Y119.913 E6.75499
G1 X118.677 Y120.427 E6.81993
G1 X117.869 Y120.871 E6.88147
G1 X116.996 Y121.290 E6.94619
G1 X116.145 Y121.643 E7.00775
G1 X115.205 Y121.971 E7.07426
G1 X114.289 Y122.233 E7.13790
G1 X112.995 Y122.513 E7.22634
G1 X111.824 Y122.678 E7.30532
G1 X110.671 Y122.760 E7.38258
G1 X109.387 Y122.760 E7.46833
G1 X94.226 Y121.828 E8.48311
G1 X93.369 Y121.733 E8.54071
G1 X92.721 Y121.603 E8.58486
G1 X92.079 Y121.424 E8.62936
G1 X91.606 Y121.257 E8.66287
G1 X91.043 Y121.016 E8.70377
G1 X90.497 Y120.735 E8.74481
G1 X89.967 Y120.414 E8.78620
G1 X89.494 Y120.080 E8.82490
G1 X89.005 Y119.681 E8.86706
G1 X88.532 Y119.232 E8.91059
G1 X88.136 Y118.798 E8.94989
G1 X87.742 Y118.300 E8.99231
G1 X87.410 Y117.813 E9.03167
G1 X87.103 Y117.288 E9.07232
G1 X86.838 Y116.752 E9.11226
G1 X86.597 Y116.166 E9.15455
G1 X86.422 Y115.638 E9.19175
G1 X86.270 Y115.058 E9.23177
G1 X86.150 Y114.418 E9.27527
G1 X86.087 Y113.888 E9.31096
G1 X86.052 Y113.100 E9.36364
G1 X86.052 Y106.900 E9.77782
G1 X86.095 Y106.031 E9.83596
G1 X86.160 Y105.521 E9.87028
G1 X86.255 Y105.009 E9.90507
G1 X86.399 Y104.438 E9.94444
G1 X86.598 Y103.833 E9.98696
G1 X86.964 Y102.981 E10.04890
G1 X87.347 Y102.287 E10.10190
G1 X87.716 Y101.736 E10.14617
G1 X88.067 Y101.285 E10.18435
G1 X88.505 Y100.795 E10.22826
G1 X88.960 Y100.359 E10.27037
G1 X89.361 Y100.720 F600.000
G1 F900
G1 X89.795 Y100.364 E10.30788
G1 X90.323 Y99.994 E10.35092
G1 X90.825 Y99.695 E10.38996
G1 X91.475 Y99.376 E10.43832
G1 X92.147 Y99.117 E10.48645
G1 X92.852 Y98.916 E10.53544
G1 X93.425 Y98.801 E10.57447
G1 X94.050 Y98.723 E10.61653
G1 X109.033 Y97.794 E11.61942
G1 X109.903 Y97.764 E11.67759
G1 X110.560 Y97.772 E11.72147
G1 X111.294 Y97.812 E11.77059
G1 X111.932 Y97.873 E11.81343
G1 X112.639 Y97.970 E11.86109
G1 X113.325 Y98.095 E11.90762
G1 X113.987 Y98.243 E11.95295
G1 X114.665 Y98.425 E11.99986
G1 X115.254 Y98.608 E12.04108
G1 X115.852 Y98.819 E12.08343
G1 X116.483 Y99.071 E12.12879
G1 X117.028 Y99.313 E12.16866
G1 X117.683 Y99.636 E12.21742
G1 X118.323 Y99.987 E12.26622
G1 X118.873 Y100.319 E12.30916
G1 X119.420 Y100.679 E12.35285
G1 X119.954 Y101.061 E12.39674
G1 X120.497 Y101.485 E12.44276
G1 X120.972 Y101.886 E12.48429
G1 X121.434 Y102.308 E12.52609
G1 X121.924 Y102.793 E12.57217
G1 X122.780 Y103.746 E12.65777
G1 X123.229 Y104.311 E12.70595
G1 X123.628 Y104.859 E12.75119
G1 X124.253 Y105.826 E12.82818
G1 X124.506 Y106.269 E12.86222
G1 X124.737 Y106.738 E12.89713
G1 X125.055 Y107.559 E12.95598
G1 X125.219 Y108.135 E12.99598
G1 X125.315 Y108.589 E13.02696
G1 X125.396 Y109.135 E13.06384
G1 X125.434 Y109.613 E13.09587
G1 X125.443 Y110.023 E13.12331
G1 X125.417 Y110.643 E13.16475
G1 X125.301 Y111.492 E13.22198
G1 X125.217 Y111.874 E13.24809
G1 X125.022 Y112.540 E13.29449
G1 X124.754 Y113.224 E13.34358
G1 X124.451 Y113.831 E13.38888
G1 X123.903 Y114.734 E13.45946
G1 X123.340 Y115.542 E13.52525
G1 X122.768 Y116.269 E13.58702
G1 X122.144 Y116.976 E13.65003
G1 X121.451 Y117.676 E13.71583
G1 X120.728 Y118.324 E13.78068
G1 X119.958 Y118.935 E13.84634
G1 X119.207 Y119.465 E13.90774
G1 X118.408 Y119.964 E13.97069
G1 X117.622 Y120.396 E14.03062
G1 X116.779 Y120.800 E14.09304
G1 X115.955 Y121.142 E14.15267
G1 X115.042 Y121.461 E14.21727
G1 X114.153 Y121.715 E14.27905
G1 X112.900 Y121.986 E14.36469
G1 X111.768 Y122.145 E14.44106
G1 X110.653 Y122.225 E14.51574
G1 X109.408 Y122.225 E14.59892
G1 X94.259 Y121.294 E15.61285
G1 X93.451 Y121.203 E15.66715
G1 X92.843 Y121.082 E15.70856
G1 X92.242 Y120.914 E15.75030
G1 X91.797 Y120.756 E15.78180
G1 X91.269 Y120.530 E15.82018
G1 X90.756 Y120.267 E15.85869
G1 X90.259 Y119.965 E15.89752
G1 X89.815 Y119.651 E15.93385
G1 X89.361 Y119.280 E15.97304
G1 X88.914 Y118.856 E16.01421
G1 X88.545 Y118.452 E16.05079
G1 X88.172 Y117.981 E16.09088
G1 X87.864 Y117.528 E16.12747
G1 X87.575 Y117.036 E16.16562
G1 X87.326 Y116.533 E16.20310
G1 X87.101 Y115.983 E16.24278
G1 X86.935 Y115.487 E16.27772
G1 X86.792 Y114.940 E16.31551
G1 X86.680 Y114.337 E16.35649
G1 X86.621 Y113.838 E16.39005
G1 X86.588 Y113.100 E16.43941
G1 X86.588 Y106.900 E16.85359
G1 X86.628 Y106.081 E16.90840
G1 X86.689 Y105.604 E16.94047
G1 X86.778 Y105.125 E16.97303
G1 X86.913 Y104.589 E17.00999
G1 X87.101 Y104.016 E17.05026
G1 X87.443 Y103.219 E17.10820
G1 X87.803 Y102.569 E17.15783
G1 X88.148 Y102.052 E17.19934
G1 X88.477 Y101.629 E17.23519
G1 X88.889 Y101.170 E17.27636
G1 X89.316 Y100.760 E17.31592
G1 X89.716 Y101.120 F600.000
G1 F900
G1 X90.118 Y100.791 E17.35065
G1 X90.615 Y100.443 E17.39114
G1 X91.084 Y100.164 E17.42760
G1 X91.690 Y99.867 E17.47269
G1 X92.316 Y99.625 E17.51755
G1 X92.974 Y99.438 E17.56323
G1 X93.509 Y99.330 E17.59970
G1 X94.099 Y99.256 E17.63938
G1 X109.066 Y98.328 E18.64120
G1 X109.910 Y98.300 E18.69762
G1 X111.141 Y98.337 E18.77987
G1 X111.779 Y98.395 E18.82272
G1 X112.467 Y98.485 E18.86903
G1 X113.063 Y98.589 E18.90945
G1 X113.747 Y98.736 E18.95623
G1 X114.973 Y99.080 E19.04127
G1 X115.611 Y99.301 E19.08637
G1 X116.186 Y99.527 E19.12767
G1 X117.329 Y100.056 E19.21179
G1 X118.389 Y100.649 E19.29294
G1 X118.932 Y100.996 E19.33597
G1 X119.455 Y101.359 E19.37853
G1 X119.925 Y101.714 E19.41788
G1 X120.464 Y102.155 E19.46436
G1 X120.913 Y102.554 E19.50451
G1 X121.445 Y103.069 E19.55397
G1 X122.284 Y103.988 E19.63707
G1 X123.042 Y104.959 E19.71943
G1 X123.720 Y105.979 E19.80122
G1 X123.993 Y106.446 E19.83735
G1 X124.203 Y106.860 E19.86837
G1 X124.428 Y107.388 E19.90674
G1 X124.546 Y107.725 E19.93057
G1 X124.698 Y108.260 E19.96776
G1 X124.788 Y108.683 E19.99663
G1 X124.863 Y109.194 E20.03111
G1 X124.899 Y109.638 E20.06089
G1 X124.907 Y110.023 E20.08663
G1 X124.883 Y110.599 E20.12509
G1 X124.774 Y111.391 E20.17853
G1 X124.696 Y111.747 E20.20290
G1 X124.516 Y112.367 E20.24599
G1 X124.265 Y113.005 E20.29182
G1 X123.982 Y113.573 E20.33423
G1 X123.453 Y114.443 E20.40223
G1 X122.858 Y115.291 E20.47144
G1 X122.295 Y116.000 E20.53193
G1 X121.674 Y116.694 E20.59414
G1 X121.033 Y117.333 E20.65459
G1 X120.315 Y117.971 E20.71877
G1 X119.639 Y118.506 E20.77636
G1 X118.913 Y119.017 E20.83565
G1 X118.139 Y119.500 E20.89661
G1 X117.282 Y119.968 E20.96187
G1 X116.477 Y120.349 E21.02135
G1 X115.668 Y120.678 E21.07968
G1 X114.816 Y120.970 E21.13983
G1 X113.928 Y121.220 E21.20150
G1 X112.805 Y121.459 E21.27819
G1 X111.668 Y121.617 E21.35489
G1 X110.507 Y121.694 E21.43258
G1 X109.428 Y121.689 E21.50469
G1 X94.292 Y120.759 E22.51776
G1 X93.533 Y120.674 E22.56875
G1 X92.966 Y120.560 E22.60742
G1 X92.404 Y120.403 E22.64639
G1 X91.988 Y120.256 E22.67590
G1 X91.494 Y120.044 E22.71176
G1 X91.016 Y119.798 E22.74773
G1 X90.552 Y119.516 E22.78400
G1 X90.136 Y119.223 E22.81796
G1 X89.716 Y118.880 E22.85418
G1 X89.295 Y118.480 E22.89299
G1 X88.953 Y118.105 E22.92686
G1 X88.603 Y117.662 E22.96462
G1 X88.318 Y117.244 E22.99844
G1 X88.048 Y116.784 E23.03408
G1 X87.815 Y116.314 E23.06911
G1 X87.604 Y115.800 E23.10617
G1 X87.449 Y115.336 E23.13886
G1 X87.315 Y114.821 E23.17441
G1 X87.209 Y114.256 E23.21287
G1 X87.154 Y113.788 E23.24430
G1 X87.123 Y113.100 E23.29034
G1 X87.123 Y106.900 E23.70451
G1 X87.154 Y106.211 E23.75057
G1 X87.225 Y105.643 E23.78885
G1 X87.318 Y105.164 E23.82146
G1 X87.427 Y104.740 E23.85072
G1 X87.578 Y104.273 E23.88348
G1 X87.773 Y103.781 E23.91885
G1 X88.031 Y103.248 E23.95836
G1 X88.318 Y102.756 E23.99645
G1 X88.650 Y102.275 E24.03549
G1 X88.936 Y101.915 E24.06621
G1 X89.272 Y101.544 E24.09964
G1 X89.672 Y101.160 E24.13667
G1 E21.13667 F3600.00000
G92 E0
G1 X110.191 Y113.788 F600.000
G1 E3.00000 F3600.00000
G1 F450
G1 X109.912 Y113.792 E3.01866
G1 X108.474 Y113.704 E3.11494
G1 X108.454 Y113.422 E3.13380
G1 X108.676 Y113.378 E3.14888
G1 X108.879 Y113.264 E3.16446
G1 X109.664 Y113.341 E3.21715
G1 X110.073 Y113.153 E3.24721
G1 X110.051 Y113.415 E3.26477
G1 X110.170 Y113.731 E3.28735
G1 E0.28735 F3600.00000
G92 E0
G1 X107.199 Y113.626 F600.000
G1 E3.00000 F3600.00000
G1 F450
G1 X105.007 Y113.492 E3.14671
G1 X105.014 Y113.183 E3.16739
G1 X105.929 Y113.170 E3.22853
G1 X106.461 Y113.085 E3.26455
G1 X106.670 Y113.014 E3.27922
G1 X106.959 Y113.231 E3.30339
G1 X107.263 Y113.365 E3.32554
G1 X107.213 Y113.568 E3.33947
G1 E0.33947 F3600.00000
G92 E0
G1 X104.148 Y113.440 F600.000
G1 E3.00000 F3600.00000
G1 F450
G1 X103.306 Y113.388 E3.05641
G1 X103.254 Y113.150 E3.07267
G1 X103.721 Y112.903 E3.10794
G1 X103.962 Y113.099 E3.12873
G1 X104.184 Y113.139 E3.14381
G1 X104.156 Y113.380 E3.16007
G1 E0.16007 F3600.00000
G92 E0
G1 X100.869 Y113.239 F600.000
G1 E3.00000 F3600.00000
G1 F450
G1 X100.074 Y113.191 E3.05321
G1 X100.023 Y112.951 E3.06956
G1 X100.173 Y112.874 E3.08084
G1 X100.419 Y112.595 E3.10566
G1 X100.652 Y112.822 E3.12734
G1 X100.944 Y112.999 E3.15016
G1 X100.887 Y113.182 E3.16296
G1 E0.16296 F3600.00000
G92 E0
G1 X98.303 Y113.082 F600.000
G1 E3.00000 F3600.00000
G1 F450
G1 X97.208 Y113.016 E3.07330
G1 X97.648 Y112.701 E3.10946
G1 X97.769 Y112.576 E3.12107
G1 X98.259 Y113.041 E3.16627
G1 X97.904 Y111.436 F600.000
G1 F450
G1 X98.115 Y112.166 E3.21706
G1 X98.491 Y112.523 E3.25165
G1 X98.956 Y112.673 E3.28432
G1 X99.449 Y112.645 E3.31732
G1 X99.838 Y112.444 E3.34656
G1 X100.092 Y112.156 E3.37221
G1 X100.225 Y111.851 E3.39445
G1 X100.253 Y111.694 E3.40511
G1 X100.517 Y111.689 E3.42276
G1 X100.542 Y111.804 E3.43060
G1 X100.730 Y112.151 E3.45698
G1 X100.982 Y112.396 E3.48041
G1 X101.246 Y112.556 E3.50103
G1 X101.534 Y112.665 E3.52163
G1 X101.845 Y112.735 E3.54294
G1 X102.365 Y112.762 E3.57772
G1 X102.715 Y112.728 E3.60121
G1 X103.111 Y112.620 E3.62861
G1 X103.491 Y112.419 E3.65734
G1 X103.769 Y112.180 E3.68183
G1 X103.856 Y112.323 E3.69303
G1 X104.192 Y112.596 E3.72193
G1 X104.664 Y112.680 E3.75397
G1 X105.020 Y112.647 E3.77780
G1 X105.883 Y112.635 E3.83547
G1 X106.332 Y112.563 E3.86589
G1 X106.824 Y112.397 E3.90054
G1 X106.923 Y112.535 E3.91188
G1 X107.232 Y112.766 E3.93764
G1 X107.521 Y112.894 E3.95878
G1 X107.996 Y112.968 E3.99093
G1 X108.488 Y112.869 E4.02442
G1 X108.888 Y112.646 E4.05502
G1 X109.067 Y112.745 E4.06868
G1 X109.572 Y112.794 E4.10259
G1 X110.091 Y112.556 E4.14068
G1 X110.257 Y112.681 E4.15455
G1 X110.642 Y112.798 E4.18144
G1 X110.595 Y113.340 E4.21779
G1 X110.790 Y113.857 E4.25474
G1 X111.178 Y114.259 E4.29206
G1 X110.449 Y114.319 E4.34093
G1 X109.900 Y114.328 E4.37762
G1 X94.790 Y113.404 E5.38894
G1 X94.688 Y113.388 E5.39587
G1 X94.553 Y113.306 E5.40638
G1 X94.514 Y113.209 E5.41331
G1 X94.495 Y113.049 E5.42413
G1 X94.495 Y112.341 E5.47141
G1 X94.872 Y112.557 E5.50043
G1 X95.333 Y112.710 E5.53288
G1 X95.893 Y112.764 E5.57049
G1 X96.245 Y112.741 E5.59403
G1 X96.578 Y112.676 E5.61672
G1 X97.022 Y112.490 E5.64889
G1 X97.296 Y112.294 E5.67139
G1 X97.526 Y112.055 E5.69351
G1 X97.873 Y111.487 E5.73798
G1 X98.012 Y111.018 F600.000
G1 F450
G1 X97.371 Y110.350 E5.79986
G1 X96.967 Y110.167 E5.82947
G1 X96.706 Y110.137 E5.84699
G1 X96.683 Y109.877 E5.86443
G1 X97.199 Y109.719 E5.90051
G1 X97.434 Y109.539 E5.92031
G1 X98.003 Y109.620 E5.95870
G1 X98.011 Y110.958 E6.04812
G1 X96.667 Y110.095 F600.000
G1 F450
G1 X96.037 Y110.265 E6.09169
G1 X95.779 Y110.536 E6.11671
G1 X95.755 Y109.956 E6.15551
G1 X95.805 Y109.507 E6.18565
G1 X96.180 Y109.719 E6.21441
G1 X96.479 Y109.814 E6.23541
G1 X96.638 Y109.822 E6.24601
G1 X96.660 Y110.035 E6.26031
G1 E3.26031 F3600.00000
G92 E0
G1 X100.270 Y109.577 F600.000
G1 E3.00000 F3600.00000
G1 F450
G1 X100.572 Y109.547 E3.02028
G1 X100.969 Y109.423 E3.04804
G1 X100.900 Y109.697 E3.06690
G1 X100.907 Y110.043 E3.09003
G1 X101.027 Y110.387 E3.11440
G1 X100.772 Y110.548 E3.13456
G1 X100.511 Y110.980 E3.16832
G1 X100.276 Y110.916 E3.18460
G1 X100.270 Y109.637 E3.27004
G1 E0.27004 F3600.00000
G92 E0
G1 X113.243 Y113.709 F600.000
G1 E3.00000 F3600.00000
G1 F450
G1 X113.573 Y112.983 E3.05329
G1 X113.860 Y112.242 E3.10636
G1 X114.214 Y112.657 E3.14282
G1 X114.897 Y112.837 E3.19000
G1 X114.165 Y113.280 E3.24715
G1 X113.682 Y113.523 E3.28325
G1 X113.298 Y113.686 E3.31112
G1 X111.437 Y113.756 F600.000
G1 F450
G1 X111.717 Y113.843 E3.33069
G1 X111.922 Y113.833 E3.34440
G1 X112.141 Y113.784 E3.35943
G1 X112.478 Y113.640 E3.38388
G1 X112.697 Y113.463 E3.40270
G1 X112.898 Y113.172 E3.42633
G1 X113.079 Y112.775 E3.45549
G1 X113.321 Y112.149 E3.50034
G1 X114.054 Y110.071 E3.64756
G1 X114.231 Y109.666 E3.67705
G1 X114.610 Y109.902 E3.70683
G1 X114.800 Y109.949 E3.71993
G1 X115.195 Y109.974 E3.74636
G1 X114.375 Y111.116 E3.84029
G1 X114.286 Y111.301 E3.85404
G1 X114.239 Y111.487 E3.86683
G1 X114.237 Y111.687 E3.88022
G1 X114.306 Y111.940 E3.89775
G1 X114.513 Y112.182 E3.91899
G1 X114.795 Y112.256 E3.93846
G1 X115.189 Y112.237 E3.96484
G1 X116.466 Y112.240 E4.05014
G1 X115.837 Y112.803 E4.10650
G1 X115.158 Y113.305 E4.16291
G1 X114.424 Y113.749 E4.22020
G1 X113.908 Y114.009 E4.25885
G1 X113.342 Y114.249 E4.29990
G1 X112.772 Y114.447 E4.34020
G1 X112.190 Y114.608 E4.38057
G1 X111.593 Y114.731 E4.42128
G1 X111.087 Y114.804 E4.45542
G1 X110.475 Y114.854 E4.49642
G1 X109.888 Y114.864 E4.53568
G1 X94.730 Y113.937 E5.55020
G1 X94.537 Y113.906 E5.56327
G1 X94.337 Y113.820 E5.57781
G1 X94.167 Y113.682 E5.59242
G1 X94.079 Y113.561 E5.60246
G1 X93.991 Y113.345 E5.61801
G1 X93.959 Y113.082 E5.63574
G1 X93.960 Y111.237 E5.75894
G1 X94.188 Y111.168 E5.77485
G1 X94.486 Y111.613 E5.81060
G1 X94.795 Y111.896 E5.83861
G1 X95.091 Y112.066 E5.86144
G1 X95.444 Y112.182 E5.88624
G1 X95.901 Y112.226 E5.91696
G1 X96.176 Y112.208 E5.93533
G1 X96.422 Y112.160 E5.95208
G1 X96.760 Y112.019 E5.97655
G1 X96.945 Y111.887 E5.99173
G1 X97.099 Y111.726 E6.00663
