; generated by Slic3r Prusa Edition 1.38.5-prusa3d-win64 on 2018-01-03 at 23:42:54

; 

; external perimeters extrusion width = 0.45mm
; perimeters extrusion width = 0.45mm
; infill extrusion width = 0.45mm
; solid infill extrusion width = 0.45mm
; top infill extrusion width = 0.40mm
; first layer extrusion width = 0.60mm

M107
M190 S75 ; set bed temperature and wait for it to be reached
M104 S220 ; set temperature
G21 ;metric values
G90 ;absolute positioning
M82 ;set extruder to absolute mode
M107 ;start with the fan off
G28
G29
G92 E0 ;zero the extruded length
G1 F9000
M117 Printing (Slic3r Prusa)...
; Filament gcode
M109 S220 ; set temperature and wait for it to be reached
G21 ; set units to millimeters
G90 ; use absolute coordinates
M82 ; use absolute distances for extrusion
G92 E0
G1 Z0.300 F6000.000
G1 E-3.00000 F3600.00000
G92 E0
G1 X89.463 Y99.943 F6000.000
G1 E3.00000 F3600.00000
G1 F900
G1 X90.671 Y99.169 E3.09583
G1 X91.929 Y98.626 E3.18735
G1 X93.277 Y98.282 E3.28029
G1 X109.999 Y97.228 E4.39963
G1 X112.187 Y97.364 E4.54608
G1 X114.321 Y97.775 E4.69128
G1 X116.375 Y98.447 E4.83566
G1 X118.372 Y99.399 E4.98346
G1 X120.249 Y100.613 E5.13277
G1 X121.951 Y102.062 E5.28211
G1 X123.361 Y103.610 E5.42202
G1 X124.642 Y105.433 E5.57087
G1 X125.383 Y106.889 E5.68001
G1 X125.822 Y108.381 E5.78388
G1 X125.979 Y109.944 E5.88880
G1 X125.836 Y111.543 E5.99606
G1 X125.449 Y112.938 E6.09279
G1 X124.841 Y114.231 E6.18827
G1 X123.709 Y115.943 E6.32535
G1 X122.416 Y117.468 E6.45892
G1 X121.248 Y118.583 E6.56681
G1 X119.954 Y119.601 E6.67675
G1 X118.682 Y120.424 E6.77800
G1 X117.237 Y121.181 E6.88697
G1 X115.812 Y121.766 E6.98987
G1 X114.257 Y122.241 E7.09848
G1 X112.688 Y122.564 E7.20551
G1 X111.050 Y122.742 E7.31559
G1 X109.117 Y122.747 E7.44470
G1 X93.507 Y121.754 E8.48969
G1 X92.154 Y121.447 E8.58236
G1 X90.928 Y120.961 E8.67043
G1 X89.775 Y120.285 E8.75976
G1 X88.743 Y119.441 E8.84877
G1 X87.607 Y118.111 E8.96563
G1 X86.769 Y116.598 E9.08117
G1 X86.247 Y114.952 E9.19657
G1 X86.053 Y113.220 E9.31300
G1 X86.054 Y106.750 E9.74520
G1 X86.214 Y105.207 E9.84887
G1 X86.527 Y104.031 E9.93015
G1 X87.013 Y102.883 E10.01343
G1 X87.646 Y101.833 E10.09538
G1 X88.451 Y100.852 E10.18012
G1 X89.418 Y99.983 E10.26698
G1 X89.960 Y100.241 F6000.000
G1 F900
G1 X91.043 Y99.580 E10.35177
G1 X92.210 Y99.097 E10.43616
G1 X93.488 Y98.791 E10.52390
G1 X110.002 Y97.764 E11.62927
G1 X112.122 Y97.896 E11.77117
G1 X114.187 Y98.294 E11.91168
G1 X116.178 Y98.946 E12.05164
G1 X118.125 Y99.874 E12.19574
G1 X119.935 Y101.047 E12.33984
G1 X121.589 Y102.458 E12.48504
G1 X123.050 Y104.079 E12.63088
G1 X124.213 Y105.759 E12.76738
G1 X124.897 Y107.117 E12.86893
G1 X125.310 Y108.558 E12.96909
G1 X125.443 Y110.087 E13.07164
G1 X125.283 Y111.579 E13.17183
G1 X124.864 Y112.964 E13.26850
G1 X124.221 Y114.227 E13.36322
G1 X123.122 Y115.829 E13.49298
G1 X121.813 Y117.320 E13.62557
G1 X120.698 Y118.349 E13.72692
G1 X119.481 Y119.279 E13.82924
G1 X118.187 Y120.091 E13.93130
G1 X116.807 Y120.788 E14.03459
G1 X115.453 Y121.324 E14.13185
G1 X113.908 Y121.776 E14.23939
G1 X112.327 Y122.077 E14.34692
G1 X110.848 Y122.216 E14.44612
G1 X109.037 Y122.206 E14.56713
G1 X93.577 Y121.223 E15.60201
G1 X92.288 Y120.928 E15.69034
G1 X91.111 Y120.454 E15.77516
G1 X90.015 Y119.799 E15.86046
G1 X89.026 Y118.970 E15.94664
G1 X87.994 Y117.729 E16.05448
G1 X87.223 Y116.297 E16.16309
G1 X86.755 Y114.766 E16.27003
G1 X86.588 Y113.122 E16.38046
G1 X86.589 Y106.756 E16.80576
G1 X86.745 Y105.282 E16.90477
G1 X87.059 Y104.132 E16.98441
G1 X87.561 Y102.991 E17.06765
G1 X88.172 Y102.019 E17.14437
G1 X88.976 Y101.081 E17.22686
G1 X89.914 Y100.280 E17.30930
G1 E14.30930 F3600.00000
G92 E0
G1 X88.454 Y102.547 F6000.000
G1 E3.00000 F3600.00000
G1 F900
G1 X89.446 Y101.369 E3.10287
G1 X90.350 Y100.621 E3.18124
G1 X91.356 Y100.022 E3.25947
G1 X92.430 Y99.589 E3.33684
G1 X93.621 Y99.312 E3.41853
G1 X109.998 Y98.299 E4.51470
G1 X112.050 Y98.427 E4.65205
G1 X114.053 Y98.812 E4.78831
G1 X115.981 Y99.444 E4.92385
G1 X117.871 Y100.346 E5.06374
G1 X119.616 Y101.477 E5.20267
G1 X121.231 Y102.857 E5.34454
G1 X122.643 Y104.428 E5.48567
G1 X123.785 Y106.087 E5.62026
G1 X124.432 Y107.398 E5.71790
G1 X124.811 Y108.816 E5.81599
G1 X124.903 Y110.254 E5.91220
G1 X124.711 Y111.686 E6.00875
G1 X124.266 Y113.003 E6.10163
G1 X123.523 Y114.335 E6.20353
G1 X122.478 Y115.778 E6.32256
G1 X121.179 Y117.194 E6.45088
G1 X120.132 Y118.121 E6.54433
G1 X118.938 Y119.001 E6.64341
G1 X117.675 Y119.762 E6.74193
G1 X116.311 Y120.420 E6.84308
G1 X114.981 Y120.918 E6.93799
G1 X113.572 Y121.304 E7.03555
G1 X112.181 Y121.556 E7.13002
G1 X110.673 Y121.688 E7.23113
G1 X109.055 Y121.671 E7.33924
G1 X93.636 Y120.690 E8.37140
G1 X92.401 Y120.402 E8.45613
G1 X91.263 Y119.931 E8.53837
G1 X90.220 Y119.285 E8.62036
G1 X89.260 Y118.444 E8.70564
G1 X88.532 Y117.565 E8.78187
G1 X87.965 Y116.625 E8.85520
G1 X87.537 Y115.611 E8.92872
G1 X87.254 Y114.528 E9.00351
G1 X87.124 Y113.214 E9.09172
G1 X87.124 Y106.831 E9.51816
G1 X87.279 Y105.345 E9.61797
G1 X87.727 Y103.888 E9.71979
G1 X88.426 Y102.600 E9.81770
G1 E6.81770 F3600.00000
G92 E0
G1 X110.191 Y113.788 F6000.000
G1 E3.00000 F3600.00000
G1 F450
G1 X109.912 Y113.792 E3.01866
G1 X108.474 Y113.704 E3.11494
G1 X108.454 Y113.422 E3.13380
G1 X108.676 Y113.378 E3.14888
G1 X108.879 Y113.264 E3.16446
G1 X109.664 Y113.341 E3.21715
G1 X110.073 Y113.153 E3.24721
G1 X110.051 Y113.415 E3.26477
G1 X110.170 Y113.731 E3.28735
G1 E0.28735 F3600.00000
G92 E0
G1 X107.263 Y113.365 F6000.000
G1 E3.00000 F3600.00000
G1 F450
G1 X107.199 Y113.626 E3.01794
G1 X105.007 Y113.492 E3.16465
G1 X105.014 Y113.183 E3.18533
G1 X105.929 Y113.170 E3.24647
G1 X106.461 Y113.085 E3.28249
G1 X106.670 Y113.014 E3.29716
G1 X106.959 Y113.231 E3.32133
G1 X107.208 Y113.341 E3.33947
G1 E0.33947 F3600.00000
G92 E0
G1 X104.184 Y113.139 F6000.000
G1 E3.00000 F3600.00000
G1 F450
G1 X104.148 Y113.440 E3.02026
G1 X103.306 Y113.388 E3.07667
G1 X103.254 Y113.150 E3.09293
G1 X103.721 Y112.903 E3.12820
G1 X103.962 Y113.099 E3.14899
G1 X104.125 Y113.128 E3.16006
G1 E0.16006 F3600.00000
G92 E0
G1 X100.944 Y112.999 F6000.000
G1 E3.00000 F3600.00000
G1 F450
G1 X100.869 Y113.239 E3.01681
G1 X100.067 Y113.190 E3.07045
G1 X100.014 Y112.954 E3.08661
G1 X100.183 Y112.862 E3.09945
G1 X100.419 Y112.595 E3.12324
G1 X100.652 Y112.822 E3.14492
G1 X100.892 Y112.968 E3.16374
G1 E0.16374 F3600.00000
G92 E0
G1 X98.048 Y112.832 F6000.000
G1 E3.00000 F3600.00000
G1 F450
G1 X97.969 Y113.062 E3.01630
G1 X97.208 Y113.016 E3.06723
G1 X97.752 Y112.626 E3.11193
G1 X97.999 Y112.797 E3.13200
G1 X98.167 Y112.259 F6000.000
G1 F450
G1 X98.605 Y112.578 E3.16819
G1 X99.066 Y112.681 E3.19976
G1 X99.504 Y112.623 E3.22924
G1 X99.844 Y112.437 E3.25516
G1 X100.092 Y112.156 E3.28017
G1 X100.225 Y111.851 E3.30241
G1 X100.253 Y111.694 E3.31307
G1 X100.517 Y111.689 E3.33072
G1 X100.542 Y111.804 E3.33856
G1 X100.730 Y112.151 E3.36494
G1 X100.982 Y112.396 E3.38837
G1 X101.246 Y112.556 E3.40900
G1 X101.534 Y112.665 E3.42960
G1 X101.845 Y112.735 E3.45091
G1 X102.365 Y112.762 E3.48569
G1 X102.715 Y112.728 E3.50918
G1 X103.111 Y112.620 E3.53658
G1 X103.491 Y112.419 E3.56531
G1 X103.769 Y112.180 E3.58979
G1 X103.856 Y112.323 E3.60100
G1 X104.192 Y112.596 E3.62990
G1 X104.664 Y112.680 E3.66193
G1 X105.020 Y112.647 E3.68577
G1 X105.883 Y112.635 E3.74343
G1 X106.332 Y112.563 E3.77386
G1 X106.824 Y112.397 E3.80850
G1 X106.923 Y112.535 E3.81984
G1 X107.232 Y112.766 E3.84561
G1 X107.521 Y112.894 E3.86674
G1 X107.996 Y112.968 E3.89889
G1 X108.488 Y112.869 E3.93239
G1 X108.888 Y112.646 E3.96299
G1 X109.067 Y112.745 E3.97664
G1 X109.572 Y112.794 E4.01056
G1 X110.091 Y112.556 E4.04865
G1 X110.257 Y112.681 E4.06251
G1 X110.642 Y112.798 E4.08940
G1 X110.595 Y113.340 E4.12575
G1 X110.790 Y113.857 E4.16270
G1 X111.178 Y114.259 E4.20002
G1 X110.449 Y114.319 E4.24889
G1 X109.900 Y114.328 E4.28559
G1 X94.790 Y113.404 E5.29690
G1 X94.616 Y113.357 E5.30892
G1 X94.553 Y113.306 E5.31437
G1 X94.514 Y113.209 E5.32129
G1 X94.495 Y113.049 E5.33212
G1 X94.495 Y112.341 E5.37940
G1 X94.872 Y112.557 E5.40842
G1 X95.333 Y112.710 E5.44087
G1 X95.893 Y112.764 E5.47848
G1 X96.245 Y112.741 E5.50202
G1 X96.578 Y112.676 E5.52471
G1 X97.022 Y112.490 E5.55687
G1 X97.296 Y112.294 E5.57938
G1 X97.526 Y112.055 E5.60150
G1 X97.887 Y111.465 E5.64772
G1 X98.147 Y112.203 E5.70000
G1 X98.012 Y111.018 F6000.000
G1 F450
G1 X97.371 Y110.350 E5.76188
G1 X96.967 Y110.167 E5.79149
G1 X96.706 Y110.137 E5.80901
G1 X96.683 Y109.877 E5.82645
G1 X97.199 Y109.719 E5.86253
G1 X97.444 Y109.531 E5.88317
G1 X98.003 Y109.631 E5.92110
G1 X98.011 Y110.958 E6.00979
G1 X96.667 Y110.095 F6000.000
G1 F450
G1 X96.037 Y110.265 E6.05336
G1 X95.779 Y110.536 E6.07838
G1 X95.755 Y109.956 E6.11717
G1 X95.805 Y109.507 E6.14732
G1 X96.180 Y109.719 E6.17608
G1 X96.479 Y109.814 E6.19707
G1 X96.638 Y109.822 E6.20768
G1 X96.660 Y110.035 E6.22198
G1 E3.22198 F3600.00000
G92 E0
G1 X100.270 Y109.578 F6000.000
G1 E3.00000 F3600.00000
G1 F450
G1 X100.575 Y109.546 E3.02046
G1 X100.969 Y109.423 E3.04804
G1 X100.900 Y109.697 E3.06691
G1 X100.907 Y110.043 E3.09004
G1 X101.027 Y110.387 E3.11441
G1 X100.772 Y110.548 E3.13456
G1 X100.511 Y110.980 E3.16832
G1 X100.276 Y110.916 E3.18460
G1 X100.270 Y109.638 E3.26996
G1 E0.26996 F3600.00000
G92 E0
G1 X113.243 Y113.709 F6000.000
G1 E3.00000 F3600.00000
G1 F450
G1 X113.573 Y112.983 E3.05329
G1 X113.860 Y112.242 E3.10636
G1 X114.214 Y112.657 E3.14282
G1 X114.897 Y112.837 E3.19000
G1 X114.165 Y113.280 E3.24715
G1 X113.682 Y113.523 E3.28325
G1 X113.298 Y113.686 E3.31112
G1 X114.513 Y112.182 F6000.000
G1 F450
G1 X114.795 Y112.256 E3.33059
G1 X115.189 Y112.237 E3.35697
G1 X116.466 Y112.240 E3.44227
G1 X115.837 Y112.803 E3.49863
G1 X115.158 Y113.305 E3.55504
G1 X114.424 Y113.749 E3.61233
G1 X113.908 Y114.009 E3.65098
G1 X113.342 Y114.249 E3.69203
G1 X112.772 Y114.447 E3.73233
G1 X112.190 Y114.608 E3.77270
G1 X111.593 Y114.731 E3.81341
G1 X111.087 Y114.804 E3.84755
G1 X110.475 Y114.854 E3.88855
G1 X109.888 Y114.864 E3.92781
G1 X94.730 Y113.937 E4.94233
G1 X94.537 Y113.906 E4.95540
G1 X94.337 Y113.820 E4.96994
G1 X94.167 Y113.682 E4.98455
G1 X94.079 Y113.561 E4.99459
G1 X93.991 Y113.345 E5.01014
G1 X93.959 Y113.082 E5.02787
G1 X93.960 Y111.237 E5.15107
G1 X94.188 Y111.168 E5.16698
G1 X94.486 Y111.613 E5.20273
G1 X94.795 Y111.896 E5.23074
G1 X95.091 Y112.066 E5.25357
G1 X95.444 Y112.182 E5.27837
G1 X95.901 Y112.226 E5.30909
G1 X96.176 Y112.208 E5.32746
G1 X96.422 Y112.160 E5.34421
G1 X96.760 Y112.019 E5.36868
G1 X96.945 Y111.887 E5.38386
G1 X97.099 Y111.726 E5.39876
G1 X97.245 Y111.487 E5.41747
G1 X97.315 Y111.243 E5.43440
G1 X97.234 Y110.981 E5.45279
G1 X97.056 Y110.795 E5.46996
G1 X96.822 Y110.690 E5.48708
G1 X96.610 Y110.665 E5.50137
G1 X96.321 Y110.743 E5.52133
G1 X96.147 Y110.926 E5.53821
G1 X96.059 Y110.970 E5.54478
G1 X95.873 Y110.997 E5.55735
G1 X95.676 Y110.969 E5.57062
G1 X95.547 Y110.912 E5.58009
G1 X95.445 Y110.833 E5.58869
G1 X95.361 Y110.722 E5.59800
G1 X95.259 Y110.435 E5.61834
G1 X95.219 Y109.952 E5.65072
G1 X95.233 Y109.693 E5.66804
G1 X95.264 Y109.501 E5.68102
G1 X95.361 Y109.236 E5.69987
G1 X95.447 Y109.120 E5.70949
G1 X95.610 Y109.009 E5.72273
G1 X95.839 Y108.960 E5.73839
G1 X95.973 Y108.987 E5.74751
G1 X96.395 Y109.225 E5.77984
G1 X96.576 Y109.283 E5.79256
G1 X96.761 Y109.293 E5.80495
G1 X96.950 Y109.235 E5.81813
G1 X97.119 Y109.106 E5.83234
G1 X97.365 Y108.671 E5.86565
G1 X97.524 Y108.911 E5.88487
G1 X97.716 Y109.035 E5.90018
G1 X97.910 Y109.070 E5.91329
G1 X98.372 Y109.022 E5.94435
G1 X98.564 Y109.037 E5.95722
G1 X98.538 Y109.457 E5.98529
G1 X98.549 Y111.210 E6.10243
G1 X98.522 Y111.654 E6.13214
G1 X98.617 Y111.924 E6.15126
G1 X98.831 Y112.080 E6.16893
G1 X99.090 Y112.138 E6.18668
G1 X99.334 Y112.105 E6.20314
G1 X99.505 Y112.012 E6.21616
G1 X99.635 Y111.865 E6.22921
G1 X99.709 Y111.695 E6.24161
G1 X99.743 Y111.504 E6.25458
G1 X99.732 Y109.035 E6.41949
G1 X100.233 Y109.043 E6.45295
G1 X100.466 Y109.019 E6.46859
G1 X100.644 Y108.963 E6.48104
G1 X100.823 Y108.827 E6.49609
G1 X100.932 Y108.621 E6.51166
G1 X101.200 Y108.993 E6.54226
G1 X101.366 Y109.124 E6.55643
G1 X101.707 Y109.235 E6.58038
G1 X101.488 Y109.553 E6.60620
G1 X101.437 Y109.758 E6.62029
G1 X101.441 Y109.947 E6.63293
G1 X101.507 Y110.137 E6.64636
G1 X101.688 Y110.309 E6.66304
G1 X102.234 Y110.444 E6.70057
G1 X102.315 Y110.486 E6.70671
G1 X102.458 Y110.622 E6.71989
G1 X102.514 Y110.726 E6.72781
G1 X102.532 Y110.809 E6.73343
G1 X102.524 Y110.893 E6.73910
G1 X102.474 Y110.987 E6.74620
G1 X102.329 Y111.072 E6.75740
G1 X101.982 Y110.840 E6.78527
G1 X101.820 Y110.781 E6.79681
G1 X101.620 Y110.759 E6.81023
G1 X101.374 Y110.802 E6.82693
G1 X101.164 Y110.934 E6.84346
G1 X101.032 Y111.153 E6.86060
G1 X101.005 Y111.410 E6.87782
G1 X101.049 Y111.616 E6.89192
G1 X101.162 Y111.824 E6.90772
G1 X101.312 Y111.969 E6.92166
G1 X101.482 Y112.073 E6.93494
G1 X101.688 Y112.151 E6.94972
G1 X101.919 Y112.203 E6.96547
G1 X102.353 Y112.225 E6.99452
G1 X102.618 Y112.199 E7.01230
G1 X102.912 Y112.119 E7.03271
G1 X103.187 Y111.973 E7.05350
G1 X103.422 Y111.772 E7.07418
G1 X103.610 Y111.518 E7.09528
G1 X103.719 Y111.291 E7.11212
G1 X103.825 Y110.912 E7.13838
G1 X104.103 Y110.951 E7.15717
G1 X104.101 Y111.437 E7.18964
G1 X104.118 Y111.631 E7.20269
G1 X104.171 Y111.811 E7.21517
G1 X104.266 Y111.966 E7.22731
G1 X104.423 Y112.093 E7.24081
G1 X104.687 Y112.140 E7.25875
G1 X104.991 Y112.112 E7.27915
G1 X105.836 Y112.100 E7.33563
G1 X106.203 Y112.041 E7.36046
G1 X106.508 Y111.938 E7.38193
G1 X107.040 Y111.600 E7.42407
G1 X107.120 Y111.891 E7.44425
G1 X107.309 Y112.155 E7.46599
G1 X107.504 Y112.300 E7.48222
G1 X107.673 Y112.376 E7.49459
G1 X107.985 Y112.424 E7.51564
G1 X108.300 Y112.361 E7.53715
G1 X108.516 Y112.240 E7.55365
G1 X108.644 Y112.126 E7.56513
G1 X108.830 Y111.888 E7.58529
G1 X109.013 Y112.104 E7.60421
G1 X109.229 Y112.222 E7.62067
G1 X109.480 Y112.247 E7.63756
G1 X109.703 Y112.145 E7.65389
G1 X109.838 Y112.011 E7.66661
G1 X110.086 Y111.660 E7.69533
G1 X110.214 Y111.891 E7.71301
G1 X110.353 Y112.084 E7.72889
G1 X110.503 Y112.196 E7.74135
G1 X110.686 Y112.252 E7.75417
G1 X110.882 Y112.247 E7.76723
G1 X111.071 Y112.185 E7.78053
G1 X111.253 Y112.038 E7.79617
G1 X111.346 Y111.853 E7.80999
G1 X111.370 Y111.655 E7.82334
G1 X111.340 Y111.451 E7.83709
G1 X111.241 Y111.232 E7.85318
G1 X110.780 Y110.463 E7.91306
G1 X110.837 Y110.325 E7.92306
G1 X111.389 Y109.391 E7.99554
G1 X111.496 Y109.766 E8.02159
G1 X112.064 Y111.249 E8.12769
G1 X112.227 Y111.622 E8.15487
G1 X112.244 Y111.713 E8.16105
G1 X112.219 Y111.811 E8.16785
G1 X112.108 Y112.042 E8.18493
G1 X111.974 Y112.395 E8.21016
G1 X111.912 Y112.497 E8.21817
G1 X111.811 Y112.584 E8.22702
G1 X111.748 Y112.612 E8.23163
G1 X111.435 Y112.702 E8.25342
G1 X111.281 Y112.802 E8.26566
G1 X111.164 Y112.972 E8.27949
G1 X111.139 Y113.265 E8.29908
G1 X111.252 Y113.565 E8.32051
G1 X111.437 Y113.756 E8.33826
G1 X111.717 Y113.843 E8.35783
G1 X111.922 Y113.833 E8.37154
G1 X112.141 Y113.784 E8.38657
G1 X112.478 Y113.640 E8.41102
G1 X112.697 Y113.463 E8.42984
G1 X112.898 Y113.172 E8.45347
G1 X113.079 Y112.775 E8.48264
G1 X113.321 Y112.149 E8.52748
G1 X114.054 Y110.071 E8.67471
G1 X114.231 Y109.666 E8.70419
G1 X114.610 Y109.902 E8.73398
G1 X114.800 Y109.949 E8.74708
G1 X115.195 Y109.974 E8.77350
G1 X114.375 Y111.116 E8.86743
G1 X114.286 Y111.301 E8.88118
G1 X114.239 Y111.487 E8.89397
G1 X114.237 Y111.687 E8.90736
G1 X114.306 Y111.940 E8.92489
G1 X114.474 Y112.136 E8.94212
G1 X114.512 Y112.474 F6000.000
G1 E5.94212 F3600.00000
G92 E0
G1 X101.754 Y108.826 F6000.000
G1 E3.00000 F3600.00000
G1 F450
G1 X102.002 Y108.834 E3.01191
G1 F450
G1 X102.257 Y108.844 E3.02608
G1 X102.329 Y108.866 E3.03030
G1 X102.372 Y108.907 E3.03359
G1 F450
G1 X102.409 Y109.007 E3.03883
G1 X102.392 Y109.107 E3.04380
G1 F450
G1 X102.295 Y109.229 E3.05009
G1 F450
G1 X101.957 Y109.484 E3.06416
G1 E0.06416 F3600.00000
G92 E0
G1 X107.316 Y111.303 F6000.000
G1 E3.00000 F3600.00000
G1 F450
G1 X107.329 Y111.116 E3.00346
G1 X107.565 Y110.949 E3.00881
G1 E0.00881 F3600.00000
G92 E0
